{"type":"map","version":"1.10","tiledversion":"1.10.2","orientation":"orthogonal","renderorder":"right-down","width":256,"height":192,"tilewidth":32,"tileheight":32,"infinite":false,"nextlayerid":7,"nextobjectid":102359,"properties":[{"name":"seed","type":"int","value":20260807},{"name":"inlet","type":"string","value":"{\"headX\":140,\"mouthX\":207,\"y0\":85,\"y1\":87}"},{"name":"sourceHash","type":"string","value":"1n5x87d"},{"name":"gridsDerived","type":"bool","value":true},{"name":"version","type":"string","value":"mvp2-map-v1"}],"tilesets":[{"firstgid":1,"source":"../tilesets/terrain.tsj"},{"firstgid":3220,"source":"../tilesets/decals.tsj"}],"layers":[{"id":1,"name":"TerrainBase","type":"tilelayer","width":256,"height":192,"x":0,"y":0,"opacity":1,"visible":true,"data":[1,2,1,3,2,4,2,2,5,3,1,6,2,5,7,4,6,6,1,7,1,2,1,6,2,6,4,4,6,4,3,7,1,3,7,6,6,3,4,3,1,4,7,4,1,7,1,4,3,1,7,1,5,4,7,4,4,6,6,2,7,5,6,5,6,2,6,7,7,4,1,7,7,5,6,3,6,1,4,7,3,5,4,3,6,7,1,7,4,4,1,2,1,3,4,2,3,7,6,6,3,3,1,3,6,1,3,1,3,1,3,1,5,2,7,3,5,3,6,1,4,7,5,4,1,2,2,3,5,3,7,2,7,3,5,2,7,3,2,6,6,2,1,4,3,4,7,2,7,3,3,3,5,6,5,5,4,7,6,2,7,2,2,3,4,7,5,6,2,1,6,7,2,5,2,2,2,6,5,1,7,7,2,7,1,4,5,3,4,3,6,2,6,1,5,4,1,5,7,6,2,5,5,5,6,7,6,3,1,6,7,1,6,5,3,3,2,3,3,1,4,1,1,5,6,3,2,1,4,1,4,2,3,4,2,2,2,6,7,7,1,3,7,6,3,7,1,7,7,6,5,2,6,1,7,1,6,1,7,1,5,3,7,6,3,1,3,3,4,4,2,4,4,3,4,5,2,6,7,4,7,6,2,3,3,1,6,6,4,4,5,2,7,1,5,3,3,3,5,6,6,2,2,5,1,7,2,7,5,3,6,2,7,2,2,6,6,6,3,7,3,5,2,1,6,5,6,5,6,7,5,4,7,4,2,6,6,4,1,1,3,2,7,1,6,5,4,7,7,7,5,2,5,5,3,1,4,6,6,1,7,4,4,2,5,2,6,3,5,4,7,6,4,6,2,3,7,5,6,2,3,6,4,3,7,6,5,2,5,2,7,3,1,4,3,2,4,1,2,3,3,2,4,7,2,7,3,5,3,7,1,4,5,1,3,4,6,5,7,4,1,6,7,3,5,6,3,5,3,6,7,4,4,7,3,1,5,2,4,4,3,4,6,4,1,1,7,1,5,4,6,2,7,7,4,2,4,7,4,1,3,1,5,5,5,4,6,3,1,2,6,3,4,4,5,1,6,3,2,1,4,6,6,2,2,4,5,4,1,4,1,3,1,3,4,5,7,6,5,7,2,3,7,1,5,7,3,1,5,2,1,6,2,3,6,2,7,6,1,1,6,3,1,7,7,1,6,1,7,4,1,6,5,5,5,2,5,4,1,1,1,4,3,3,2,5,2,1,1,5,7,6,7,7,4,3,2,3,6,4,4,5,4,5,1,1,7,6,5,7,6,3,2,2,1,5,7,6,4,3,2,1,2,3,2,3,1,5,1,2,4,3,5,5,3,3,4,6,4,6,7,1,5,1,1,5,1,3,2,3,6,5,5,2,7,2,7,2,7,4,7,5,5,1,2,1,6,2,2,2,7,1,3,3,3,1,7,5,2,7,3,2,2,1,3,6,1,1,3,5,7,1,7,5,4,7,5,5,7,7,4,4,7,2,6,7,2,7,7,4,4,7,3,6,2,7,7,2,6,1,3,5,1,4,7,1,6,2,7,4,1,6,7,4,5,3,5,6,1,5,4,5,5,7,1,7,3,5,2,3,3,4,5,1,6,4,2,6,7,7,4,6,2,2,6,6,7,7,6,5,7,5,1,5,6,1,5,7,1,4,3,3,1,5,7,6,7,5,2,5,2,3,2,4,1,5,7,1,5,4,2,4,6,5,7,3,4,2,3,5,6,4,6,7,6,4,7,5,5,5,1,7,1,7,1,2,4,2,3,1,7,7,4,5,7,4,3,6,7,5,6,3,6,7,4,1,6,5,5,2,3,5,6,5,1,2,2,3,3,4,3,2,4,3,3,2,2,5,4,1,4,3,1,3,2,6,1,3,1,1,1,7,1,7,1,6,1,4,2,7,5,2,2,5,4,2,2,1,3,5,2,3,6,1,6,1,4,7,6,6,2,6,2,6,7,5,6,3,4,7,3,3,3,7,6,7,2,3,6,1,6,7,2,4,3,5,3,7,2,3,4,3,2,4,4,6,1,1,1,4,3,6,7,3,6,6,3,2,5,6,7,2,1,7,5,6,4,3,5,5,4,4,2,4,2,4,1,6,4,3,5,4,1,6,5,3,4,5,3,6,7,4,7,7,4,1,2,4,3,6,7,3,4,6,7,2,4,5,4,3,2,2,1,6,1,2,7,7,5,4,7,4,1,5,5,6,5,7,3,5,7,4,3,1,5,5,3,6,3,3,7,2,6,3,4,7,4,1,6,1,2,4,5,5,7,5,6,2,7,4,1,6,5,3,2,5,6,1,3,6,3,2,1,7,6,4,4,2,4,6,3,7,5,3,6,2,2,6,3,4,6,4,7,7,5,4,5,5,7,7,5,2,4,6,7,5,4,3,2,3,6,1,7,1,6,5,4,6,2,7,4,3,1,3,2,7,1,1,7,5,4,3,4,2,3,3,3,2,6,5,1,5,3,3,7,5,7,7,1,7,3,6,7,2,6,5,1,5,6,3,4,2,1,5,2,2,3,2,1,5,3,4,2,6,5,1,3,5,4,1,2,7,4,2,2,2,2,6,1,5,5,4,2,4,3,5,3,6,1,1,4,1,7,4,7,5,7,5,2,2,7,5,4,7,7,4,2,4,3,5,7,3,1,2,3,7,3,5,3,2,2,1,2,2,2,4,7,2,6,7,7,4,2,4,6,4,5,4,5,6,2,7,3,2,5,1,5,6,2,1,3,7,3,4,6,1,6,1,2,4,7,7,6,5,3,2,7,1,2,7,7,7,7,2,1,6,6,6,1,7,3,1,7,7,6,7,5,5,5,5,5,3,5,2,5,3,4,1,7,1,6,6,2,6,6,1,6,3,3,2,4,6,3,2,6,7,7,4,2,2,2,2,7,6,3,7,6,7,4,3,7,1,7,7,4,1,3,7,2,6,4,6,6,6,1,4,3,6,6,1,1,5,2,5,6,5,5,7,5,4,1,4,2,5,4,7,3,1,1,1,1,2,3,3,2,3,2,6,1,7,7,1,5,4,3,4,4,6,6,6,5,7,6,6,7,3,1,5,6,4,7,3,3,7,2,1,6,5,4,4,1,4,7,6,2,6,1,2,1,7,6,4,4,7,5,7,6,7,2,4,4,2,1,7,2,4,7,2,4,6,1,7,5,7,1,7,1,6,2,5,6,5,3,4,4,6,1,1,3,2,1,6,7,2,1,7,6,6,3,6,5,6,4,7,5,5,2,7,1,6,6,3,1,7,5,3,5,3,4,5,4,5,7,1,7,3,1,4,6,6,3,7,4,7,7,4,6,7,4,5,3,3,7,2,4,5,2,2,5,6,5,6,2,2,4,5,5,4,2,6,4,2,5,3,3,1,6,5,5,1,2,4,6,3,6,3,4,4,7,1,7,1,2,4,2,2,3,7,5,4,7,5,1,7,6,4,5,2,5,7,4,1,5,5,5,2,1,5,3,5,3,5,4,6,2,7,1,7,1,5,7,4,4,5,6,4,5,7,2,2,6,6,1,3,4,1,4,1,7,3,5,2,7,3,3,6,3,2,5,5,7,4,1,5,4,5,3,4,6,6,3,6,3,4,3,2,5,2,6,7,4,2,4,1,6,2,3,1,4,3,6,7,6,6,4,6,5,7,6,1,7,7,4,7,6,1,1,7,5,5,4,1,2,6,3,1,1,6,5,3,2,3,3,2,3,5,6,7,1,5,5,1,2,3,5,3,7,6,4,7,5,1,7,3,3,6,7,2,1,1,1,3,2,3,6,6,4,4,1,7,5,3,6,4,6,2,2,2,7,3,1,6,1,4,7,1,6,4,2,5,7,2,3,7,5,6,2,7,1,3,2,1,5,3,4,4,1,3,6,1,6,2,4,1,2,1,7,2,4,1,5,7,4,4,1,1,2,5,3,5,2,4,1,2,6,1,6,1,5,2,2,4,5,6,4,2,4,2,5,3,3,1,2,7,3,2,1,6,3,5,3,6,1,3,3,6,1,2,4,5,7,5,3,1,4,5,6,4,7,6,7,1,3,3,6,4,2,7,5,3,1,2,2,6,3,6,6,2,1,3,3,5,3,6,1,3,5,3,7,1,5,3,2,4,3,2,4,1,3,6,3,7,2,6,7,3,1,2,4,6,5,5,4,3,6,2,3,2,7,4,4,5,6,6,7,6,5,4,3,6,7,7,5,3,1,5,3,2,3,1,5,2,4,7,5,4,1,1,2,5,3,7,4,6,6,4,3,3,4,2,5,3,7,3,3,1,6,4,6,4,3,3,2,5,6,7,7,7,4,1,7,4,2,2,2,2,2,6,6,1,1,2,5,4,7,7,3,5,4,4,7,2,3,3,2,3,4,4,5,1,3,7,1,4,1,4,3,5,3,4,2,4,1,7,2,6,3,4,1,2,2,3,1,6,3,1,2,7,6,4,5,1,2,5,3,4,5,7,6,7,7,1,1,2,4,3,5,1,1,3,3,4,6,4,1,3,6,2,1,4,3,7,3,3,3,2,3,5,6,2,3,4,5,7,1,7,5,4,1,2,6,6,2,4,6,6,1,3,7,4,5,7,4,4,5,1,1,6,2,3,2,6,7,6,4,7,6,7,2,7,3,1,6,2,7,7,5,6,2,1,6,5,5,4,1,1,1,3,4,4,1,5,6,1,3,3,3,6,2,7,5,3,1,2,6,6,7,5,3,5,2,1,3,1,1,2,1,3,2,3,1,5,5,1,7,1,2,2,2,3,2,2,1,5,1,7,6,3,3,4,7,6,4,6,4,6,5,6,1,4,6,5,2,3,2,5,1,5,3,2,2,1,7,6,1,3,2,5,6,6,2,5,6,2,1,2,7,6,4,2,2,1,3,5,3,6,5,1,2,5,5,7,2,1,3,5,7,3,2,5,4,2,2,3,2,6,4,3,7,3,6,7,2,4,6,4,5,2,2,4,2,7,6,7,1,1,7,5,4,2,7,2,6,1,7,2,1,7,3,4,1,2,2,6,5,7,6,1,5,3,2,6,7,5,7,3,3,6,1,1,6,5,2,5,7,4,4,1,3,7,1,2,7,6,4,7,2,5,1,4,7,4,5,6,4,3,3,7,1,5,5,1,3,5,4,6,2,1,2,4,1,5,2,6,4,6,2,1,6,5,2,5,1,2,7,4,4,2,6,7,5,2,5,2,5,5,1,3,5,6,1,2,3,3,7,4,5,7,7,5,7,4,7,6,7,3,7,3,6,7,1,2,6,5,6,2,3,5,3,5,5,2,2,6,5,6,4,2,3,7,4,6,2,5,4,1,7,1,4,3,7,5,4,4,1,6,1,1,1,7,2,7,1,7,3,2,6,7,4,6,3,2,3,3,3,5,2,3,6,1,6,4,4,4,5,7,1,3,2,6,1,6,1,7,3,7,4,3,3,7,7,7,4,2,5,1,1,7,1,7,4,3,5,2,1,7,7,3,7,4,5,6,5,1,4,4,3,6,4,7,6,1,3,1,5,5,6,2,4,3,7,5,4,7,5,1,4,6,3,6,2,4,1,4,4,1,5,1,5,3,1,5,4,1,5,1,7,7,5,7,7,6,2,7,2,2,6,3,1,6,6,6,7,3,1,3,3,7,6,4,1,2,3,6,5,5,4,3,1,3,5,6,6,6,7,4,3,3,3,2,6,6,6,1,3,3,3,2,2,2,1,3,4,4,6,1,7,4,6,7,6,5,6,2,7,4,4,7,3,7,6,7,5,4,2,7,7,4,4,1,7,1,4,3,6,7,7,5,6,6,6,3,1,7,5,5,3,5,4,6,7,5,5,5,1,2,4,5,3,6,3,3,2,2,1,2,2,5,7,2,6,2,4,4,1,4,4,4,2,7,4,5,1,2,1,5,7,6,7,5,6,6,7,7,6,7,2,3,4,5,7,3,1,4,4,5,2,7,2,7,7,6,7,1,4,4,4,2,1,4,4,1,7,7,5,7,2,1,4,5,5,6,1,5,2,4,2,6,6,3,7,5,2,5,3,7,7,3,3,7,4,4,5,3,2,6,5,1,4,7,7,3,5,1,1,6,5,4,1,7,6,3,3,3,1,1,3,4,1,6,7,7,2,4,3,4,2,3,6,4,6,1,2,6,1,1,2,3,1,7,3,6,7,6,2,7,7,1,5,1,3,5,2,1,7,4,7,3,5,5,2,1,1,5,6,6,3,6,4,2,2,6,3,4,3,3,5,3,6,5,6,1,7,4,5,5,7,7,4,2,4,1,5,5,6,6,4,3,6,5,2,4,6,1,5,3,3,1,5,6,2,5,3,1,3,4,7,2,3,1,1,2,5,1,5,5,1,7,2,5,3,1,2,1,3,2,5,6,3,1,6,4,6,7,3,5,5,1,3,7,7,1,6,1,4,7,1,1,6,7,3,6,1,3,5,4,6,4,5,5,3,5,5,3,4,1,3,1,7,7,2,6,6,5,2,6,3,3,6,1,3,3,3,6,1,4,2,5,3,6,3,6,1,6,1,2,3,5,6,3,2,1,1,6,3,3,2,4,6,6,6,2,7,7,6,7,7,3,6,2,5,2,4,5,5,5,1,4,7,7,4,1,5,4,1,2,3,5,3,1,4,5,6,7,5,6,6,5,4,4,5,5,4,1,4,2,7,4,4,1,4,6,6,5,5,6,6,2,2,3,4,2,3,5,7,4,3,7,5,5,3,7,1,4,3,5,1,2,5,2,4,7,7,6,7,3,6,4,7,5,4,2,2,5,7,5,7,7,1,5,4,3,6,1,3,1,4,5,6,5,4,1,4,6,1,4,7,2,5,1,6,2,5,5,3,3,1,6,4,3,5,7,2,6,2,1,5,2,2,1,6,3,4,3,6,5,1,6,1,7,4,1,7,7,6,5,1,3,2,6,4,4,2,1,3,3,7,4,6,2,4,1,3,4,2,3,3,1,4,3,6,3,4,7,6,3,5,7,3,4,5,4,2,7,3,5,6,3,3,1,1,7,5,6,7,7,6,4,1,7,5,4,6,5,1,7,4,3,3,1,3,3,1,1,3,4,7,7,6,7,1,6,3,4,1,7,7,1,7,3,5,4,4,6,2,6,3,7,4,2,6,3,7,5,4,2,3,4,1,1,3,5,3,1,7,6,4,6,7,7,7,4,3,5,1,2,5,3,4,3,7,3,4,3,2,2,7,1,3,4,6,3,2,1,2,6,5,3,3,3,6,4,4,7,7,2,4,2,7,7,1,1,4,6,6,6,2,4,7,7,5,7,1,6,5,1,5,6,5,4,5,2,2,1,2,4,5,2,6,3,1,1,2,2,6,4,7,1,2,7,3,2,5,5,4,3,6,5,7,5,7,7,5,7,2,3,2,7,2,2,4,5,1,6,4,6,2,3,7,2,4,1,6,6,1,2,1,4,7,7,5,7,2,3,5,5,1,7,3,5,3,1,5,2,7,3,4,3,3,5,2,3,4,4,7,5,5,5,6,6,3,1,7,5,3,6,2,1,2,2,4,1,5,1,5,4,7,4,3,2,4,4,4,5,2,2,1,3,4,5,5,3,2,6,5,2,3,6,4,2,6,1,3,6,5,2,3,5,7,4,2,6,3,4,1,5,5,4,7,2,5,2,7,5,5,1,5,7,5,5,7,6,2,7,6,4,4,6,3,3,7,5,5,5,5,4,6,5,5,1,1,4,1,1,2,2,6,4,7,7,5,2,3,7,3,3,2,5,5,7,7,4,3,6,1,1,5,5,7,5,4,5,6,3,4,2,3,4,4,7,6,2,7,2,6,6,3,3,3,1,7,6,3,3,1,5,3,4,6,3,5,7,1,1,5,6,7,1,4,3,6,2,3,3,6,4,7,6,2,1,4,1,3,4,3,1,1,7,4,6,3,3,1,2,1,6,6,4,4,7,5,1,3,4,1,4,2,1,4,2,3,6,7,2,1,4,5,7,6,5,1,5,1,1,6,6,7,6,5,7,7,4,5,3,5,7,3,6,1,5,3,6,7,5,7,6,4,3,4,1,6,2,1,2,4,6,5,2,1,5,1,6,6,6,1,5,7,2,1,4,6,5,4,4,4,2,1,3,3,2,4,2,7,4,4,7,2,2,6,2,7,1,6,6,3,7,3,1,5,1,5,1,1,7,1,7,3,7,6,7,7,4,1,4,5,1,1,3,6,3,5,4,6,2,3,6,6,6,1,2,6,7,7,6,6,2,6,6,7,6,7,2,2,6,6,2,3,1,3,3,3,1,7,7,7,7,3,7,3,3,1,1,2,3,5,1,6,4,4,6,3,1,3,2,7,7,4,2,2,4,4,6,2,6,7,7,5,2,3,1,4,4,7,5,2,7,2,7,6,4,1,4,6,4,6,6,6,5,1,2,4,7,1,1,5,7,7,1,2,3,3,7,4,2,1,4,2,1,5,6,3,4,5,1,2,4,3,3,3,2,4,3,1,2,7,1,1,3,7,4,4,7,2,2,6,6,6,3,6,1,7,1,2,6,5,4,2,4,7,7,2,3,4,1,4,6,7,7,2,3,7,2,1,5,7,2,6,7,7,1,7,2,6,3,2,3,1,5,6,4,2,2,5,2,7,2,6,1,2,7,3,7,2,7,4,7,1,5,5,5,4,3,5,1,3,5,3,6,2,5,3,2,7,4,1,4,4,4,2,3,2,6,3,4,3,5,6,2,5,3,4,5,5,4,7,4,6,2,1,6,3,3,2,1,3,1,2,5,4,5,6,7,3,6,7,4,1,3,1,3,4,4,2,6,7,1,1,1,6,3,1,2,2,5,2,2,5,3,4,5,3,7,4,5,6,5,5,3,5,2,2,2,4,5,6,5,1,3,7,2,1,7,5,1,1,3,6,5,2,3,6,1,6,4,7,5,5,2,6,3,5,5,7,6,6,5,3,4,1,7,3,6,6,1,7,2,1,4,4,3,3,5,5,5,3,4,1,5,3,7,3,3,6,2,4,6,1,2,2,6,4,4,6,2,7,3,4,5,7,3,6,5,1,1,4,4,3,5,7,7,7,1,3,5,1,1,1,4,4,1,4,6,2,1,7,4,1,7,5,3,4,3,4,2,6,5,6,4,3,7,3,2,3,6,1,6,1,2,5,3,6,6,6,1,1,4,5,4,5,5,1,5,3,7,7,2,7,6,4,7,1,1,5,3,5,2,1,4,1,1,5,6,6,1,1,7,6,1,4,5,4,6,7,3,7,6,3,3,3,4,3,5,7,7,6,1,1,3,1,5,1,3,4,4,2,7,5,4,3,2,1,2,2,6,6,2,2,5,4,3,7,4,6,4,2,4,5,2,5,2,1,2,7,6,3,6,7,4,4,4,4,6,1,4,4,4,6,7,1,7,6,5,5,2,2,7,7,3,5,1,7,7,4,7,5,4,3,6,7,3,5,3,5,6,1,5,5,5,7,3,7,5,5,4,5,7,7,3,3,3,1,7,7,5,2,7,4,2,3,3,7,6,2,6,6,1,7,2,1,3,1,3,5,7,1,6,1,2,5,3,1,5,4,3,6,2,2,1,3,6,3,6,1,5,1,4,1,1,1,4,2,4,2,1,2,4,7,1,5,3,2,2,1,5,5,2,3,5,2,1,3,6,3,4,7,5,6,1,4,2,1,6,7,2,4,5,1,3,3,4,3,7,1,7,6,5,1,5,3,4,3,6,3,3,4,2,7,1,5,7,6,6,3,3,6,3,5,4,5,7,6,3,3,1,2,3,2,3,7,2,7,3,5,2,3,4,6,3,5,2,3,1,3,4,2,6,3,2,1,1,5,2,5,5,3,1,2,4,1,4,3,2,3,5,3,3,4,6,1,5,7,2,7,5,2,7,3,6,1,7,5,6,6,4,6,6,2,5,5,3,7,6,2,6,5,6,7,7,2,5,2,5,5,3,1,1,2,4,2,4,5,3,7,5,3,5,5,7,1,7,1,6,5,6,1,2,2,2,6,2,4,1,3,3,6,6,5,5,3,5,5,7,4,6,1,3,2,7,7,5,4,5,4,4,6,3,4,1,6,7,4,2,3,3,3,5,5,2,1,3,5,1,6,5,1,6,3,5,6,1,7,5,2,2,4,1,7,3,5,3,2,4,7,2,4,3,7,7,7,1,7,5,3,7,4,2,4,2,1,2,4,3,5,2,5,6,7,6,3,6,6,4,6,4,1,2,4,1,5,5,7,4,7,7,1,6,2,4,4,6,3,4,1,5,6,1,4,1,1,7,5,6,7,3,5,1,4,3,4,1,3,4,6,4,4,3,5,7,1,6,1,1,6,5,7,2,3,5,6,7,1,4,6,5,2,7,6,1,4,7,5,3,1,3,6,6,6,4,1,3,6,3,1,6,3,5,3,5,4,7,2,3,3,4,7,3,2,5,6,3,6,3,5,7,3,6,3,7,7,6,3,3,7,5,7,1,6,7,6,5,6,5,4,6,1,6,5,4,6,5,5,7,6,4,2,1,3,3,1,1,6,6,7,5,7,2,7,7,3,3,2,3,3,1,2,3,1,4,1,7,2,5,5,7,6,6,7,3,7,1,4,2,5,3,1,7,5,2,5,1,4,6,7,1,6,2,6,4,5,3,2,4,2,6,3,7,5,4,3,3,2,2,2,4,2,4,1,3,2,1,2,4,5,2,3,3,6,4,1,6,5,5,4,2,7,7,6,5,1,4,7,2,1,6,6,5,6,7,1,6,5,6,5,6,5,5,2,7,2,3,2,7,5,1,6,3,2,7,2,3,2,5,3,4,4,7,5,1,7,5,6,3,2,5,2,5,1,7,3,2,7,3,5,7,2,2,4,7,5,7,1,5,2,3,3,7,7,1,6,5,1,7,4,3,7,4,3,3,5,7,5,5,1,7,5,5,2,2,5,2,3,2,4,7,3,1,7,4,4,3,2,2,6,1,7,5,3,1,7,5,5,6,6,6,2,5,4,6,5,1,5,4,6,2,3,2,4,2,6,5,1,2,2,3,1,3,5,4,1,4,6,7,2,6,3,7,5,4,2,5,2,7,3,3,5,4,2,6,3,6,1,3,5,4,7,7,1,2,2,6,6,4,2,2,5,1,5,5,2,7,6,4,4,5,3,7,4,3,6,5,5,3,3,5,3,2,1,4,4,4,3,1,6,4,4,4,5,3,3,7,3,3,7,2,3,3,1,7,7,4,4,1,5,3,5,1,4,6,4,1,5,2,1,7,7,4,6,2,3,1,1,6,3,3,3,2,7,6,3,7,1,1,3,4,6,3,4,6,4,1,3,6,3,1,4,3,6,2,7,2,6,6,7,7,5,1,1,7,6,3,3,2,6,6,7,1,4,5,6,1,2,6,7,7,2,6,5,6,3,4,2,4,4,5,6,1,6,6,1,5,1,3,6,2,6,5,2,3,7,1,6,2,2,4,5,6,7,1,1,5,1,4,5,5,1,5,3,6,7,2,7,7,5,4,4,1,2,2,6,2,1,6,4,7,3,5,4,4,2,2,4,7,1,6,3,2,1,6,4,1,7,6,7,7,2,3,2,3,4,2,1,6,1,5,2,1,1,1,2,6,4,4,4,7,5,7,1,5,6,5,1,2,1,1,2,4,5,4,6,1,5,6,1,1,7,4,2,6,1,1,1,3,2,2,7,3,5,3,6,3,7,6,2,4,5,3,1,1,1,5,6,4,6,6,4,7,6,5,7,6,6,7,4,5,7,5,6,3,6,1,6,1,4,5,1,5,7,1,1,7,3,2,5,7,1,4,3,4,3,1,1,7,6,5,6,4,1,7,3,5,1,4,7,4,2,6,2,2,5,5,4,6,4,5,4,1,4,6,7,6,4,3,7,1,3,4,2,2,6,3,6,5,3,4,4,5,7,2,1,7,7,4,6,6,3,6,6,7,2,3,5,4,6,7,3,3,3,1,3,6,1,1,1,2,4,7,1,3,3,4,3,6,4,6,6,2,1,4,6,6,5,1,3,3,5,5,4,6,3,7,1,4,3,3,4,4,2,4,2,5,4,2,7,5,3,3,5,2,6,1,7,6,5,2,6,3,7,7,6,7,1,1,1,1,7,5,3,7,2,3,2,1,4,1,3,2,7,7,2,6,6,5,5,6,6,4,4,6,3,7,1,7,2,6,4,3,1,3,3,5,2,2,7,5,1,7,4,7,3,3,7,1,3,2,6,3,6,6,2,2,2,5,6,5,7,3,4,6,4,7,1,1,4,4,2,6,5,3,7,5,6,4,7,1,7,4,3,5,2,1,1,2,6,3,2,3,2,5,5,2,3,4,5,6,5,1,2,4,7,3,7,6,1,3,3,2,6,4,4,5,3,1,6,1,5,1,7,5,3,5,5,2,7,7,4,7,7,2,2,1,7,3,1,3,1,5,2,2,1,1,5,3,1,7,6,7,1,1,1,4,4,1,1,1,3,4,3,7,3,5,1,6,1,4,3,3,2,5,3,5,6,4,1,6,1,4,3,3,5,1,6,5,1,7,7,5,7,2,3,1,2,5,3,4,1,2,5,3,5,1,3,6,4,1,5,7,4,3,6,6,4,1,1,1,3,6,3,2,6,5,5,5,1,1,4,2,2,1,1,6,6,4,7,6,3,3,2,3,3,7,2,3,4,5,3,2,3,5,3,6,3,1,1,4,7,5,4,3,5,5,2,5,4,1,6,7,1,2,7,4,1,7,5,5,6,3,3,1,4,2,7,4,3,1,6,7,2,7,5,1,3,2,7,3,2,6,1,3,5,7,4,2,3,4,6,5,3,4,5,6,3,2,5,7,5,3,7,5,7,7,1,5,3,6,3,3,1,2,5,6,6,5,1,1,7,4,7,3,7,1,3,3,4,4,6,6,7,2,1,2,7,5,5,5,1,6,2,2,6,6,6,4,7,7,1,4,1,7,4,6,2,5,5,2,1,7,1,3,5,1,5,1,1,4,4,3,3,7,3,1,2,2,7,5,7,5,7,5,7,4,3,1,4,2,6,6,7,7,7,5,6,2,1,5,7,1,7,5,2,2,5,6,3,1,6,5,2,5,7,5,1,7,1,4,1,3,2,6,5,6,5,3,6,4,7,7,7,4,2,2,2,4,2,4,6,4,6,7,2,7,1,4,2,6,7,7,2,7,3,7,7,2,2,3,3,7,4,6,7,6,3,4,7,3,3,3,2,5,1,3,5,2,7,7,2,1,5,7,2,6,6,4,2,6,2,2,4,3,4,5,3,4,1,4,6,4,7,3,5,2,5,4,7,1,6,1,3,7,6,4,2,4,2,7,5,3,3,2,4,4,5,6,7,3,4,2,4,4,2,4,7,5,4,1,4,5,5,7,1,3,7,7,6,5,4,1,4,4,6,2,7,4,2,6,7,1,1,6,1,4,7,6,7,6,4,2,6,1,4,5,5,2,2,1,1,2,1,7,3,2,5,1,2,1,3,4,1,3,4,1,5,2,6,7,5,2,3,1,7,6,3,1,7,2,4,1,1,4,4,1,3,2,3,4,6,4,6,3,2,3,1,6,3,5,4,3,1,1,7,3,2,6,5,7,4,2,4,4,6,6,2,2,7,2,2,5,4,7,7,4,5,1,5,4,2,5,3,5,5,5,4,3,4,3,2,4,4,4,2,3,5,6,7,2,5,2,3,2,3,7,4,2,6,3,7,1,6,7,6,5,2,5,2,5,6,2,1,7,6,2,2,7,1,6,6,2,5,4,2,1,1,6,2,3,5,5,6,2,5,5,4,5,6,1,7,4,4,7,2,2,2,3,5,5,6,1,7,3,7,5,6,7,5,6,6,6,6,1,3,3,5,5,1,6,4,6,6,3,1,5,3,2,1,2,5,1,6,2,5,2,1,2,6,1,3,1,6,6,6,3,7,4,3,2,3,3,5,5,6,3,3,7,4,2,5,3,5,5,3,3,3,7,5,3,6,2,5,5,2,5,5,7,4,6,5,5,1,1,7,5,5,1,7,6,6,2,4,4,7,2,7,2,6,3,1,4,6,1,7,2,1,2,5,2,5,7,1,3,5,1,4,7,7,3,6,7,5,1,2,7,7,1,4,5,2,7,5,4,1,5,5,2,2,2,1,3,1,3,2,4,5,5,7,2,6,4,7,5,7,2,7,6,2,1,3,2,7,6,6,6,7,7,4,2,4,5,7,4,2,6,7,6,6,6,7,2,1,4,2,5,7,1,2,6,1,6,4,1,1,5,7,1,5,4,6,6,7,2,5,4,2,2,2,5,3,4,1,4,7,3,5,6,6,4,1,5,2,2,6,3,3,7,4,7,2,3,3,7,7,3,2,7,4,4,2,3,2,3,4,2,4,2,1,6,6,7,2,3,1,4,3,4,6,6,5,6,1,1,3,3,7,3,3,6,1,4,6,7,6,5,3,4,5,4,4,4,4,4,4,6,6,7,2,4,6,6,1,7,2,3,1,7,5,2,4,5,6,2,7,4,7,4,7,3,4,6,2,5,5,7,4,5,3,3,5,1,1,1,4,2,7,2,7,6,1,4,7,6,5,3,4,2,3,6,5,6,4,2,5,7,7,7,5,1,2,4,1,7,4,1,2,2,2,2,2,6,3,3,1,7,4,2,2,5,4,4,5,1,5,5,2,4,3,2,5,3,1,2,6,7,6,1,3,3,2,5,7,1,7,2,3,3,4,1,6,2,6,3,6,6,2,5,1,6,5,7,6,2,4,4,6,6,5,7,5,5,6,5,2,7,2,6,1,6,7,4,2,2,5,3,3,4,1,3,4,3,5,7,5,1,3,3,1,4,5,7,5,2,7,3,3,7,1,5,4,2,7,1,6,4,6,2,1,1,1,5,6,1,2,2,7,5,2,4,3,5,7,2,2,5,7,6,5,6,1,7,5,6,5,5,6,5,5,4,2,1,2,1,3,2,7,2,4,7,3,2,7,1,2,5,3,1,4,7,2,5,5,7,7,1,7,7,4,2,3,1,7,6,4,7,5,7,4,3,6,2,2,1,5,7,3,5,6,5,5,6,7,7,1,7,5,7,4,6,7,2,5,5,2,1,2,4,5,3,7,1,5,2,1,5,2,6,2,6,6,5,1,3,1,2,2,5,3,6,6,7,1,6,2,1,3,2,6,4,5,5,5,7,1,7,3,7,4,5,6,7,6,6,1,5,6,7,1,7,1,1,1,6,6,2,1,1,1,5,2,4,5,2,2,5,1,6,3,4,2,6,1,3,6,3,5,1,6,3,3,3,6,7,3,7,5,4,2,6,3,7,4,6,4,1,2,3,2,6,2,5,4,5,2,4,5,4,3,2,6,5,6,6,4,7,3,2,7,1,1,4,7,7,7,1,7,2,7,2,2,5,6,1,6,6,4,5,2,4,1,3,4,5,3,4,1,4,1,5,5,2,3,4,6,6,5,2,2,4,4,1,5,1,3,3,5,3,4,7,3,3,6,6,5,4,4,4,4,4,1,5,5,7,7,2,7,5,1,5,6,1,4,6,6,2,6,3,4,7,5,7,6,7,1,1,7,7,3,5,2,7,2,6,7,6,4,2,5,3,1,1,7,7,1,4,3,4,7,7,5,4,1,4,2,3,4,3,1,3,2,1,3,2,2,2,6,3,6,4,4,2,6,1,7,3,1,7,4,1,2,2,2,6,1,2,2,7,4,5,3,4,5,4,4,1,2,1,2,7,7,2,1,1,4,5,4,6,3,6,6,2,5,1,5,3,3,2,7,7,3,7,1,1,7,6,3,2,7,3,5,4,1,4,5,6,1,2,4,2,2,3,3,5,6,1,5,2,7,5,5,5,3,2,1,5,6,6,5,5,5,1,7,3,1,7,1,1,2,2,6,4,3,4,5,3,7,3,5,4,1,4,4,1,5,4,2,3,3,7,3,5,4,7,5,3,2,3,2,6,2,2,7,3,3,6,6,3,7,4,5,2,1,4,6,5,2,5,4,6,5,1,7,5,7,6,4,1,1,7,5,2,6,5,4,1,5,7,6,3,5,6,7,1,1,3,1,6,3,7,6,1,5,2,1,1,7,4,4,2,4,1,5,4,2,6,5,7,2,2,3,7,2,5,4,6,3,3,7,1,6,7,7,1,1,4,3,5,4,3,5,5,5,3,4,1,6,2,1,7,7,3,1,7,5,4,5,3,7,2,4,7,5,4,3,4,6,2,2,6,5,7,5,1,3,1,1,6,1,3,2,7,7,2,5,2,6,7,3,1,5,4,3,5,2,7,2,6,2,6,3,1,7,5,5,1,4,4,2,2,4,4,2,7,1,7,4,1,4,3,7,6,3,3,4,4,6,6,5,3,1,2,7,2,6,1,1,5,5,1,7,5,4,5,5,7,3,1,6,1,4,6,2,3,2,7,1,5,1,1,5,5,5,2,8,3,9,10,11,1,4,1,5,3,7,5,2,1,3,2,7,4,1,1,5,7,6,6,5,2,3,5,4,2,1,6,7,2,6,1,7,2,6,5,4,2,1,5,6,5,7,6,3,7,1,6,7,3,2,6,5,6,5,4,6,5,7,6,7,4,2,6,7,3,7,1,1,2,3,7,2,1,1,1,1,6,7,4,3,3,3,1,3,2,2,4,6,7,1,6,3,5,3,3,6,3,3,2,4,2,2,3,5,2,3,4,1,1,5,7,3,3,4,6,5,4,5,1,6,3,4,3,5,7,4,4,3,4,6,4,2,4,1,4,7,1,6,2,7,7,3,3,2,4,2,4,5,6,7,2,4,2,2,6,7,1,4,1,3,1,2,4,2,7,4,5,4,1,5,7,4,5,7,7,1,3,1,4,1,4,7,5,5,2,1,3,6,2,1,7,7,4,3,5,2,6,4,2,4,2,4,2,5,5,7,1,1,4,1,1,2,3,2,7,5,1,3,7,1,7,2,2,2,7,6,2,6,2,2,2,7,6,3,2,2,5,4,2,1,1,6,2,5,6,3,3,6,4,12,13,14,15,16,17,18,19,1,2,6,1,7,5,1,6,3,7,6,2,3,4,6,1,2,3,7,2,2,3,1,3,4,4,5,4,5,4,7,5,5,3,3,1,4,2,3,3,2,3,4,6,3,5,3,6,7,2,5,2,3,2,4,3,6,7,7,2,7,4,1,4,5,7,2,1,1,5,2,4,3,7,4,5,5,4,1,5,4,4,1,4,2,2,4,1,6,3,5,3,3,1,1,5,4,5,5,1,1,5,4,4,5,2,2,4,3,2,6,4,3,4,5,2,3,1,3,7,1,2,2,6,3,1,2,7,2,4,1,3,1,5,7,1,5,7,3,7,4,7,4,2,7,7,5,4,2,1,3,1,6,2,1,3,4,2,7,1,2,6,4,4,1,6,3,2,1,3,3,3,7,7,1,7,1,7,7,2,5,3,1,7,5,7,2,3,5,2,5,5,5,6,5,7,6,5,6,5,4,2,6,5,5,7,1,1,6,7,3,4,5,5,3,6,5,2,5,7,1,1,3,2,4,4,3,7,3,1,4,1,5,7,1,7,4,4,6,7,6,3,1,5,1,5,1,20,21,22,23,24,25,26,27,28,6,1,5,1,3,7,2,2,2,4,3,5,6,7,1,3,4,1,3,3,3,6,5,3,7,6,1,5,3,4,3,5,3,6,6,2,4,3,7,4,1,2,5,3,5,6,4,3,7,1,7,1,1,1,5,2,3,7,1,4,7,7,4,3,3,3,6,1,6,1,1,3,2,1,6,5,5,6,3,4,1,1,3,7,2,4,2,5,6,7,4,5,5,2,2,7,5,5,5,2,5,4,3,1,2,5,3,3,6,7,2,2,6,6,1,6,6,2,4,1,5,1,4,3,1,3,6,5,1,5,4,1,1,2,2,7,7,6,5,6,2,2,5,6,5,2,3,5,7,4,2,4,1,7,2,6,3,4,3,2,2,2,3,5,7,5,1,1,2,6,5,1,1,1,4,2,4,6,2,1,7,5,2,1,4,2,7,1,2,1,6,1,3,5,6,5,7,3,7,4,4,4,5,7,2,4,1,3,3,6,1,3,2,7,1,4,6,2,3,6,4,7,6,7,3,2,1,1,5,7,1,2,3,1,7,6,5,5,7,5,3,1,3,1,7,6,4,29,30,31,32,33,34,35,36,37,2,3,5,6,5,6,6,1,1,1,6,4,3,5,2,3,3,4,6,6,3,7,7,6,3,3,7,7,6,3,1,2,6,3,3,4,3,6,6,4,4,7,4,4,3,2,5,6,6,2,2,2,5,3,6,6,6,7,4,3,1,5,5,6,1,5,7,3,2,6,7,6,6,4,7,3,6,1,2,2,3,7,1,6,4,7,6,7,1,5,3,7,3,6,1,5,2,6,6,1,7,4,5,2,6,1,4,6,7,2,4,3,1,7,5,4,7,5,5,4,2,7,1,6,7,2,1,4,5,7,4,2,4,6,3,5,3,6,2,4,3,6,7,4,3,4,2,2,5,4,5,6,4,1,1,7,1,6,2,3,3,4,1,7,2,7,7,3,4,1,4,5,6,7,2,4,4,3,3,3,3,3,5,6,6,2,7,6,1,6,2,2,6,5,4,3,4,6,1,3,6,5,4,6,3,7,3,6,1,2,7,7,1,5,4,2,2,1,6,4,5,6,4,3,1,3,6,3,5,6,3,5,7,6,5,7,1,1,4,4,1,5,1,3,3,2,29,38,39,40,41,42,43,44,45,2,4,7,3,5,7,3,2,5,3,7,7,6,2,2,6,6,6,2,2,4,7,4,2,5,6,6,5,1,2,7,3,6,4,1,1,5,4,7,4,7,6,5,3,7,4,7,7,2,1,4,3,4,6,4,6,5,4,4,2,1,6,1,5,2,5,6,5,5,5,1,6,7,3,6,4,2,5,4,6,1,1,4,7,2,5,5,1,1,1,7,7,1,6,3,3,4,5,3,6,2,1,6,7,2,5,5,5,7,1,6,3,6,7,6,4,5,1,3,7,6,4,2,4,4,5,4,5,3,1,6,3,4,2,7,5,4,6,5,6,1,7,3,2,4,3,3,7,4,3,3,7,6,5,6,7,2,5,4,4,6,1,5,2,1,4,1,6,7,1,4,1,4,5,6,6,1,3,5,5,4,1,2,2,6,3,1,6,4,2,4,4,6,2,2,3,1,3,5,2,1,3,7,1,2,1,2,6,5,7,1,1,2,3,1,2,3,7,3,1,4,6,6,5,4,7,5,6,5,6,6,2,7,7,6,7,5,5,1,2,3,2,7,7,1,2,46,47,48,49,50,51,52,53,54,55,56,57,5,1,4,6,5,4,5,4,6,7,6,7,3,7,7,5,3,1,1,5,3,6,4,7,7,6,2,7,1,6,1,5,7,7,3,2,1,1,1,3,4,6,1,2,3,1,6,3,5,5,1,3,3,7,6,1,2,6,7,6,7,1,6,5,7,3,7,3,4,5,7,1,7,3,3,1,3,1,7,3,2,2,6,6,6,4,3,3,3,3,2,4,5,1,3,7,1,7,6,3,3,2,7,4,4,6,7,5,7,3,7,2,7,5,3,7,5,3,4,2,3,5,7,6,3,3,4,5,1,7,2,6,6,6,3,3,4,3,3,6,3,4,2,3,6,4,5,3,3,5,5,6,1,5,2,4,6,2,3,3,4,6,1,6,7,7,6,4,2,2,5,4,7,1,6,6,3,3,3,1,2,6,7,6,4,3,6,1,5,1,2,5,3,3,2,4,6,4,1,1,3,4,4,3,2,3,5,4,5,1,4,1,4,7,6,2,1,6,7,2,6,7,5,6,6,3,6,2,6,6,3,2,7,2,2,58,8,12,12,6,5,2,3,59,60,61,62,63,64,65,66,67,68,69,70,71,72,2,3,6,4,7,3,5,1,3,1,7,4,6,1,1,1,4,2,7,3,7,2,1,7,5,2,3,7,2,1,6,1,4,1,1,2,4,7,6,1,1,3,6,4,5,2,4,4,7,4,5,6,1,5,3,6,5,1,3,2,2,5,2,4,5,6,2,1,3,7,7,5,7,1,1,4,4,7,4,4,3,2,3,3,1,3,4,3,7,5,2,4,3,4,5,5,1,7,2,1,6,5,1,7,7,2,5,7,2,5,4,6,6,5,1,2,6,5,6,5,4,2,3,2,6,2,6,7,3,6,2,2,7,1,4,1,2,5,2,5,1,4,1,3,1,7,4,3,7,4,5,3,3,2,7,2,7,7,1,5,5,6,3,5,1,7,3,4,1,3,5,4,6,5,7,6,5,4,1,1,7,5,3,1,6,6,2,4,4,1,4,4,7,2,3,5,3,5,7,3,1,5,1,1,7,5,2,1,7,7,2,5,2,7,3,3,2,1,7,3,1,3,7,2,6,5,1,3,1,4,7,6,7,46,73,74,17,71,75,6,5,1,76,77,78,79,80,81,82,83,84,85,42,33,86,87,56,4,7,2,1,5,6,2,1,7,1,5,2,4,2,6,6,4,5,5,4,4,5,5,6,7,1,2,6,2,1,7,2,3,4,4,1,1,4,4,1,1,2,2,6,7,7,7,5,1,3,3,4,6,1,3,6,3,6,2,1,2,6,7,3,2,4,4,1,1,5,3,3,2,4,1,3,2,5,7,5,4,4,5,1,4,3,1,2,4,3,2,4,5,7,4,4,5,2,7,7,3,6,2,4,4,3,3,6,2,3,3,1,2,4,6,2,7,3,4,6,6,2,5,5,4,3,1,6,1,3,5,4,6,3,7,3,7,4,7,4,7,4,6,6,3,2,6,5,1,7,5,2,3,4,5,2,5,7,1,5,7,1,3,3,5,6,7,7,2,6,2,3,7,5,4,2,7,2,3,1,7,4,3,4,4,4,2,2,5,1,7,1,7,1,1,1,2,4,2,7,6,7,5,4,6,6,2,5,4,2,6,3,5,3,5,5,3,1,5,7,2,1,4,4,7,3,5,7,3,1,4,88,89,90,91,92,93,94,56,1,95,96,97,98,99,100,101,102,83,103,104,105,106,107,69,55,108,2,6,3,2,2,6,3,5,4,7,5,2,4,1,3,3,4,1,6,7,4,4,5,5,3,6,3,5,7,4,6,1,6,7,3,3,1,5,5,4,5,6,1,7,2,5,2,6,6,7,2,3,7,7,2,4,4,3,7,3,3,5,1,1,6,2,2,2,2,1,7,5,5,1,4,6,6,6,4,7,2,3,5,5,6,7,6,5,1,4,5,7,1,2,5,3,5,3,1,1,2,3,2,2,6,4,7,2,3,4,7,4,4,3,4,6,1,1,3,7,7,7,6,7,1,2,7,5,4,3,3,5,1,6,5,1,2,2,6,1,2,7,5,3,7,7,4,7,1,3,4,5,2,3,6,1,5,1,3,5,4,6,4,4,1,1,2,4,1,1,4,3,7,1,1,6,6,5,2,1,3,5,6,1,7,6,6,4,3,1,6,5,2,2,7,6,2,4,6,6,1,6,1,2,3,4,4,3,7,2,2,4,6,7,3,6,4,4,6,7,2,2,5,4,4,4,1,2,2,95,60,109,110,111,112,113,114,115,116,117,77,118,119,120,121,122,123,124,125,126,84,127,128,129,69,130,56,5,4,4,1,5,4,4,5,5,3,3,5,4,4,6,5,1,3,5,3,2,1,3,4,3,5,7,1,4,7,3,3,6,1,6,7,1,6,4,5,3,3,6,6,7,1,5,2,2,3,1,6,4,4,4,5,6,4,1,1,2,2,3,1,3,6,4,6,4,2,3,6,2,2,2,2,7,1,6,7,2,4,7,2,2,3,3,3,7,6,6,3,4,4,1,7,1,1,4,4,1,4,4,5,2,7,3,2,7,2,5,7,6,2,3,2,7,1,1,5,5,3,4,5,1,2,1,7,5,4,3,4,3,7,4,3,7,2,7,6,5,4,1,6,6,5,2,2,4,3,7,1,6,1,5,4,7,6,7,6,7,6,6,3,6,7,5,7,6,5,3,6,6,1,3,3,4,5,5,7,2,7,4,5,1,1,2,2,3,1,2,6,6,5,4,1,6,1,4,3,5,3,6,2,1,6,6,1,5,4,5,2,1,6,4,2,6,4,5,2,3,4,3,5,7,3,5,7,46,131,132,133,134,135,136,137,138,139,140,141,142,143,144,145,146,147,148,149,150,151,152,153,85,42,154,155,156,10,6,4,7,7,6,4,1,2,2,6,5,1,4,7,1,1,1,6,7,5,1,1,2,3,6,7,7,7,1,4,1,1,4,5,5,3,7,3,4,6,2,1,4,1,3,1,4,1,7,2,4,1,2,1,1,2,7,3,6,5,5,4,1,6,7,7,7,5,6,3,5,1,4,4,4,7,4,7,3,1,2,4,4,7,5,2,5,5,1,1,5,2,7,4,4,4,2,6,3,7,2,1,6,2,5,7,4,1,5,1,5,7,4,6,5,3,4,2,4,5,3,4,6,1,7,1,7,7,1,5,6,6,5,4,5,1,4,2,6,3,3,5,3,7,6,4,5,3,5,6,5,3,7,2,5,2,1,6,1,5,7,4,3,3,4,7,5,6,6,3,1,6,4,6,6,7,5,5,1,6,5,6,4,4,6,7,5,4,1,4,5,2,5,7,2,5,5,1,1,4,5,6,4,1,7,7,1,2,3,7,3,5,5,1,4,5,6,6,3,7,3,6,1,2,5,157,60,158,159,160,161,162,121,163,164,165,166,167,168,169,170,171,172,173,174,175,176,177,103,178,179,52,129,180,70,181,116,1,4,1,3,1,7,3,6,2,6,4,4,5,3,7,3,7,2,6,5,2,6,5,7,5,4,4,3,5,2,4,2,4,6,1,1,6,5,5,2,3,5,6,6,3,2,7,1,4,3,1,6,7,7,1,5,3,7,2,5,3,7,6,6,5,2,3,4,7,2,2,2,5,2,2,3,6,5,4,4,1,1,5,1,4,6,4,7,7,4,1,1,5,2,6,7,3,5,6,2,3,7,2,1,3,5,3,4,2,3,3,4,3,6,3,4,6,6,3,7,5,1,6,1,5,7,2,6,1,4,4,1,5,7,4,7,1,2,3,5,3,2,5,3,1,7,4,1,5,6,2,3,7,2,2,4,2,3,1,4,7,3,4,5,3,2,5,1,2,6,2,6,5,5,2,1,5,3,1,1,2,1,2,4,1,1,4,3,5,2,1,5,1,5,1,1,2,3,1,4,5,7,3,3,7,2,2,6,5,3,2,6,3,3,2,5,2,4,1,3,7,7,1,1,182,183,184,185,186,187,188,189,190,191,106,192,168,193,194,195,145,145,196,197,198,199,200,178,178,201,104,105,202,165,86,55,203,1,1,7,1,3,4,5,1,4,3,2,1,5,4,3,6,1,7,7,6,2,1,5,4,4,2,2,4,7,5,4,2,2,5,3,6,7,6,4,3,1,5,1,6,7,4,7,1,3,1,7,3,5,6,2,1,1,3,3,1,7,3,2,4,7,3,7,5,7,4,3,4,7,6,6,1,1,7,2,3,2,1,3,5,3,1,7,2,7,5,3,2,6,4,3,1,3,3,4,5,4,7,5,4,4,1,2,7,6,4,5,5,2,5,2,7,3,1,6,6,2,2,4,6,5,4,7,1,5,2,3,6,4,5,3,6,6,6,6,3,6,3,1,3,1,5,4,4,2,7,4,6,3,4,1,1,6,7,2,1,7,5,3,6,4,6,3,6,3,4,2,1,4,7,2,6,1,2,2,4,4,6,7,3,3,2,4,2,2,7,4,4,3,5,7,1,6,2,5,4,5,1,1,5,7,6,3,6,4,2,7,1,2,2,7,1,3,5,6,5,3,2,2,204,205,206,207,208,209,171,188,210,211,212,213,214,215,216,217,189,218,219,220,221,222,223,224,225,225,201,226,85,227,228,229,155,75,9,11,9,5,2,4,3,4,6,4,2,7,7,4,4,2,5,6,5,2,4,7,6,3,1,7,7,6,7,6,1,1,6,6,5,2,2,5,4,2,7,2,4,6,2,3,4,5,4,2,7,3,3,5,5,1,1,4,2,5,5,7,3,5,1,6,4,5,2,4,1,2,7,2,2,7,2,7,6,1,4,4,3,3,4,2,3,2,4,5,7,7,4,6,5,2,6,1,3,2,4,4,3,1,2,2,3,4,5,1,4,3,2,1,1,5,5,4,1,4,3,5,2,7,1,1,5,1,1,5,3,6,4,1,3,3,7,3,2,7,6,7,6,2,1,2,6,4,1,5,2,1,7,3,2,2,5,3,3,6,3,4,4,5,5,5,1,6,1,1,3,2,3,4,1,5,1,2,5,6,3,5,6,4,3,2,2,1,4,7,5,1,1,4,2,5,6,7,5,3,7,5,3,3,2,4,1,5,5,1,7,3,6,2,7,7,5,1,2,7,4,5,157,230,231,232,233,234,187,145,235,236,237,238,239,240,241,242,243,190,244,245,246,247,248,249,250,240,225,225,66,127,251,252,180,253,254,74,255,203,4,6,10,1,2,7,7,6,4,5,5,4,7,2,7,6,2,1,1,6,3,5,5,4,5,3,7,5,2,4,1,7,4,7,5,5,1,1,5,3,3,7,2,7,2,3,5,4,2,4,4,2,6,7,1,3,2,7,6,3,5,4,2,6,1,3,3,3,4,4,5,4,2,2,2,7,6,5,6,7,6,6,1,7,6,3,5,1,1,2,7,7,4,6,2,6,3,3,4,3,6,5,4,1,1,3,2,1,1,7,4,3,6,5,7,1,1,6,4,1,4,4,2,1,7,7,4,2,6,2,7,1,7,4,7,1,7,6,3,4,2,7,6,1,5,7,1,6,1,1,1,7,3,7,1,2,7,7,6,7,4,7,4,2,5,3,4,6,6,7,7,5,7,7,7,3,5,6,5,5,2,1,4,3,6,7,6,2,2,4,5,4,2,5,6,1,6,6,6,4,5,4,2,3,7,3,5,1,5,2,1,2,3,7,6,5,5,2,76,77,256,257,258,235,189,187,259,260,261,262,263,264,265,266,235,235,267,268,269,270,271,272,273,274,83,201,201,275,276,277,42,165,278,279,280,281,156,13,282,19,4,4,3,1,3,7,4,3,5,4,6,3,6,3,2,5,4,3,6,5,4,6,2,7,7,1,2,5,1,6,4,7,7,3,3,5,5,2,7,2,4,5,1,7,4,1,3,6,5,6,5,5,6,4,7,1,6,4,6,6,7,1,5,1,3,5,5,4,1,7,4,5,3,3,2,1,4,7,2,3,3,1,3,4,3,7,3,5,7,5,4,7,4,4,5,5,2,3,7,3,7,1,2,3,2,6,4,5,5,6,2,6,2,5,2,5,5,4,5,6,6,5,5,6,7,4,1,3,6,2,1,5,1,3,6,3,6,6,2,2,5,3,3,3,3,3,3,6,1,6,4,2,7,1,2,3,1,5,1,6,5,5,5,2,3,5,3,2,5,6,2,6,4,5,5,5,3,5,1,5,5,5,5,2,1,6,7,5,7,7,2,2,6,7,7,3,4,11,11,57,5,1,7,3,4,2,5,4,4,2,2,7,1,13,283,284,285,286,121,188,188,235,287,288,289,290,291,292,293,195,243,294,295,296,297,298,299,300,301,302,240,178,103,178,83,303,304,305,306,307,308,309,310,311,312,313,7,3,6,4,4,5,5,6,4,7,1,1,5,1,6,7,5,3,5,1,1,7,3,5,1,7,7,3,5,6,2,1,1,5,1,3,3,7,5,7,6,4,2,1,1,2,4,5,6,7,6,3,3,5,6,2,6,4,2,7,6,5,7,7,4,5,1,6,3,7,7,3,5,7,5,4,6,7,4,6,6,4,3,2,1,4,4,4,4,6,2,6,5,2,6,3,6,5,6,1,4,2,1,6,1,7,3,3,6,3,7,1,6,6,7,7,4,3,7,2,3,7,1,3,6,5,4,1,2,7,7,4,2,2,3,6,2,7,4,1,3,6,5,4,6,6,4,5,3,3,5,1,5,4,5,6,7,7,1,2,4,5,4,6,4,2,7,6,5,7,7,6,2,3,3,5,5,6,4,7,4,7,6,7,3,3,4,6,5,6,7,5,4,1,6,4,157,314,74,181,116,10,10,10,12,11,10,58,58,58,58,57,88,89,315,316,317,318,243,145,243,319,320,321,290,322,323,103,293,266,187,324,325,326,327,328,329,329,330,331,332,83,103,240,178,240,66,333,334,334,251,68,335,92,336,337,338,1,7,2,3,6,4,7,2,5,5,4,6,3,2,2,6,4,3,2,3,6,5,6,4,6,3,5,2,6,7,3,7,7,3,5,2,2,3,2,1,3,7,4,7,1,3,7,7,6,5,5,2,6,7,1,2,1,6,6,7,7,6,1,5,1,7,3,5,6,1,5,3,4,7,2,3,3,5,1,6,3,4,1,7,2,3,2,2,5,7,2,1,4,2,6,5,4,2,5,2,1,3,7,5,5,6,6,1,7,1,7,7,2,7,1,6,6,1,4,4,2,5,2,4,7,2,7,5,7,4,2,5,2,4,4,5,5,1,4,6,2,5,2,4,4,5,4,2,4,6,3,4,4,7,2,2,2,5,5,2,6,2,3,1,1,3,3,1,5,1,1,2,1,1,6,4,4,5,6,6,3,5,5,6,6,2,1,1,6,6,7,5,3,4,10,88,30,339,280,70,340,341,341,254,311,342,341,254,342,342,341,343,344,345,346,347,189,171,187,243,259,348,349,350,351,201,240,352,353,189,319,354,355,330,330,330,330,328,356,357,240,83,178,240,103,178,358,359,360,361,277,362,363,364,365,45,11,7,5,1,3,1,4,3,3,4,5,1,2,4,4,5,2,1,3,5,2,2,3,1,3,6,4,6,7,3,2,4,6,2,2,7,6,3,4,5,7,3,4,6,7,4,3,7,2,1,4,3,2,6,2,4,2,1,4,6,3,4,7,5,4,6,1,4,3,7,2,6,2,1,5,5,4,7,7,1,7,2,2,4,4,7,7,4,1,2,4,7,7,3,2,5,3,4,4,4,7,5,5,6,7,7,2,4,5,6,1,5,1,4,3,7,7,2,5,1,2,6,6,5,6,6,5,4,6,5,1,3,1,2,7,2,6,4,2,7,4,6,4,4,1,6,1,4,5,6,4,2,3,6,4,6,4,4,1,1,2,1,6,7,2,1,5,3,3,3,3,3,4,2,2,2,3,7,2,3,4,1,3,5,3,1,1,3,5,4,5,12,12,46,366,367,284,368,369,370,371,372,92,372,373,374,373,372,375,374,374,376,377,378,379,234,187,171,189,171,380,82,225,103,240,83,381,216,382,187,210,383,355,328,329,328,329,384,385,386,103,201,103,381,381,178,178,240,83,240,387,388,389,390,69,139,391,392,4,2,7,7,2,3,6,5,1,6,2,5,3,6,7,7,3,7,7,1,1,4,3,1,3,5,1,4,2,6,2,3,1,5,1,4,3,4,2,4,3,2,2,7,1,1,1,3,2,5,4,2,6,2,6,6,5,3,6,5,5,6,2,2,7,5,4,6,5,4,4,3,4,4,2,6,2,7,5,7,5,3,5,2,5,1,3,6,1,4,4,3,1,7,4,3,4,3,4,3,5,5,4,5,1,2,4,2,3,3,7,3,1,2,4,3,1,1,5,3,6,5,4,2,3,5,2,3,6,7,7,3,3,1,5,2,4,1,7,2,2,6,4,3,7,2,6,4,6,6,1,4,7,3,5,1,5,1,2,3,7,3,5,1,5,3,2,2,6,5,1,6,6,3,2,2,1,11,9,8,8,10,11,11,8,5,7,6,46,393,340,343,394,395,396,397,398,399,400,401,402,403,404,404,404,111,405,406,407,408,409,410,411,171,189,171,187,294,412,413,240,381,103,225,178,414,242,145,122,415,416,329,417,327,384,300,328,331,418,419,420,178,381,240,201,225,103,421,422,423,329,424,129,54,425,313,2,7,2,5,5,2,4,7,6,6,6,6,1,4,3,1,1,3,4,5,5,3,1,4,3,3,7,6,5,7,5,6,7,2,5,7,2,2,3,6,1,3,7,4,2,7,7,4,7,7,7,6,1,3,7,6,6,2,6,3,3,1,4,3,4,3,7,5,6,6,5,2,2,6,6,4,1,6,7,1,1,1,6,4,4,4,6,7,5,2,3,4,3,1,3,6,1,2,5,1,4,1,2,3,2,7,3,1,5,1,5,4,7,6,3,4,1,7,7,4,3,6,1,7,5,7,4,6,5,2,2,6,4,2,5,6,5,3,7,1,1,2,3,1,2,3,3,1,1,2,7,1,3,1,7,4,5,1,4,4,5,3,3,7,7,6,3,6,3,5,6,7,5,3,1,7,157,426,342,17,254,17,342,342,427,75,58,13,428,429,430,431,432,433,286,318,434,435,436,437,438,439,440,436,435,441,442,439,443,444,445,161,145,145,187,243,188,259,383,446,447,448,178,240,103,293,266,189,146,449,417,327,328,327,328,330,384,330,450,451,452,453,240,240,240,178,454,455,456,384,327,327,457,458,459,337,460,3,7,7,4,6,4,7,7,6,3,5,7,3,4,4,3,2,6,4,4,7,2,1,2,3,6,2,7,7,7,5,3,1,3,6,1,6,1,1,7,1,1,3,6,5,6,5,1,6,6,2,4,3,1,6,7,4,2,6,1,4,5,3,2,1,4,4,6,7,6,2,1,6,7,1,4,7,2,5,4,7,6,3,5,7,2,1,4,5,1,5,3,1,6,1,4,7,6,7,1,6,3,1,1,6,6,5,2,4,5,1,1,2,4,1,6,1,3,5,3,6,1,3,4,4,6,7,6,4,4,6,1,2,3,2,6,7,3,7,6,6,4,7,3,2,4,1,6,7,1,1,4,4,7,1,2,3,6,5,4,2,3,7,5,5,4,4,5,2,1,7,2,4,4,1,461,183,462,375,463,278,464,371,465,253,17,466,467,468,469,112,470,471,472,187,145,243,189,235,473,234,145,243,187,243,473,474,145,171,189,145,145,171,243,243,187,475,476,477,478,479,480,419,178,481,217,189,218,449,300,327,330,300,330,328,328,417,384,482,483,484,485,240,103,178,486,487,329,328,329,300,488,489,490,491,492,3,5,4,5,5,2,4,7,4,3,2,7,7,2,5,7,3,5,2,6,3,2,4,2,4,7,7,5,7,2,4,4,2,3,5,3,5,3,1,3,7,7,5,4,2,2,2,5,6,3,1,1,1,4,6,4,2,7,2,6,4,5,2,6,6,4,7,5,4,2,2,5,6,6,6,3,3,7,1,5,7,7,2,6,7,3,5,4,3,4,5,4,4,3,3,3,1,4,7,7,7,2,3,2,3,7,4,7,3,6,7,3,7,5,6,2,4,4,4,5,1,2,1,7,1,2,1,3,5,2,5,2,6,1,6,5,1,4,4,2,3,1,5,6,4,7,5,2,2,3,3,1,1,6,3,7,5,1,4,3,4,6,5,6,6,5,1,6,5,5,1,7,2,3,3,76,77,493,494,495,496,497,498,499,500,374,501,502,503,504,135,505,411,171,188,243,235,243,145,171,189,189,171,235,145,145,145,187,243,243,235,243,189,189,145,380,506,507,508,509,510,511,512,513,514,515,243,190,147,384,330,384,328,327,300,330,417,516,517,518,519,520,83,225,521,522,523,417,384,300,524,525,526,527,528,529,5,2,3,4,3,7,1,7,7,4,4,1,5,4,5,5,7,6,6,7,1,4,6,1,1,6,1,3,2,3,2,2,1,1,5,1,6,1,3,6,3,2,4,3,2,4,3,4,7,6,7,4,4,5,7,1,1,6,4,3,5,7,7,7,3,5,6,1,2,7,7,6,7,6,4,2,2,5,3,5,2,3,6,5,6,6,4,3,6,6,1,6,5,4,2,6,4,5,6,5,3,6,2,1,1,7,1,2,1,5,3,6,6,7,4,5,2,5,2,4,7,1,7,4,3,5,6,7,7,6,7,6,4,7,3,4,6,7,5,6,5,3,3,1,7,4,4,6,7,4,6,6,7,1,1,7,3,5,2,1,5,7,2,1,3,6,3,2,2,2,6,5,3,7,59,96,530,531,532,533,534,535,536,537,538,498,539,540,541,234,542,318,171,188,189,188,187,171,171,145,235,243,145,243,171,187,188,235,187,187,188,235,243,243,543,544,545,546,547,248,548,549,299,550,551,552,145,553,554,384,329,329,330,384,329,327,516,555,556,557,558,559,418,83,560,487,327,384,327,561,562,563,564,565,566,2,4,5,6,1,1,3,3,6,4,7,3,3,2,7,3,1,5,3,1,5,2,7,4,7,6,3,3,6,4,5,5,3,2,4,1,7,1,7,1,5,7,6,6,6,3,5,1,5,5,5,5,5,5,7,4,6,3,6,5,7,7,1,3,4,4,6,3,5,7,1,3,3,4,1,3,7,2,2,6,2,2,6,5,7,4,2,5,6,7,3,3,5,7,2,4,5,4,3,3,6,1,5,6,3,7,2,7,4,4,4,4,7,4,7,5,2,6,1,6,3,3,7,2,3,2,3,1,2,6,2,2,5,4,5,4,1,2,6,4,1,2,6,1,3,6,2,5,3,1,3,5,1,5,3,7,6,6,3,6,2,6,1,2,4,4,3,5,4,6,6,6,3,5,1,20,567,568,569,570,571,443,541,474,572,573,233,574,161,235,235,171,145,145,243,187,189,188,188,235,243,171,187,189,189,145,145,187,188,188,187,187,188,145,287,575,576,577,578,579,580,581,582,384,417,583,584,171,146,585,328,300,300,329,328,417,586,587,588,589,590,300,327,559,513,455,416,384,327,300,417,591,592,593,594,392,4,2,3,7,7,7,7,6,3,3,6,6,3,1,3,1,6,1,1,3,4,2,1,5,5,6,4,6,5,1,3,7,1,6,2,2,2,7,1,5,6,5,3,3,7,6,7,4,6,7,7,6,4,3,2,3,5,2,5,7,7,2,2,7,2,2,2,1,6,5,3,4,5,3,7,1,2,1,1,5,1,1,1,4,3,1,4,3,7,6,6,1,5,6,4,1,1,4,1,4,5,4,3,6,5,4,3,6,3,1,1,3,6,5,2,7,1,5,7,1,7,4,2,7,5,6,1,4,3,4,3,4,6,2,7,3,7,4,2,6,4,5,4,4,4,3,4,6,3,3,6,1,7,3,1,1,3,2,4,2,7,7,7,3,3,3,1,6,7,1,5,6,3,3,7,461,205,595,596,597,258,187,145,171,243,473,318,189,171,145,187,235,187,243,189,171,187,171,171,187,145,145,235,188,171,189,171,243,235,145,171,188,189,598,599,600,601,602,603,604,554,605,606,607,329,608,552,171,609,554,330,417,328,417,329,610,517,611,589,612,417,329,384,417,550,523,328,417,330,330,329,613,614,615,616,617,5,2,5,1,1,4,2,5,4,4,7,7,4,4,4,2,6,2,4,5,6,7,6,4,7,6,4,4,1,3,5,5,3,7,7,6,7,5,2,6,2,7,4,6,6,4,2,1,5,4,3,5,4,5,1,1,5,7,3,6,4,6,2,1,3,1,1,4,5,3,3,6,2,1,5,4,4,7,2,3,2,7,6,5,4,4,3,5,6,7,4,3,6,7,3,7,2,5,2,2,4,4,5,6,7,4,5,7,3,7,3,6,2,6,6,5,3,6,4,1,2,1,6,5,2,1,3,5,2,6,7,3,5,4,5,5,2,5,1,3,5,3,2,5,7,6,3,5,4,1,3,7,2,5,5,4,6,1,3,6,2,4,1,1,7,6,1,5,2,4,6,4,7,2,5,182,567,618,619,620,411,189,187,145,189,235,189,243,235,171,189,171,145,188,145,243,235,188,188,243,187,171,189,187,145,187,243,189,243,189,188,235,621,622,623,416,624,625,384,626,627,300,626,625,330,628,629,171,190,585,329,417,330,328,630,631,588,632,633,300,384,300,328,384,417,330,327,329,328,327,327,634,635,636,637,28,4,1,7,2,7,7,4,6,2,3,6,7,2,5,5,1,2,12,1,4,4,1,5,5,5,4,1,4,2,5,3,7,1,2,2,2,1,1,2,5,6,2,3,4,7,1,7,3,6,6,1,7,3,6,5,4,3,6,2,3,2,7,7,3,2,7,2,1,6,3,3,6,1,2,4,1,2,5,1,3,4,3,2,6,3,5,1,2,7,1,1,6,2,5,7,1,4,2,2,6,5,6,4,5,6,6,2,6,1,1,2,2,1,6,4,6,2,2,3,5,6,6,4,6,6,7,5,1,6,4,4,3,4,7,4,1,6,1,3,7,6,1,7,7,2,4,7,7,7,7,7,1,4,7,6,4,2,3,6,1,6,2,4,7,3,2,6,7,3,7,3,3,2,2,3,88,638,639,640,641,235,188,235,235,188,187,171,145,187,243,187,188,188,145,187,235,145,171,171,189,188,235,188,243,187,171,235,171,188,235,189,621,602,581,417,329,330,300,384,300,328,328,330,327,328,605,642,235,218,643,417,327,300,644,645,646,647,648,330,329,328,330,300,327,300,329,329,328,329,328,327,649,650,651,365,652,57,3,1,4,6,5,58,9,12,1,2,2,4,7,5,7,204,653,654,6,2,3,6,7,2,3,7,7,3,7,1,1,7,2,3,1,3,5,3,1,1,3,1,1,1,6,3,2,3,1,3,6,6,6,4,1,7,3,4,2,6,6,5,2,7,6,1,3,3,4,1,1,5,6,6,6,3,2,7,6,4,7,1,1,1,6,3,2,1,4,7,2,7,4,7,3,1,6,7,3,1,2,2,4,2,3,1,3,7,6,6,7,5,7,3,2,7,5,4,6,5,5,5,2,7,1,7,2,3,1,2,5,3,1,5,6,5,1,4,2,2,4,1,5,6,6,5,3,1,2,2,3,1,3,7,3,6,5,2,1,7,7,4,5,5,7,5,6,5,3,6,1,7,1,76,38,655,468,409,656,187,145,171,243,235,171,188,243,189,189,189,235,188,187,235,188,171,243,145,145,243,187,189,171,189,188,235,235,188,171,657,548,625,417,658,327,300,329,328,328,300,330,659,660,661,662,584,187,609,663,327,300,664,665,666,667,668,330,328,417,384,327,329,329,327,300,658,669,658,660,300,608,670,671,672,253,673,203,2,3,9,46,674,254,181,108,8,4,2,5,4,1,5,675,676,6,7,1,4,6,5,1,6,1,3,2,2,3,1,1,2,7,3,6,1,3,4,1,3,4,4,5,3,7,5,7,4,1,7,7,1,7,7,1,1,4,3,4,3,7,5,7,3,1,4,2,7,2,6,7,1,7,1,1,1,2,3,5,2,7,5,5,6,7,4,5,3,5,6,6,4,2,6,2,5,7,6,4,4,2,4,5,7,1,1,1,3,2,6,5,6,4,5,1,2,2,4,1,6,4,1,3,5,4,7,7,2,4,6,7,6,4,1,6,4,1,1,6,5,3,2,7,7,4,1,1,3,5,6,2,1,3,7,2,1,7,6,7,2,2,1,4,1,3,5,6,2,3,3,76,89,677,678,378,505,234,171,171,235,187,187,171,145,188,187,187,187,679,171,171,243,187,187,189,171,171,235,235,171,243,243,187,187,243,680,681,602,581,658,682,683,684,669,300,417,327,658,685,686,687,276,688,552,145,146,554,417,610,689,690,691,692,693,694,695,658,660,658,661,669,330,696,697,698,687,276,699,700,552,701,702,703,704,155,56,88,16,140,705,463,706,707,427,203,5,2,5,3,4,7,6,1,1,4,8,8,7,3,2,3,4,4,5,1,3,1,4,1,7,2,7,3,5,4,6,6,1,4,5,4,2,5,2,5,5,5,6,6,3,7,6,5,7,6,1,5,4,4,2,1,4,6,1,2,3,4,1,2,7,3,3,5,2,4,5,5,4,4,4,3,6,7,1,4,2,7,6,4,5,4,3,2,7,2,3,4,5,4,5,7,3,4,1,4,5,4,3,5,3,4,7,1,3,5,2,2,4,2,3,3,2,6,6,3,3,4,3,4,2,5,1,7,2,5,7,1,4,6,2,1,3,1,1,5,2,1,2,57,6,6,2,4,4,8,4,7,4,6,9,9,12,58,8,8,46,283,708,709,160,435,411,187,243,243,188,145,189,188,171,188,235,187,380,320,710,188,145,188,145,187,188,235,243,171,187,171,171,187,680,711,712,713,507,696,714,715,716,275,153,717,661,718,719,360,720,225,103,721,170,171,190,449,586,722,556,723,724,725,103,358,687,360,359,360,687,361,726,719,727,103,381,178,275,728,729,189,730,731,732,154,253,367,733,166,734,735,107,335,736,737,19,6,7,1,6,6,2,4,4,738,73,739,156,6,5,4,1,12,2,7,1,6,2,3,5,7,2,3,4,3,3,3,7,5,2,4,7,4,7,6,3,3,7,4,2,2,1,7,7,7,4,3,2,5,4,4,7,3,3,7,1,3,4,4,1,5,1,3,1,1,3,7,3,2,1,4,7,2,7,5,3,6,1,5,5,6,7,3,2,1,3,5,2,6,5,3,2,5,5,5,1,1,7,5,7,3,2,5,4,5,4,6,5,6,6,2,3,3,1,2,2,3,2,2,5,2,1,6,6,7,3,4,6,4,1,4,5,7,2,1,1,3,182,740,56,58,10,8,117,14,108,57,8,13,393,311,74,17,341,342,741,467,742,743,318,235,189,188,189,145,235,188,187,187,189,744,745,746,412,323,747,748,188,188,235,171,187,171,188,171,171,749,750,543,751,752,753,754,755,756,757,758,201,381,103,358,359,687,759,178,381,201,381,216,242,187,760,761,762,763,764,765,716,83,240,83,240,201,225,178,178,766,767,768,201,381,178,83,381,293,769,171,187,770,771,202,772,773,774,775,776,777,778,458,779,616,492,3,1,4,3,6,5,4,738,47,780,93,130,56,2,7,20,781,654,2,5,5,3,5,4,5,5,7,2,5,2,1,6,7,4,5,3,6,2,3,5,1,1,6,5,1,7,6,3,2,7,7,2,7,5,6,1,2,6,4,5,4,5,1,4,2,6,6,1,4,7,7,6,2,1,4,1,6,3,7,4,3,4,5,7,2,1,6,6,4,7,6,7,7,5,6,7,4,6,3,3,1,2,2,6,1,6,6,5,3,5,7,4,2,2,4,6,7,4,6,2,4,1,6,2,1,3,7,5,5,7,3,5,5,7,1,3,5,5,2,2,3,76,782,783,340,17,342,466,784,707,254,342,785,786,372,92,430,373,91,787,788,789,790,145,243,187,187,243,145,243,171,189,145,791,322,792,793,794,178,241,795,679,796,679,797,749,749,798,798,799,800,801,802,803,804,805,806,807,808,809,810,225,225,225,201,178,381,225,201,381,381,83,352,242,811,812,813,814,815,816,817,201,201,381,201,103,225,381,201,225,201,818,819,381,201,225,240,225,820,769,243,188,553,821,822,227,823,824,213,825,361,826,827,828,829,617,2,2,6,4,5,9,117,47,830,831,832,833,594,834,6,1,835,836,1,6,4,1,6,5,4,4,6,3,3,1,6,5,6,1,7,1,7,3,5,6,7,7,7,3,7,2,5,5,1,1,1,4,6,6,2,7,4,5,5,5,5,3,6,2,6,7,2,4,5,1,2,6,4,2,2,7,3,1,1,7,7,6,4,2,4,6,3,7,4,4,3,5,6,3,3,3,6,3,2,6,5,2,6,7,7,1,2,3,6,1,1,2,4,3,1,2,2,1,1,5,2,7,3,5,7,1,1,7,6,5,7,1,1,4,3,2,4,1,2,1,13,428,780,375,278,278,279,837,838,335,279,91,839,840,401,841,842,400,843,844,845,121,145,243,145,171,235,187,243,188,145,171,210,412,292,381,240,178,103,381,846,847,848,849,850,851,852,853,853,854,299,855,856,857,857,858,859,860,327,861,862,863,240,225,83,103,225,201,225,83,83,103,265,382,864,865,866,867,868,869,870,381,225,83,83,178,381,240,381,240,83,178,178,381,240,381,225,178,216,353,171,171,319,871,872,127,213,873,874,819,875,876,877,878,44,879,3,4,3,4,13,674,140,880,881,882,883,884,885,886,3,7,6,2,7,3,1,7,2,4,4,5,4,1,7,7,6,1,4,7,1,7,1,5,3,1,5,1,4,6,5,6,4,6,7,3,7,5,3,2,5,6,2,1,4,3,3,6,2,6,1,1,5,2,7,4,3,1,3,6,5,4,5,4,2,1,7,7,1,4,3,2,5,5,3,2,7,2,2,1,1,4,3,5,4,5,7,1,2,5,2,7,5,1,2,5,1,6,5,4,3,6,7,6,7,3,1,6,1,3,6,7,4,5,3,1,2,2,2,3,6,7,2,4,7,95,60,97,887,888,735,889,890,403,891,892,893,842,539,286,894,135,620,435,574,121,187,235,171,235,187,188,796,796,680,171,243,188,380,895,225,225,83,225,240,103,225,103,896,422,897,327,327,417,417,330,330,330,327,417,327,417,328,417,329,417,329,331,898,178,178,178,201,178,381,201,225,240,820,769,235,899,900,901,697,715,720,225,178,103,201,83,225,240,201,83,83,201,201,240,381,178,225,83,293,242,187,235,902,82,178,903,904,905,225,381,83,303,52,68,309,94,56,58,5,88,906,907,501,396,317,443,908,909,833,910,460,5,2,7,6,5,7,2,4,2,2,6,1,4,2,4,7,7,1,2,3,1,4,7,1,1,6,3,4,2,4,5,1,7,5,6,5,4,1,7,5,6,6,2,6,1,3,4,3,7,7,4,3,1,7,5,5,7,6,7,5,3,3,1,6,7,4,5,3,3,5,6,3,3,5,4,5,5,4,3,3,3,6,7,2,5,5,6,1,6,7,4,3,5,5,7,1,2,4,7,5,2,2,2,5,6,7,7,3,5,7,6,6,7,5,2,4,1,6,4,4,1,5,6,6,204,911,568,912,913,914,915,916,917,437,398,918,379,919,318,187,920,234,171,235,189,188,187,187,187,189,791,322,350,752,921,188,902,922,923,240,381,381,178,381,103,201,924,455,456,328,300,384,330,384,417,327,328,384,327,329,328,417,328,328,384,417,925,870,83,103,225,225,201,225,240,83,381,241,217,171,294,926,904,819,201,381,103,178,178,103,381,381,83,83,381,240,240,178,201,83,201,178,240,414,353,235,171,927,928,225,83,240,103,381,381,201,225,226,52,929,930,253,931,932,933,934,377,935,540,411,171,936,937,938,939,940,6,3,1,3,3,6,7,2,4,1,5,3,6,7,4,1,2,2,6,7,2,3,5,2,2,6,1,1,7,6,4,4,1,7,3,3,3,5,3,5,5,2,2,7,3,5,1,2,4,1,1,1,1,7,3,2,5,5,6,4,4,1,2,7,1,2,3,4,5,3,6,5,5,3,5,1,3,2,5,5,4,7,4,3,5,6,4,2,3,5,4,4,6,7,2,4,4,5,3,7,6,7,7,4,3,6,5,1,7,1,5,4,1,3,7,2,2,2,7,6,4,3,4,7,29,131,118,941,942,943,944,121,235,189,162,574,318,243,189,187,171,171,235,171,187,171,235,189,235,259,260,945,225,178,946,947,746,348,201,103,240,240,83,240,225,178,454,948,328,330,327,417,329,417,329,300,417,300,300,328,417,328,327,300,327,329,949,870,178,381,201,201,178,201,83,178,225,820,353,243,927,950,178,201,83,83,178,225,381,951,952,952,178,953,448,201,201,201,240,178,178,201,381,265,195,187,243,171,954,955,225,103,201,225,83,83,103,178,956,957,958,959,960,961,638,256,257,410,474,962,963,964,965,966,967,968,4,1,7,4,1,6,5,7,3,1,6,5,4,1,3,7,6,4,1,2,2,5,3,1,1,3,3,7,7,6,3,1,4,5,6,6,1,1,4,3,4,1,7,6,5,6,4,7,3,5,4,3,2,5,6,1,4,7,5,5,3,2,6,5,7,6,1,2,6,6,4,2,4,4,6,5,6,6,2,5,5,1,2,5,6,1,6,4,2,4,7,2,1,1,6,4,1,1,6,3,1,5,1,6,1,3,5,5,6,3,1,7,6,2,3,3,4,1,1,7,5,2,5,95,969,970,971,972,973,974,243,235,171,235,189,188,188,187,243,189,243,188,187,188,145,243,243,188,145,294,975,240,381,225,414,976,977,978,381,201,201,178,240,103,201,381,979,326,300,327,417,328,330,300,384,417,384,300,417,330,329,327,384,328,328,417,356,386,103,83,83,103,381,240,178,103,240,216,353,187,210,980,83,225,178,240,83,448,981,982,983,984,985,986,987,988,178,381,178,103,381,201,103,241,382,171,243,187,189,989,990,83,240,178,201,178,103,265,991,992,701,993,672,24,994,396,995,161,996,997,998,999,1000,1001,1002,1003,7,7,3,4,3,5,7,3,7,2,3,7,5,6,5,5,3,3,4,3,3,4,2,7,5,5,6,6,6,1,7,7,5,4,2,7,2,7,5,4,1,1,4,4,2,4,2,3,7,3,5,6,5,4,4,7,6,2,5,1,1,4,3,3,5,7,4,7,2,1,5,1,5,7,3,4,4,7,6,6,6,3,1,6,2,7,3,5,4,2,6,6,7,3,5,3,3,1,1,2,4,6,4,6,3,4,1,5,2,4,3,3,5,2,6,5,6,1,7,1,3,6,6,157,567,568,1004,1005,1006,1007,145,145,145,145,171,188,235,187,235,243,171,171,188,171,171,171,145,171,188,243,1008,1009,952,951,1010,1011,950,103,103,178,240,83,225,178,83,875,1012,416,327,384,327,417,329,417,328,384,327,327,329,328,300,327,300,384,417,384,329,331,1013,126,381,201,240,201,225,225,83,241,242,188,927,1014,381,103,201,103,820,1015,1016,1017,752,1018,1019,1020,712,945,83,103,225,103,225,240,178,820,242,188,145,189,188,210,1021,951,951,83,225,201,381,414,382,171,145,701,1022,1023,1024,1025,474,1026,1027,1028,1029,1030,1031,1032,594,338,1,2,4,1,2,4,1,4,5,6,5,6,6,3,6,3,1,1,1,6,1,2,4,2,7,7,5,3,3,4,2,2,3,5,4,1,1,2,3,2,7,4,4,5,6,2,3,6,2,5,6,1,7,3,1,2,1,4,3,2,3,7,6,1,7,2,6,3,5,4,4,2,7,4,4,5,5,1,3,5,1,6,2,2,6,5,1,6,3,7,7,3,5,2,1,1,7,1,3,5,5,7,2,4,4,6,2,4,6,6,3,2,7,1,5,3,7,1,4,3,3,7,4,13,638,493,596,1033,1034,235,188,188,243,171,171,171,145,171,187,145,187,187,189,145,243,243,171,243,243,243,235,1019,1035,1036,1037,1038,945,201,83,381,240,225,381,225,381,766,1039,330,330,327,384,384,330,330,327,327,330,328,300,328,327,300,330,300,384,328,330,384,855,1040,418,1041,1042,178,103,83,103,265,266,171,210,1043,125,804,1044,178,103,1045,1046,895,1047,1048,1049,745,1050,1009,178,178,381,83,201,201,178,241,1051,188,188,243,187,145,1052,1053,1054,1055,83,83,103,820,217,187,235,1056,1057,1058,1059,1060,1061,1062,1063,1064,1065,1066,1067,1068,1069,940,1,6,2,3,3,2,7,1,7,4,2,6,4,7,6,5,2,4,6,1,7,5,5,7,1,2,6,5,5,6,6,4,1,7,7,6,3,2,2,5,5,4,7,5,3,5,1,2,6,2,1,3,5,6,7,3,1,7,2,1,7,5,7,2,1,1,3,7,7,3,2,5,5,3,2,2,3,2,6,1,6,3,5,7,5,4,2,5,6,2,1,5,4,2,2,2,5,5,4,3,4,4,6,2,5,2,6,6,3,1,3,1,2,3,6,2,2,6,2,6,4,5,76,1070,1071,840,503,505,474,235,189,188,189,188,243,235,171,243,145,189,189,235,188,243,189,243,235,189,235,189,187,235,188,235,791,895,240,225,83,103,103,103,225,381,83,421,355,327,300,330,300,327,417,417,330,330,417,384,328,300,329,328,300,327,327,330,417,327,327,327,450,1072,1073,1074,178,240,240,241,382,235,190,1075,1076,857,1077,863,1078,1079,1080,1081,1079,1082,1083,922,1084,1085,264,201,240,240,178,225,83,381,1086,947,145,171,235,235,145,188,171,954,955,952,1047,1087,242,188,744,711,1088,1089,1090,1091,1092,1093,1094,1095,1096,1097,1098,1096,1099,1003,3,3,7,6,5,6,5,3,2,5,7,5,3,5,1,6,6,5,7,3,2,4,3,3,7,6,2,4,7,7,3,6,4,5,5,4,6,1,7,5,6,7,3,6,6,5,4,7,7,6,4,5,1,3,6,1,4,7,3,3,5,1,6,2,4,4,7,7,1,1,7,2,1,5,5,5,5,2,1,7,5,7,2,3,1,5,4,7,7,1,3,1,6,2,4,6,6,7,4,7,7,2,5,4,3,5,2,7,7,1,2,1,6,4,7,1,4,7,3,2,11,88,89,1100,1101,1102,435,161,145,235,171,171,188,188,187,243,171,145,187,243,187,145,243,188,243,189,145,145,188,189,235,189,145,287,977,292,201,381,240,240,240,103,240,178,1103,1104,897,329,300,330,330,327,327,417,417,300,329,417,417,384,300,328,384,327,384,329,327,329,384,417,329,1105,1106,1107,1108,240,381,241,217,145,609,663,384,1109,606,1110,1111,1112,292,448,1113,1114,1115,1116,1117,1118,980,225,201,240,83,225,225,225,265,769,189,235,243,188,171,243,171,145,1119,1035,1120,1120,1121,259,322,793,292,1122,1123,1124,1125,1126,1127,1128,1129,836,835,1130,529,7,6,4,4,1,3,7,7,2,5,5,5,6,5,2,4,7,5,2,7,2,4,3,3,5,6,7,2,3,3,4,5,2,3,7,6,4,5,3,6,5,4,3,2,1,5,1,3,4,2,3,6,3,6,3,1,6,4,3,6,5,3,6,6,2,3,3,5,1,6,3,2,1,6,4,4,4,7,4,7,5,4,5,2,6,2,7,2,6,3,6,4,7,1,7,5,3,3,1,6,6,2,4,7,2,6,7,1,3,6,2,3,7,5,6,1,7,5,6,5,13,16,466,830,468,1131,347,171,188,171,243,243,145,187,235,235,235,235,243,145,145,189,243,189,189,145,145,171,187,235,145,189,145,1132,322,945,83,83,103,381,103,103,178,225,1133,1134,1135,1136,1137,328,417,327,330,330,384,329,329,417,329,328,300,329,329,300,329,328,330,329,328,327,329,1138,689,1139,1140,1141,201,240,293,382,187,172,643,327,328,1142,1143,1144,1145,1146,1079,1147,1047,1148,1149,1150,848,945,381,953,381,201,381,103,103,216,382,243,235,189,171,243,171,235,189,145,171,188,188,189,210,895,201,83,178,486,1151,1152,1153,1154,28,4,4,4,5,4,6,3,3,1,3,7,2,2,6,4,6,4,5,5,7,2,5,6,1,1,4,3,1,6,6,4,3,7,5,4,3,5,4,6,2,5,6,6,5,2,7,3,1,6,5,4,7,6,5,2,2,3,1,7,5,2,3,3,7,2,3,5,1,5,5,6,7,4,4,7,6,4,5,3,6,2,2,2,1,1,2,3,3,3,7,6,6,1,3,1,3,7,1,3,3,1,7,1,3,4,3,2,1,2,7,4,3,5,6,2,1,1,3,7,3,7,4,7,5,29,1070,90,1155,881,503,233,474,235,145,145,188,189,235,235,235,145,187,187,235,188,187,189,243,145,243,171,189,243,235,243,187,243,1156,1157,1158,240,225,381,178,240,1159,1160,1161,1162,1163,1164,1165,1166,1167,1168,1136,417,328,300,327,300,300,328,300,327,328,330,417,384,328,330,327,328,330,384,1138,517,611,1169,1170,1171,381,201,241,195,145,146,585,329,330,327,1172,1173,1174,1175,1176,1177,982,1120,987,1178,240,178,1179,1180,264,83,83,83,240,241,1181,171,189,171,243,171,145,189,243,187,243,189,243,243,319,950,240,178,454,1182,1183,1184,1185,1186,1187,7,6,2,7,2,5,1,3,3,2,4,3,6,4,6,2,1,7,2,1,7,2,3,7,4,5,7,1,7,3,6,1,5,4,5,2,2,3,2,6,6,6,6,2,5,1,1,5,7,4,5,1,5,1,3,6,1,3,5,7,2,2,1,4,1,3,3,7,4,7,5,2,5,2,6,2,1,4,4,7,1,6,4,5,6,1,3,5,1,1,5,7,3,1,2,7,1,7,2,4,1,2,4,5,5,4,1,3,1,5,6,2,5,5,4,7,6,6,1,4,4,4,1,76,47,1188,1189,935,1190,440,161,187,187,187,189,187,171,235,171,171,188,235,145,189,188,188,145,171,187,235,235,243,189,171,189,243,1191,1192,1193,1194,1195,1161,1196,1161,1197,1198,1199,1200,1199,1201,1202,1203,1204,1205,1206,1207,1208,417,384,384,384,330,328,328,329,417,330,329,327,384,417,384,330,417,1209,587,763,815,590,417,273,1210,83,352,795,798,657,554,417,1211,583,1212,1213,1174,1181,1214,1215,1216,1217,1218,753,758,1219,1220,1221,980,381,201,381,201,201,1222,1223,243,235,243,188,187,235,171,243,235,145,189,145,324,200,83,201,225,179,1224,592,1225,337,460,7,2,1,1,7,4,3,5,4,7,2,1,3,1,7,1,4,1,4,4,7,2,5,6,4,4,2,7,1,1,7,5,6,1,3,2,4,7,6,7,2,2,7,5,3,4,5,6,7,7,1,3,4,3,1,7,4,6,4,2,7,3,4,1,7,4,1,1,1,5,6,2,3,6,2,6,4,1,1,1,2,1,5,3,5,2,6,4,3,2,5,4,6,4,4,1,7,6,4,6,6,1,2,7,4,3,3,5,3,2,1,7,3,7,2,5,5,3,7,3,3,5,20,969,1226,1227,346,1228,121,235,171,145,188,189,145,235,189,187,235,145,187,189,189,189,187,188,243,235,188,243,171,235,243,145,243,1229,1230,1231,1232,1233,1234,1235,1236,1236,1237,1201,1204,1204,1203,1204,1205,1238,1238,1204,1238,1202,1239,1240,328,329,328,327,328,327,300,328,417,327,328,330,384,327,384,586,762,763,1241,1242,327,384,1243,1244,103,83,1245,850,549,1246,662,1247,1248,1249,1250,1251,1222,1252,1253,1254,1255,1256,1038,1081,1257,1258,322,323,240,178,240,240,225,293,1259,189,145,145,235,243,189,188,243,188,145,189,145,187,1008,990,178,381,521,1260,1261,1262,1263,1264,5,7,2,7,4,2,5,4,7,5,7,1,6,4,6,4,1,6,2,1,6,3,7,3,4,5,6,2,2,3,6,6,3,4,7,1,3,5,2,6,1,7,1,2,6,2,6,5,2,6,2,6,4,6,7,5,1,3,6,2,6,3,4,1,3,2,4,4,4,3,1,5,1,2,7,2,1,5,4,3,6,1,4,1,3,2,5,3,1,4,3,7,7,5,5,4,6,6,2,5,2,3,1,6,5,4,5,7,1,5,3,1,1,5,4,5,6,1,5,6,6,4,88,1265,78,1266,1267,121,145,187,188,189,187,187,235,145,187,145,243,171,145,188,145,187,235,145,145,171,171,235,243,188,171,188,1268,1269,1270,1271,1272,1238,1238,1205,1202,1273,1274,1238,1202,1274,1238,1273,1238,1204,1205,1205,1274,1274,1204,1239,1275,1136,384,328,300,384,327,417,384,329,330,417,329,330,1276,722,1277,1278,1279,384,327,417,327,559,418,560,1280,1281,1282,330,1283,1284,1285,1286,1287,1288,1289,1113,1290,1115,975,1291,1292,419,1293,802,292,178,103,381,381,381,178,896,1294,509,243,187,187,187,145,187,171,235,187,187,189,235,927,1295,103,178,875,1296,827,1297,1298,1299,7,3,4,1,5,4,3,5,6,7,5,1,2,4,6,3,4,2,1,4,3,1,3,4,5,3,7,2,4,1,7,7,6,2,4,6,1,7,6,5,2,2,4,1,3,7,7,5,7,5,7,3,2,2,5,6,3,6,3,1,7,1,7,1,6,4,3,6,2,5,1,4,7,4,5,5,6,2,2,4,2,5,7,2,1,3,2,7,7,3,1,1,1,3,7,5,6,5,5,1,4,6,2,7,7,2,7,2,5,4,2,1,2,4,3,1,2,5,3,2,7,117,47,1300,1301,1302,1303,171,235,171,243,243,235,145,243,145,145,189,243,188,188,235,187,145,187,243,189,188,243,145,187,189,187,188,380,1304,1305,1306,1307,1202,1203,1238,1238,1203,1203,1202,1203,1205,1204,1203,1273,1273,1238,1274,1203,1205,1202,1202,1206,1167,1308,300,384,417,417,329,300,300,384,300,384,516,762,763,589,1279,328,327,328,384,384,417,450,1309,1310,1311,1312,1313,174,1314,1315,1104,1316,1317,1318,952,953,1319,1320,1321,1322,1076,1323,862,1324,240,225,225,83,381,486,1325,1326,1327,188,188,189,235,187,187,188,145,235,145,188,187,235,1328,988,201,924,1329,1330,1331,365,313,3,5,1,3,2,7,6,4,1,2,6,3,7,3,5,1,2,4,5,5,4,3,2,4,3,3,4,7,3,5,4,6,2,2,2,1,6,3,5,4,4,4,5,7,2,5,7,2,3,1,5,1,7,5,1,5,6,4,1,3,5,7,6,7,4,7,7,3,4,4,3,3,5,1,3,5,1,4,6,3,5,4,3,6,4,1,4,2,5,6,2,4,4,6,6,6,1,4,6,2,5,3,3,4,1,1,6,2,6,2,7,3,6,3,4,3,7,2,6,7,59,1332,1333,971,1334,1335,629,235,243,243,145,171,189,188,145,243,188,145,187,145,235,171,235,189,145,145,235,187,243,145,188,145,187,711,977,923,178,1336,1337,1338,1202,1238,1273,1204,1273,1202,1238,1203,1273,1273,1203,1203,1273,1273,1202,1238,1204,1238,1238,1238,1339,1340,327,329,328,327,329,384,417,327,1341,555,1342,632,558,330,417,300,330,327,327,329,330,608,584,171,122,1343,1344,1345,1346,1347,605,1348,1349,1350,1351,1352,601,1353,581,329,384,329,1354,863,201,178,103,421,422,423,330,508,1355,171,243,189,235,189,189,145,243,243,235,188,243,319,950,240,381,66,1356,458,1357,1358,834,4,5,4,10,58,10,57,12,11,3,2,5,6,7,7,8,10,11,6,2,1,1,1,6,4,3,5,6,1,3,3,3,5,4,4,3,4,5,3,6,5,4,5,5,3,2,6,6,2,6,4,5,5,7,1,5,4,3,5,3,5,3,6,1,4,5,5,5,5,6,6,1,6,2,6,1,5,2,6,2,7,2,3,5,2,5,7,3,2,4,5,2,4,4,5,4,2,2,6,1,7,2,5,2,3,7,5,2,6,1,4,7,6,1,3,4,3,7,3,157,183,1359,1360,1361,608,1362,243,189,188,187,171,189,145,189,187,189,187,188,243,188,189,189,235,235,189,189,243,188,188,145,171,791,322,978,178,201,103,225,1363,1364,1203,1204,1273,1238,1238,1238,1274,1204,1202,1274,1205,1202,1203,1238,1273,1202,1205,1202,1204,1365,1366,328,384,300,329,330,417,417,516,555,1342,1241,558,327,417,384,300,330,300,300,327,329,628,1367,235,243,1368,1369,1370,1371,1372,1373,297,1374,624,1375,1376,1377,272,328,330,329,330,329,1378,250,83,421,522,1379,417,300,628,1380,187,235,189,145,188,145,235,145,145,243,243,145,324,348,83,201,924,1381,1382,878,1383,45,8,58,46,674,17,254,342,342,181,203,9,57,9,57,76,393,254,1384,338,5,2,2,7,4,5,3,1,7,3,4,5,5,4,5,1,1,6,2,1,6,6,2,2,5,3,2,5,7,5,7,3,4,1,2,5,2,1,6,6,2,2,1,3,6,3,7,6,4,7,5,7,3,2,3,1,2,4,1,7,1,5,4,6,6,1,5,3,1,4,7,6,6,1,1,1,1,4,1,7,1,6,1,6,6,1,2,7,6,3,4,7,5,5,3,6,6,1,1,4,204,1385,1386,1387,1388,1389,642,145,188,235,243,189,187,243,187,189,187,235,171,171,235,243,145,187,235,187,145,171,187,171,750,746,412,978,240,225,83,178,201,225,1390,1391,1203,1205,1274,1202,1205,1238,1205,1202,1205,1204,1205,1274,1274,1238,1273,1205,1202,1202,1274,1392,1393,417,384,417,330,384,610,762,1342,589,590,417,300,330,328,330,328,328,329,384,300,1394,584,187,324,260,1395,848,1149,349,1396,1397,606,1398,1247,1399,1400,1282,300,328,330,328,327,300,1378,1401,522,1402,329,327,329,949,1403,1404,187,188,187,187,189,235,243,187,235,235,187,319,975,381,225,201,104,105,42,54,707,74,74,22,1405,279,375,375,463,1406,1407,340,311,254,311,785,1408,1409,1410,1299,6,1,5,6,1,5,5,3,1,1,7,3,6,1,5,2,4,2,4,6,5,5,1,6,3,4,5,6,2,2,2,5,5,3,6,6,6,7,3,7,3,1,4,7,2,4,1,2,1,6,6,7,4,7,4,1,2,4,6,2,5,2,3,1,4,6,4,1,3,3,6,1,7,3,5,5,5,5,4,4,2,3,7,4,2,5,2,6,2,6,5,5,1,3,1,2,1,3,7,4,7,1411,1412,1413,1414,1415,1416,243,243,235,235,188,235,188,189,187,145,235,189,171,235,171,171,189,235,188,171,1417,1418,380,412,848,292,381,178,201,103,381,225,240,201,1419,1364,1202,1202,1204,1274,1238,1205,1202,1238,1238,1204,1273,1273,1274,1204,1204,1273,1204,1238,1274,1420,1168,329,327,327,1209,1421,588,1278,1242,330,300,329,330,384,328,327,417,330,327,384,1422,1367,188,324,1116,1180,1423,1424,1425,1426,1427,508,1428,1429,1430,1431,1432,1433,417,329,300,300,417,925,1434,1435,417,417,384,384,385,1436,946,921,243,235,188,187,171,188,187,145,235,187,188,1328,1009,951,103,240,303,1437,1438,1439,278,92,1440,774,1441,888,888,1442,1443,1444,373,278,371,374,1445,1446,1447,1128,1448,5,6,5,3,4,1,2,4,2,6,4,3,4,4,5,6,6,6,6,6,2,5,5,1,7,3,1,7,2,4,4,5,2,7,6,2,3,5,1,2,5,2,1,2,6,1,1,4,2,2,6,5,2,2,2,2,4,1,4,4,5,6,5,6,4,7,1,7,7,5,6,1,2,5,7,1,7,6,4,5,7,1,7,5,6,7,1,5,5,2,7,3,4,1,3,1,7,5,6,5,6,182,911,231,1449,233,472,189,145,171,243,189,187,171,243,235,171,188,145,235,189,188,235,187,171,1450,1191,1192,1451,1452,351,178,201,225,178,240,381,103,240,381,240,201,1363,1453,1274,1202,1205,1273,1203,1204,1274,1204,1202,1203,1204,1205,1203,1202,1203,1273,1274,1238,1274,1454,1455,300,1138,762,588,589,1279,300,417,328,384,328,327,328,329,328,417,384,1394,1456,1457,145,902,1458,1459,980,1460,1461,1462,1463,1464,297,627,1465,1466,1467,1468,1469,330,1470,1471,1471,1472,1473,1474,1472,1472,1475,1476,1477,1478,1479,1480,1481,1482,1483,1484,1485,1486,1484,1482,1483,1484,1486,1487,1488,1489,1490,1491,1492,1493,1494,1495,1496,496,1497,1498,1499,1499,1500,1501,1502,1503,1504,841,1505,1506,1507,1508,1128,1509,1510,834,3,7,2,5,3,6,3,4,2,5,6,5,5,7,3,5,4,2,6,4,4,5,7,3,6,7,2,7,2,1,4,1,1,7,6,1,7,7,1,7,3,1,6,2,3,5,1,4,4,4,2,3,6,5,6,3,3,5,5,2,3,4,3,6,5,7,6,1,7,7,2,6,7,1,2,5,1,6,6,5,5,4,6,7,1,6,4,2,4,1,3,6,2,7,3,3,4,3,1,7,204,1511,1512,1513,1514,235,171,187,189,171,187,235,187,187,171,189,145,187,187,188,171,189,171,1515,1230,1516,1517,1518,1519,240,381,240,178,240,178,225,240,83,201,103,225,225,1390,1391,1307,1520,1202,1204,1238,1203,1202,1203,1205,1238,1202,1205,1273,1274,1202,1202,1204,1204,1521,1522,1209,1421,1277,1278,558,330,330,300,417,329,330,300,384,300,330,384,329,330,1523,1524,187,171,236,1038,1177,1525,1526,1527,1528,1529,1530,1531,1532,1533,1534,1535,1536,1537,1538,1539,1539,1540,1541,1540,1542,1539,1543,1539,1544,1541,1545,1546,1547,1548,1549,1550,1551,1552,1553,1553,1552,1554,1552,1550,1550,1552,1555,1556,1557,1558,1559,1560,1561,1562,1563,1564,1544,1565,1566,1567,1568,1553,1569,1570,1571,1572,1573,1574,836,20,1575,968,3,6,5,1,4,1,1,7,1,7,5,6,1,1,7,1,5,6,5,1,5,3,5,6,2,2,5,5,5,6,6,5,7,1,1,7,2,1,7,3,1,5,2,3,5,3,4,3,2,5,1,5,3,5,6,6,5,4,7,6,5,1,7,3,1,2,3,6,6,1,6,1,1,3,1,4,4,3,6,3,6,5,3,6,3,5,1,6,1,3,7,3,2,5,4,2,2,4,3,5,6,1576,1577,1578,1579,1580,187,235,187,171,189,243,145,171,145,187,243,145,189,243,235,188,1581,1230,1582,1583,1584,1585,1586,178,201,83,178,381,240,201,225,240,225,240,103,201,178,1587,1588,1589,1338,1590,1274,1274,1205,1202,1203,1203,1204,1202,1202,1202,1274,1273,1202,1203,1274,1591,1592,588,1241,558,329,659,658,658,660,669,1593,660,658,384,417,328,330,327,1394,552,145,1594,1595,1596,1597,1598,1599,1600,1601,1602,1603,1604,1605,1606,1607,1608,1609,1610,1611,1612,1613,1614,1615,1616,1612,1617,1615,1613,1616,1614,1618,1615,1619,1620,1621,1622,1622,1623,1623,1624,1620,1625,1623,1620,1624,1626,1621,1626,1625,1621,1621,1626,1623,1625,1622,1627,1617,1617,1619,1626,1623,1620,1624,1623,1623,1628,1629,1358,392,95,1630,28,2,3,7,5,5,1,2,6,7,5,2,7,5,3,4,3,3,7,4,3,3,1,6,5,7,4,1,6,1,3,6,7,6,4,6,2,7,6,5,3,4,6,4,3,7,5,5,6,4,7,2,6,6,4,6,7,7,5,2,3,4,7,4,6,3,6,6,2,4,3,5,4,7,5,3,2,1,6,6,1,3,6,7,7,2,3,7,2,4,3,1,1,2,6,3,3,7,4,5,4,2,461,911,595,1631,1632,1633,171,189,235,171,171,187,189,243,235,189,235,189,145,1634,1635,1636,1637,1232,1638,1272,1274,1639,1640,83,178,201,225,178,103,178,83,381,83,178,83,83,201,240,225,1641,1589,1364,1205,1274,1274,1202,1238,1203,1205,1205,1238,1274,1205,1204,1204,1238,1642,1643,557,1279,330,682,686,904,687,698,359,904,359,361,1644,695,660,328,1645,247,1367,1646,1647,1648,1649,1650,1651,1652,1653,1654,1655,1656,1657,1658,1659,1660,1661,1658,1662,1663,1664,1665,1655,1666,1654,1654,1664,1655,1667,1654,1654,1665,1666,1665,1665,1654,1655,1654,1666,1667,1665,1654,1666,1666,1666,1654,1665,1666,1668,1668,1664,1664,1655,1667,1667,1668,1666,1668,1668,1665,1668,1668,1655,1666,1664,1665,1664,1665,1669,968,4,1670,1187,7,6,1,7,5,3,7,3,5,7,1,2,6,2,1,1,5,6,5,5,6,2,6,6,4,6,3,5,4,5,2,7,3,1,5,3,1,5,3,2,1,5,2,5,2,2,4,7,5,1,5,5,3,5,5,7,2,4,3,1,2,6,3,3,5,2,3,6,1,1,4,3,6,3,1,7,4,3,2,5,5,3,1,6,4,5,4,1,2,2,4,6,1,2,4,3,2,1,1,1,6,95,205,568,1671,1672,1673,235,187,171,145,189,189,188,189,187,1674,798,749,1635,1675,854,1676,1677,1678,1202,1203,1203,1679,1680,381,83,240,381,225,201,225,240,83,381,225,103,178,83,83,103,381,240,1681,1682,1202,1205,1202,1203,1273,1202,1274,1238,1202,1203,1202,1203,1202,1683,1684,1279,329,1243,1685,720,240,381,178,240,225,201,178,358,698,153,1686,1687,1688,1689,1690,1691,1692,1693,1694,1695,1695,1696,1697,1129,1697,1697,1698,1699,1700,1697,1701,1702,1696,1698,1703,1704,1704,1697,1701,1701,1129,1703,1703,1703,1130,1697,1701,1698,1703,1697,1703,1701,1697,1130,1698,1704,1704,1704,1130,1129,1130,1704,1703,1129,1697,1704,1703,1704,1703,1130,1701,1698,1698,1701,1701,1701,1701,1703,1704,1697,1698,1701,529,3,2,1,2,7,7,6,5,6,2,6,7,5,7,4,3,4,3,3,3,7,4,7,2,1,3,1,7,6,5,7,5,4,6,6,7,4,4,5,2,6,5,4,4,7,4,3,2,6,6,2,1,6,3,3,7,1,5,3,7,1,2,5,4,6,2,1,7,6,4,4,3,5,3,3,4,2,5,3,2,1,7,6,2,7,6,2,5,2,6,3,6,1,5,1,7,1,7,2,4,7,6,3,3,76,77,78,1705,1706,1707,1708,1634,744,680,680,796,744,745,1709,1710,1711,1712,852,625,1713,1714,1715,1202,1273,1205,1274,1716,1717,201,225,381,240,201,240,201,201,103,225,381,240,103,83,381,83,83,178,1718,1719,1273,1202,1238,1202,1204,1273,1204,1205,1204,1202,1273,1205,1205,1204,1454,1720,328,718,817,201,225,83,225,103,178,240,201,381,178,83,1721,1722,1723,1724,1725,1726,1727,1728,1,3,3,3,7,5,1,4,5,4,7,6,7,3,7,5,2,2,5,7,4,1,5,6,6,7,3,6,2,3,1,4,7,2,1,3,1,4,2,2,3,4,6,6,2,3,1,2,1,6,6,2,2,3,2,7,2,1,3,2,5,1,7,3,4,6,3,5,6,4,2,6,6,5,6,4,1,2,3,3,5,5,4,1,2,4,1,3,2,7,6,1,4,1,7,3,1,2,1,3,4,5,2,1,4,1,4,2,1,2,7,6,1,1,3,1,2,2,5,2,3,2,3,4,2,7,4,4,6,5,6,7,6,5,2,3,4,3,1,5,1,4,6,6,1,7,1,5,1,5,5,4,7,4,1,4,5,7,7,4,5,3,6,7,3,6,2,4,95,1729,1333,1730,1731,1732,328,1733,1734,1735,793,848,350,848,1736,1737,1738,456,327,329,300,1739,1740,1741,1742,1274,1743,1744,1745,1746,240,103,225,201,240,178,225,381,103,201,240,103,240,240,240,83,201,178,381,1747,1748,1205,1203,1203,1273,1238,1202,1204,1238,1274,1203,1202,1202,1238,1365,1749,1750,1751,727,178,381,240,381,225,103,201,240,201,201,201,952,1752,261,1753,1754,1755,1756,1757,1758,1759,1760,1761,1758,1759,58,8,12,12,12,1759,10,10,1762,1762,1762,12,9,58,10,11,58,10,9,10,12,58,8,57,10,10,57,57,11,8,57,58,58,12,12,12,9,10,12,8,11,58,57,58,10,11,58,11,8,10,10,11,12,8,58,11,12,5,1,4,3,4,5,2,4,5,2,6,7,6,2,1,1,6,3,7,3,5,3,2,7,2,1,1,4,2,5,4,7,4,2,6,7,5,1,6,6,1,7,7,5,4,6,1,3,1,3,7,2,7,1,4,2,3,6,4,2,2,3,5,3,7,3,7,1,6,3,1,6,6,4,6,1,6,7,1,2,2,7,6,5,7,6,4,1,3,5,6,1,3,4,1,3,5,1,6,5,2,4,5,6,2,95,205,1763,1360,1764,300,300,385,1685,905,381,381,103,521,1104,1379,329,384,330,328,330,1765,1766,1767,1768,1769,1770,1771,1772,83,381,225,178,83,178,225,201,103,201,103,178,178,103,240,240,103,103,381,83,103,1747,1682,1273,1238,1203,1204,1273,1273,1238,1203,1204,1203,1273,1205,1683,1773,686,905,240,381,83,178,240,83,201,225,103,83,1774,216,991,1036,1775,1776,1777,1778,1779,1780,1781,1781,1781,1782,1783,1784,1785,341,341,74,1786,1787,1785,1788,1789,1790,1791,1792,341,254,17,340,74,341,311,74,340,340,342,342,311,341,74,311,311,340,341,341,341,341,254,340,254,17,342,74,340,341,74,340,17,254,311,342,254,74,17,340,340,74,254,311,1793,19,6,7,4,6,7,6,7,1,6,6,6,7,5,4,7,2,2,3,1,1,5,4,5,7,2,3,6,7,3,2,5,7,1,6,6,1,6,2,1,6,5,5,2,7,1,6,7,4,2,3,4,2,2,1,1,5,3,5,3,7,5,7,6,5,4,1,2,7,1,5,2,7,1,2,7,1,1,3,6,2,1,3,6,6,6,3,1,4,4,3,2,6,1,3,4,3,3,5,7,4,2,3,3,5,461,183,595,912,1794,658,329,685,817,201,225,83,178,924,1039,300,384,327,330,329,329,1739,1795,1796,1797,1798,1799,1800,1801,1159,1802,1802,178,240,178,201,178,103,225,381,225,83,178,83,83,178,381,225,240,381,1803,1804,1202,1203,1204,1273,1274,1274,1203,1203,1202,1203,1274,1205,1805,1773,768,225,201,240,178,201,201,225,240,201,240,1087,1180,985,769,235,145,145,235,920,440,541,443,435,436,541,574,441,1806,1807,463,431,1808,1809,1810,1811,1812,1813,1814,1815,279,1816,279,463,279,464,278,278,92,464,279,375,375,278,92,464,92,1816,375,464,464,374,371,373,374,1817,430,1817,1817,1817,374,373,430,91,372,1817,430,91,1817,1817,91,373,372,1818,1819,313,5,2,2,7,2,3,1,2,5,3,2,6,7,2,1,4,7,2,4,3,3,3,7,6,3,1,7,6,6,6,4,4,4,7,3,6,5,1,4,7,3,6,6,4,4,7,7,3,4,6,4,5,3,5,2,7,2,6,3,7,5,7,3,7,5,3,5,6,1,7,4,4,2,5,4,1,2,3,6,3,4,3,2,7,3,7,1,1,5,3,6,7,4,3,6,4,2,2,5,5,5,4,7,2,20,205,1820,1821,1822,1823,1824,1751,716,240,240,240,201,1825,1826,328,330,327,328,384,384,1827,1828,1829,1830,1831,1832,1833,1834,1835,1236,1836,1837,201,201,225,178,103,103,103,240,83,103,201,201,240,240,201,103,225,225,1363,1838,1590,1273,1202,1205,1202,1202,1273,1274,1238,1204,1203,1683,1839,1840,419,201,178,178,178,178,381,83,381,1841,1117,1121,1842,1007,188,171,187,171,145,243,188,243,189,243,187,243,243,1843,1844,1845,1846,1847,1848,1849,1850,1851,1852,1853,1854,1855,307,1856,307,307,888,306,888,307,888,1857,306,307,307,1858,1859,1859,735,307,306,1860,1861,1862,1863,400,1864,1865,1864,1866,1866,1865,1863,1865,1866,1863,400,404,1864,404,1865,1867,400,1865,1868,1869,910,338,7,12,5,4,1,1,3,5,6,7,5,2,4,1,7,3,4,6,1,6,4,2,3,2,1,4,2,7,7,6,5,5,5,6,3,1,6,4,3,1,2,6,2,7,6,7,1,2,6,4,7,6,3,1,5,1,5,6,2,1,1,4,2,6,6,4,2,3,6,1,5,7,3,1,7,6,4,7,7,3,5,7,1,1,2,2,1,3,2,4,5,7,6,2,3,6,3,2,3,3,5,2,6,59,911,206,1004,1870,817,1122,720,201,381,381,103,240,83,179,1871,328,300,330,417,327,1872,1873,1874,1875,1876,1877,1878,1879,1880,1203,1202,1639,1881,240,225,178,240,225,381,240,240,201,225,240,103,201,178,225,381,201,381,1882,1883,1838,1520,1307,1273,1204,1238,1202,1273,1238,1204,1884,1885,550,1040,418,1041,201,103,381,83,240,820,1886,1887,1049,796,235,187,189,189,188,235,145,235,171,188,145,189,171,235,243,1888,1889,1890,1891,1892,978,265,1893,1894,1895,1896,1897,1898,1899,1900,1901,1902,1903,1904,1903,1903,1905,1905,1903,1906,1907,1908,1909,1910,1911,1905,1912,1913,1914,1915,440,1916,1917,574,435,435,919,440,919,440,440,440,435,541,440,541,541,435,1918,1919,1920,44,45,13,740,460,2,5,4,6,3,3,5,4,2,3,4,4,6,1,7,2,6,2,7,4,7,6,3,7,1,2,2,3,3,7,7,5,3,3,1,3,3,2,4,7,5,7,6,3,6,7,1,1,1,6,1,2,2,5,7,6,3,3,3,5,3,4,2,4,4,7,3,3,3,3,7,6,4,7,6,5,1,4,1,4,7,6,6,4,6,3,6,4,3,2,7,1,2,1,1,2,4,1,4,2,738,1265,1921,1922,1923,768,225,201,381,178,103,178,178,103,454,1924,300,417,384,384,329,1925,1926,1927,1928,1929,1930,1931,1932,1233,1274,1203,1679,1933,178,240,201,83,103,201,178,201,225,381,381,103,225,240,83,83,103,83,240,225,1587,1934,1935,1364,1590,1204,1273,1204,1273,1238,1365,1936,384,328,450,1937,418,201,225,201,201,352,1938,1116,1939,1940,710,145,188,171,145,188,171,243,145,189,187,145,145,187,188,210,975,1148,1941,1461,988,951,1942,1943,666,1944,1945,1946,1947,1948,1949,1950,1308,1951,1952,328,330,328,328,384,1953,856,856,456,327,328,417,384,1954,1955,146,602,1956,1957,797,797,1958,1634,749,510,1959,798,1958,749,510,1958,1958,657,548,1960,1961,1962,1963,1964,1965,940,7,7,5,2,1,1,4,6,6,3,1,3,2,6,1,5,4,7,1,2,3,3,7,3,6,2,7,5,2,1,4,4,5,1,7,7,5,7,2,3,2,1,6,6,7,6,6,7,2,1,4,6,6,3,5,5,1,5,6,4,1,1,1,3,3,4,5,1,3,7,5,6,1,6,4,1,7,3,3,5,5,5,7,5,7,5,2,3,6,7,1,3,4,3,3,4,2,6,1,20,933,1226,1966,1967,1968,905,103,240,381,201,201,103,225,225,178,104,694,384,327,330,417,1969,1970,1971,1972,1973,1797,1974,1975,1204,1238,1205,1202,1976,1977,1978,1196,201,225,178,225,178,178,83,225,201,225,225,225,240,103,381,381,381,103,178,178,1641,1589,1364,1238,1205,1273,1274,1805,1885,417,330,328,417,1979,1324,125,1041,381,201,349,323,1980,1981,1982,1983,679,145,187,235,188,171,187,187,189,188,171,145,171,145,1842,1984,1985,1118,1986,1987,1988,1989,1990,1991,1992,1584,1993,1994,1995,1996,1997,1166,1998,1275,1136,300,330,329,330,330,330,327,329,328,1645,1394,1999,2000,2001,554,582,1172,1712,854,298,298,298,851,549,853,1712,854,549,852,1712,854,627,2002,2003,828,1298,2004,2005,968,5,3,2,4,2,2,2,7,5,5,3,3,7,1,4,3,5,5,6,7,6,5,5,6,1,1,2,2,4,4,3,2,7,4,2,5,5,5,7,4,6,4,5,2,6,4,2,4,4,1,1,4,5,1,2,6,3,7,7,6,3,7,7,6,6,2,7,5,2,7,3,5,4,7,5,2,1,6,3,4,2,4,6,6,4,3,7,4,3,5,6,7,1,5,5,2,7,6,4,182,2006,1763,2007,2008,817,240,225,381,225,178,225,381,83,225,178,201,226,699,300,329,328,2009,2010,2011,2012,1971,2013,2014,1272,1205,1274,1203,1274,1274,2015,1236,2016,2017,1802,83,178,201,225,83,103,225,225,381,201,225,240,83,225,225,381,83,83,83,178,2018,1338,1203,1238,1273,2019,2020,384,329,417,417,417,1953,856,1040,1013,83,951,216,1117,2021,2022,1176,1941,748,189,188,679,750,188,243,187,235,187,243,188,189,902,2023,2024,2025,292,1150,978,2026,2027,2028,2029,2030,2031,2032,2033,2034,2018,1748,1203,1206,2035,1393,1951,417,417,300,328,384,417,2036,2037,2038,2039,2040,2041,2042,174,2043,2044,1211,2045,327,330,300,328,328,384,417,329,330,417,329,330,2046,827,1297,616,1299,2047,529,7,6,5,7,2,4,4,5,7,7,6,3,4,2,1,5,4,3,5,2,4,3,3,3,4,7,3,6,2,5,6,4,5,1,3,4,6,7,6,5,2,1,4,6,7,5,6,2,2,2,4,5,6,3,4,5,1,2,6,4,6,1,5,3,3,4,2,6,4,6,5,4,4,6,3,1,7,1,7,5,6,3,5,2,1,5,1,2,4,6,3,4,4,3,3,7,5,2,1,46,30,2048,2049,2050,817,201,103,225,381,201,103,103,225,240,225,83,103,2051,2052,330,329,1925,2053,2012,2054,2055,1232,2056,1202,1203,1202,1238,1202,1202,1203,1238,1203,2057,2058,2059,103,178,178,240,381,201,201,225,83,240,201,201,381,381,103,178,201,381,178,178,1390,1391,1274,1205,1521,2060,300,328,327,330,328,330,330,300,1378,2061,2062,988,349,2063,2064,2065,2066,2067,187,294,1892,2064,947,235,188,188,235,189,189,145,235,1119,1053,1016,988,83,953,1774,2068,2069,2070,2071,2072,1746,103,83,178,1681,2073,1205,1203,1206,2074,1240,329,329,330,417,2075,2076,2077,2078,2079,2080,2081,2082,271,853,2083,1456,2043,2084,327,327,384,417,300,384,417,329,329,329,327,2002,2003,828,1263,492,2,1,2,3,7,1,3,3,2,7,6,2,3,4,7,7,4,2,5,7,6,7,1,5,5,4,2,1,1,2,7,4,3,2,7,3,5,2,2,5,7,3,5,4,5,2,6,1,1,7,5,3,1,3,3,2,7,4,5,2,4,2,5,4,6,7,7,7,3,1,5,4,7,1,3,2,6,3,4,7,2,6,3,7,5,7,1,2,3,3,3,3,6,6,2,6,6,7,6,7,461,2085,2086,2087,2088,2089,727,178,240,103,178,225,381,240,103,240,225,83,924,522,1402,384,384,2090,2091,1875,2092,2093,2094,2095,2096,1202,1202,1274,1204,1273,1203,1205,1204,1204,2097,2098,201,103,240,201,103,240,178,201,103,225,83,381,178,83,178,103,103,225,225,103,381,1390,2099,1204,2019,1749,329,327,330,327,327,327,327,384,384,861,2100,2101,225,103,240,1113,752,947,171,243,2102,2103,769,187,188,171,188,243,145,189,243,187,188,319,82,265,2104,1037,2105,2106,2107,2108,201,201,83,381,178,2109,1804,2110,1273,1273,1274,1392,1240,1137,328,1109,2037,2111,2112,2113,992,235,2114,2115,2116,300,330,626,851,625,300,384,329,384,328,327,329,300,300,384,329,613,2117,2118,1298,617,6,5,3,7,1,3,5,7,6,3,3,4,1,4,4,3,7,6,7,4,3,5,5,2,3,3,1,7,5,5,7,6,7,6,2,6,1,3,1,3,5,2,3,1,7,5,3,7,4,5,5,3,6,5,5,3,6,1,6,1,5,3,3,5,2,2,4,1,1,7,7,5,3,7,6,1,7,4,5,2,7,6,1,2,3,1,5,1,4,3,1,4,5,3,1,4,2,4,3,5,5,1576,2119,1413,2120,2121,1210,178,381,178,103,103,240,381,381,381,83,240,454,1435,417,417,2122,2123,2124,2125,2126,2127,2128,1829,2129,2130,1205,1238,1238,1238,1238,1274,1202,1238,1274,2131,1837,381,178,225,178,381,83,178,225,381,201,178,381,178,225,225,381,201,381,225,240,2132,2133,1205,1521,1885,417,384,417,330,384,329,384,417,300,327,356,302,381,103,178,103,216,382,235,902,412,261,242,188,235,187,171,680,243,243,145,796,171,2134,2135,1774,1045,2136,1295,352,1079,2137,83,178,83,103,201,83,2138,1589,1748,1590,1273,1203,2139,2140,1455,662,2141,2142,2143,189,189,187,797,146,585,384,328,300,327,417,328,327,329,330,417,329,330,384,384,327,300,2144,2145,2146,44,2147,7,6,9,2,2,6,3,3,2,6,4,7,4,1,5,4,3,4,1,5,2,6,5,6,1,1,2,5,7,7,4,7,2,2,4,6,4,1,3,1,6,3,5,6,5,5,4,2,3,4,6,7,1,2,5,5,4,7,1,7,5,6,3,3,3,3,4,4,7,5,3,7,7,5,3,7,5,7,7,7,1,5,4,5,7,1,6,1,4,4,3,2,1,1,4,4,1,3,7,7,4,59,2006,1763,2007,1822,1840,240,178,83,178,225,103,178,178,103,103,201,766,487,328,605,2148,2149,2150,2151,2152,2153,2154,1971,2155,2156,1274,1238,1204,1274,1274,1203,1273,1238,1238,1273,2157,2158,178,178,381,83,103,225,381,103,381,103,83,83,381,83,225,240,240,225,381,103,1747,1682,2159,2060,417,328,328,327,300,327,330,300,330,300,417,2160,151,240,381,83,414,217,235,259,2161,2162,992,187,145,235,210,1723,921,744,746,1723,1217,2163,2164,1985,1016,2165,2166,2105,1222,1254,758,83,448,178,83,381,201,381,2167,1337,1338,2168,1741,2169,2170,384,2171,2172,2081,2173,171,553,2174,2175,663,300,300,1283,582,329,327,329,327,327,328,330,384,417,329,417,330,658,2176,2177,1225,1358,460,76,2178,203,10,57,57,11,4,3,7,3,5,3,3,5,1,5,2,7,6,2,4,7,2,3,5,2,2,7,5,1,2,4,7,1,6,4,1,7,5,3,2,1,6,6,7,1,5,5,2,1,4,2,1,3,5,4,7,2,1,3,1,4,1,5,2,4,5,4,6,2,2,6,1,6,4,4,7,3,4,1,2,4,3,3,5,6,5,3,6,7,1,7,1,4,3,4,2,1,1,20,1385,2179,1387,2180,273,124,1041,381,240,83,178,381,225,225,381,225,486,2181,330,330,2182,1246,2183,2184,2185,2186,2187,2188,2014,2189,1203,1204,1205,1205,1202,1205,1202,1238,1203,1203,1744,1680,201,83,178,201,83,103,178,240,225,381,240,381,225,178,201,83,201,201,178,103,1803,2190,2191,2192,330,330,417,330,328,417,417,328,384,384,330,925,2193,103,83,178,352,769,187,324,928,747,748,145,235,188,259,1295,2194,1395,2195,323,1222,2196,2197,320,1046,2198,2199,895,293,1115,2200,1087,1987,1289,240,103,240,83,201,225,2201,2202,2203,2204,2205,328,329,2206,2040,2207,145,609,2208,2209,625,330,1954,2210,2211,2084,384,327,384,329,300,417,417,384,327,384,2212,2213,2214,614,1297,616,2215,2085,2216,253,342,341,17,673,108,7,4,5,3,1,6,1,2,3,6,5,2,7,5,2,6,6,3,1,6,2,3,3,5,2,6,7,3,2,3,1,2,4,6,4,5,2,4,4,6,4,1,2,7,6,6,4,3,5,5,3,7,3,3,2,3,2,6,6,6,2,6,4,2,6,7,6,2,2,6,5,1,4,1,7,4,1,5,5,3,4,7,3,2,6,5,6,6,4,7,1,5,5,2217,2218,1413,2219,2220,2221,2222,1210,240,240,178,201,225,225,103,454,1325,423,417,247,2223,2224,2225,2226,145,2227,2228,2093,2229,1202,1274,1204,1238,1204,1202,1203,1238,1274,1202,1203,1679,1680,201,381,83,381,381,83,201,240,225,178,381,83,240,240,178,83,103,225,83,83,103,2230,2231,330,327,330,327,417,329,329,384,417,330,417,327,384,2232,2233,240,103,1219,217,187,243,2234,2235,266,189,171,235,243,2236,2237,986,2238,988,1146,1051,791,2200,1150,2239,1459,82,225,2240,1081,1079,2241,2242,103,178,83,225,201,103,103,2243,2244,1971,2245,2246,1109,2247,2248,171,243,171,2249,2250,328,583,2251,2252,851,2253,417,330,417,384,327,300,417,300,327,1750,719,2254,1260,2255,1297,939,28,2256,2257,2258,463,2259,2260,2261,2262,460,4,7,3,5,3,3,4,4,3,4,4,2,2,6,1,2,5,3,6,3,6,7,7,7,1,7,3,1,4,4,3,5,5,7,1,5,1,7,2,1,6,6,6,3,7,3,5,6,3,5,4,1,3,1,3,4,5,2,5,1,3,5,7,7,5,3,1,6,3,6,7,5,7,3,2,4,6,4,5,1,1,4,4,5,6,7,7,2,1,4,4,3,204,2263,2264,1387,1388,356,2265,759,201,381,225,240,201,201,240,2266,326,417,605,2267,2268,2083,1362,171,235,2269,2270,1830,1768,1742,1238,2271,1204,1203,1204,1273,1203,1202,1204,1202,2272,2098,1196,1802,178,225,225,178,240,225,201,240,240,201,381,201,240,225,225,201,201,381,1718,2273,2274,328,329,327,329,417,384,328,300,417,328,417,300,949,1685,905,381,241,986,1121,189,324,922,2275,2276,243,243,235,927,260,1290,976,977,2277,2278,1017,793,923,83,225,846,978,2279,201,225,2280,2281,1054,1178,225,225,240,178,178,381,2282,2283,2012,2011,2284,2285,2286,188,188,235,189,609,449,2045,605,2287,2288,268,2289,2044,328,330,300,329,327,329,329,2212,1685,720,896,2290,2291,2292,2293,2294,60,2086,2295,2296,2297,2298,1447,2299,1003,12,57,5,4,1,5,2,1,6,5,3,6,2,7,2,2,4,3,3,5,7,2,2,5,3,7,2,6,1,2,1,6,4,3,4,6,2,1,1,3,7,5,2,1,5,4,7,2,6,7,2,3,7,7,4,5,7,6,6,7,6,7,2,5,4,6,7,3,7,3,5,6,5,2,7,5,2,6,2,1,6,7,7,4,5,1,4,1,6,3,6,2,2,2300,2301,2302,2303,2304,768,201,178,225,178,103,225,240,83,486,326,1283,582,2039,2305,1398,584,189,188,243,2306,2307,2308,2309,2310,2311,2096,1205,1202,1238,1205,1204,1203,1203,1273,2312,1236,2313,2314,1160,1196,225,381,381,240,225,103,201,178,178,103,201,381,83,240,225,454,2315,2316,384,417,417,300,300,327,327,330,329,384,300,328,685,2317,225,178,1010,2318,145,243,259,1295,103,2319,1049,235,745,210,980,352,2320,980,103,1113,978,381,381,178,83,83,2321,2322,2323,953,2324,2325,1049,2326,1147,240,225,381,381,420,2321,2327,2328,2012,1830,2329,2330,189,171,171,188,553,2331,2037,2044,297,853,2332,2333,2208,2045,1211,329,417,384,300,301,2334,2335,2336,2337,2338,2339,2340,2341,2342,2343,2344,2345,2346,2347,2348,2299,566,461,2349,2350,75,6,4,4,6,5,2,7,6,3,7,5,4,5,1,2,7,3,5,3,6,2,5,4,6,5,3,7,5,2,5,2,6,1,4,4,3,5,2,4,4,7,3,2,2,7,7,2,4,6,5,2,2,3,4,3,3,1,2,5,4,4,3,2,3,6,5,4,6,2,7,5,1,1,4,7,6,2,5,5,1,1,1,5,2,7,5,5,7,4,4,46,2351,2352,1705,2353,1145,83,178,178,804,419,125,804,896,1325,2354,2225,2355,2356,2248,2357,2358,243,235,189,145,2359,2360,2307,1798,2361,2362,2130,1273,1238,1238,1274,1238,1205,1202,1238,1238,1205,2363,2364,2058,2365,225,240,103,381,178,381,201,103,178,225,178,103,83,201,875,2181,417,327,328,328,384,328,328,300,417,327,327,658,2212,686,727,201,293,1079,2366,947,171,235,2367,2368,262,2369,791,1253,2370,1295,240,349,2371,953,201,201,83,225,240,225,2068,2372,2373,2374,2375,2022,985,2376,322,923,381,381,225,2377,2372,2378,2379,2380,2381,2382,2383,2384,171,145,145,171,243,2385,2386,2208,300,327,328,2387,2388,2389,2211,2250,330,328,328,330,2390,2391,2392,2393,2394,2395,2396,968,1670,1704,2397,2398,2399,1128,1129,676,57,5,835,2400,2401,654,4,1,7,3,4,2,5,1,5,2,1,3,7,4,1,2,3,1,7,2,7,3,1,6,2,3,6,4,6,4,6,4,3,4,4,7,3,5,4,2,6,7,1,3,1,1,5,5,7,7,7,2,4,5,5,5,6,7,1,1,7,2,6,1,1,2,6,6,2,7,7,2,2,5,3,6,1,6,7,4,1,5,6,6,4,5,2,5,461,96,2402,2403,2404,825,727,178,240,2405,455,2406,1323,856,1076,1402,583,2407,189,243,189,188,188,145,187,187,189,145,145,2227,2408,692,1305,2409,1520,1238,1205,1273,1238,1203,1274,1204,1205,1273,1205,1203,2410,2098,240,201,240,225,201,178,381,225,103,103,201,83,225,225,454,1435,330,384,328,330,328,300,328,300,669,661,718,686,904,905,178,178,178,946,2411,1776,188,187,745,2412,2413,2414,2024,978,2325,753,1009,352,1257,984,1289,240,178,381,381,381,2415,2416,2417,2418,2419,2420,2421,2422,323,103,103,1160,2423,2424,2425,1879,2426,2427,2428,2429,2430,1417,189,243,171,188,235,235,171,2431,2432,2433,300,327,2209,2434,298,625,417,417,300,2435,2436,1540,2437,2438,2346,2340,528,1003,1,4,4,2439,1130,836,7,76,2178,203,7,157,2440,617,5,4,6,3,5,6,7,5,3,6,4,1,1,2,4,4,1,7,4,4,5,4,6,2,7,7,3,2,2,2,5,3,6,3,5,6,7,6,7,6,4,5,4,4,2,4,3,7,5,5,5,6,1,7,1,6,2,5,3,4,3,3,3,4,3,1,3,2,7,2,5,7,3,6,6,5,3,3,7,1,4,3,2,3,5,3,4,4,59,1385,2264,2441,2442,2193,103,201,486,422,523,328,328,329,327,300,300,2443,2173,235,188,189,171,189,188,189,145,187,187,235,2444,2445,2324,1336,2446,2447,1520,1238,1238,1238,1273,1238,1203,1202,1202,1238,1273,2448,1881,381,103,178,240,240,103,381,225,225,178,381,103,381,875,2449,417,327,384,328,384,327,661,1750,1751,874,904,720,83,83,225,83,103,240,946,947,235,259,2450,2064,710,2451,2452,2105,381,1086,2453,990,747,2454,2200,201,201,225,103,240,2455,2456,2457,2011,2458,2459,1113,794,178,381,2460,2461,1237,2462,2463,1991,2464,2465,2328,2466,2467,2468,2469,187,235,235,243,187,188,235,2470,2471,607,330,628,2251,2472,417,384,328,2473,525,2474,1613,2475,2476,1665,2477,1299,6,1,2,2,4,6,1,46,47,2478,281,72,5,2439,566,3,5,3,5,4,5,2,4,1,4,4,3,7,4,2,3,2,3,3,5,7,2,5,6,2,5,5,3,6,7,4,2,5,6,6,4,5,1,2,4,6,3,2,5,5,5,6,4,4,7,5,2,3,6,6,3,5,2,5,6,3,5,1,2,4,5,5,6,1,6,2,5,1,1,3,4,5,1,3,7,5,6,6,4,1,6,5,3,5,2300,2119,2479,2480,2481,2482,2266,2483,456,300,329,417,300,329,330,1243,2484,2485,679,235,188,145,145,171,188,187,243,235,145,324,1116,2486,758,103,2487,1337,1748,1520,1307,1273,1204,1204,1204,1273,1204,1203,2031,1680,178,83,225,381,178,240,178,201,381,83,225,178,103,381,84,2488,329,327,327,417,718,2265,359,727,381,83,240,381,178,201,240,83,225,820,353,187,243,1050,264,846,848,847,794,225,201,2240,794,216,1939,348,225,381,178,178,103,1718,2489,2490,2491,2418,2492,178,178,240,2493,1198,2494,1204,1273,2495,2496,2203,2497,2465,2381,1797,2012,2498,2499,189,1417,189,189,189,243,189,190,2208,2045,1394,1348,554,384,417,2435,525,2500,2476,1668,1096,1099,1130,1698,37,1,6,6,1,2,3,95,2501,2086,2502,2503,910,460,3,4,7,7,6,7,5,4,6,2,4,6,6,5,6,5,5,3,2,7,1,3,5,1,4,1,3,4,2,3,1,2,1,3,1,7,2,1,6,1,6,1,7,3,6,7,3,6,2,2,2,1,4,4,5,2,2,1,5,1,7,4,5,3,2,6,3,6,7,1,2,3,3,4,6,4,1,5,4,3,6,6,6,5,7,3,5,7,4,3,4,20,230,2504,1821,2505,817,454,487,328,384,417,417,327,300,300,869,2506,2376,2507,1404,187,187,171,171,187,188,171,188,189,319,2508,1115,980,381,103,178,2138,2509,1589,1391,2110,1590,2510,2511,2512,2513,2514,2515,225,83,201,381,225,201,201,1196,103,225,103,201,83,178,103,104,1644,329,658,685,2265,727,381,178,240,381,381,225,240,83,103,381,178,293,195,189,324,977,923,225,240,225,225,178,201,178,178,381,1150,794,240,381,178,225,225,2516,2517,1203,2518,2519,2520,1195,2279,1159,2521,2522,1274,1274,1202,1274,2523,1992,1991,2524,2525,2054,2457,1830,2526,2527,2528,2469,750,188,188,744,679,2357,2529,2038,2182,2530,300,2531,2532,2533,2534,1128,1703,1130,836,5,7,5,3,7,7,7,1,4,6,2535,2536,2537,2538,2539,968,5,4,1,6,4,6,7,1,3,1,2,3,1,4,6,7,3,5,7,2,2,5,4,3,2,7,1,3,1,6,7,6,7,5,2,1,5,7,2,5,2,7,5,4,4,2,6,7,1,4,7,6,4,4,7,5,1,3,1,4,3,3,1,6,1,2,7,3,2,6,5,6,7,2,2,1,2,7,6,7,3,4,3,1,7,1,7,7,6,1,2,59,2540,2541,2441,2542,1244,2336,948,327,328,328,330,417,330,385,2265,819,2543,978,1460,2544,187,189,187,187,235,171,189,145,927,82,2240,323,381,83,103,201,240,381,1641,2033,2545,1934,1934,2072,2546,2547,103,240,381,225,103,240,201,2460,2548,2549,201,83,83,225,240,240,201,226,2550,2551,360,727,178,240,83,83,201,225,201,225,83,178,225,83,265,382,188,927,1014,225,178,225,201,240,240,225,201,103,178,103,83,83,178,381,381,83,1133,2522,1205,1204,2552,2189,2363,1237,1236,2364,2553,1273,1204,1203,1202,1203,2554,2555,2556,2557,1583,2558,2559,2011,1930,2187,2560,2561,921,791,2562,2563,1217,1892,2564,2565,2566,2567,562,2568,2569,1002,529,4,1,7,4,7,3,6,7,4,5,3,7,5,4,1576,2570,2399,36,836,2,1,3,1,6,5,2,1,1,4,3,5,4,5,1,5,2,4,5,4,5,4,3,6,4,5,7,7,7,1,5,2,2,3,6,3,5,6,1,2,4,4,3,2,2,4,5,2,2,4,5,7,2,3,1,3,3,5,7,2,4,4,4,7,4,6,6,5,6,2,2,5,5,1,4,7,6,1,2,5,1,6,7,3,2,7,6,5,6,3,6,4,1411,2571,2572,2573,2574,1076,1379,329,384,300,300,328,417,718,357,201,225,820,289,2575,189,189,243,171,145,145,188,171,380,1295,1047,178,178,83,225,178,201,103,225,103,201,225,225,83,201,240,240,83,201,381,178,381,2576,2577,2578,2579,1013,381,201,201,83,103,240,240,818,215,381,381,225,83,240,201,225,178,240,381,178,103,178,178,216,382,187,210,950,103,225,83,225,381,178,240,225,240,103,201,201,201,83,83,240,2109,2580,1164,1274,1202,1202,1203,1238,1205,1273,1204,1202,1203,1590,2512,2110,2110,2581,2582,2583,1305,2584,2585,2554,2586,2587,2588,2589,2590,2591,2592,2281,263,2593,1254,2235,1011,200,2594,67,129,54,115,156,2,1,6,3,5,2,5,3,2,4,5,4,1,2,6,2047,1130,1003,5,1,7,3,5,7,7,4,2,5,3,5,7,1,7,6,4,1,2,3,1,6,2,6,3,3,7,2,5,6,3,6,4,6,4,5,6,1,3,2,1,7,6,6,2,3,1,6,7,2,2,7,3,5,4,6,5,5,7,1,6,4,4,3,2,2,2,7,2,2,1,5,1,3,7,4,4,4,3,5,6,5,4,7,7,1,7,4,1,5,2,6,5,1,2217,2595,2596,2573,2597,330,417,328,384,327,330,2598,1751,215,381,225,216,1115,320,2599,171,187,145,189,796,744,746,1723,2411,2600,990,201,103,103,103,103,201,83,240,381,103,381,178,240,225,103,178,103,201,178,2132,2601,2602,2603,2316,1979,898,381,381,103,103,225,178,201,103,83,201,201,381,381,240,201,178,103,225,201,381,178,381,414,382,188,210,348,103,103,225,201,240,225,225,83,225,178,103,1159,2279,2279,1196,1161,2521,2604,1202,1238,1204,1205,1203,1202,1205,1204,1205,1202,1716,2605,1588,1934,2072,2545,2606,240,103,2487,2607,2608,2609,2610,2611,2612,1887,1256,758,2613,802,2614,1459,1014,1460,2615,1037,2616,1356,2177,2617,2618,460,2,5,1,4,5,1,4,6,6,3,3,2,3,7,7,4,3,5,7,1,6,7,4,5,6,7,6,1,1,5,5,6,2,7,5,7,5,3,5,4,3,2,7,4,4,6,7,1,6,6,6,3,3,6,5,4,6,7,1,4,3,1,1,3,2,1,2,7,2,5,3,5,2,4,4,2,3,7,1,7,1,4,4,6,5,1,5,2,7,7,5,5,5,2,2,6,3,7,6,4,1,1,4,2,2,7,6,7,7,1,3,4,2619,2620,2621,2622,2623,329,330,327,329,417,385,870,225,225,201,201,349,292,946,1049,145,243,324,2023,2624,2625,978,349,793,323,240,178,240,178,381,240,381,381,225,240,381,83,225,240,201,83,201,225,225,2493,2626,2627,2628,384,301,870,83,225,178,201,178,225,225,240,178,225,225,381,83,225,178,201,103,178,178,240,201,225,216,242,243,927,895,178,225,178,178,381,381,381,381,381,201,1162,1198,1237,1199,2364,1200,1236,2494,1274,1202,1205,1238,1273,1205,1274,1238,1274,1679,2629,2606,201,103,240,103,103,381,240,178,240,2167,2034,103,103,1113,978,1150,2630,2631,2632,2633,2634,1114,1424,1216,2635,2636,2637,2255,615,1298,492,3,3,1,3,3,4,5,7,2,1,6,6,6,6,6,4,3,4,1,7,5,6,6,4,5,1,3,4,4,4,6,7,1,6,6,3,3,5,1,2,6,5,5,3,4,7,5,3,4,2,7,1,2,1,2,5,3,7,3,5,1,7,1,2,4,3,6,7,7,4,1,1,5,2,2,3,2,7,7,4,7,3,1,3,4,7,4,5,5,5,7,6,6,6,3,4,3,5,2,3,4,6,2,6,5,6,2,3,4,2,5,2,1,2535,2638,2639,2640,2641,417,669,328,669,1750,2642,381,240,381,178,178,951,820,769,189,189,187,2412,2238,480,381,240,178,240,178,103,83,225,103,103,201,178,240,225,178,240,83,178,225,381,201,381,201,454,2643,2644,384,327,356,2193,103,201,381,381,381,103,83,201,103,381,201,103,103,381,381,225,225,83,381,201,225,83,820,217,235,324,950,83,83,240,381,225,240,83,240,83,2576,2461,2553,1204,1273,1274,1238,1203,1205,1203,1204,1273,1204,1274,1203,1273,1205,1202,2645,1772,225,103,83,225,225,201,83,83,381,103,178,225,240,83,381,381,486,2646,2647,1543,2648,2649,418,1048,2421,1017,2650,1260,2117,828,2651,1299,1,2,2,3,1,6,1,1,4,4,6,4,3,2,2,6,5,1,3,5,1,7,1,1,1,6,4,6,2,2,1,5,1,2,3,4,2,4,3,6,2,3,4,4,1,1,4,5,4,4,5,7,5,4,7,7,1,3,4,3,7,2,7,4,1,3,3,6,2,2,7,5,7,4,7,1,7,2,6,3,1,3,4,4,1,1,6,7,4,6,2,3,2,3,3,1,4,6,7,6,3,6,4,3,5,3,7,7,2,6,5,6,3,7,2652,2620,2572,2573,2653,2654,1824,697,687,716,178,240,381,201,241,2278,1425,382,243,188,294,2655,2656,753,1289,83,83,83,225,240,83,201,201,381,381,103,83,240,103,103,178,201,83,225,178,103,178,766,1039,329,328,330,417,1354,250,178,240,225,103,201,381,103,240,103,381,125,201,225,225,178,201,178,381,178,103,103,216,195,243,902,348,381,201,178,83,178,201,201,1161,1133,2580,2494,1204,1238,1238,1204,1204,1203,1238,1273,1274,1202,1203,1202,1204,1202,1203,1273,2581,2657,201,381,381,178,103,225,201,83,225,381,103,381,225,201,240,1103,2337,2658,2659,1615,2660,2661,2662,863,1113,351,979,2663,2664,490,491,2147,8,4,4,5,4,7,7,4,5,2,3,2,5,3,1,3,7,7,1,6,2,5,7,3,2,6,4,7,6,6,3,3,4,7,5,3,7,5,6,5,4,1,3,7,7,4,2,7,3,1,6,5,7,3,6,3,3,4,6,6,4,7,2,1,3,3,5,4,1,7,6,7,1,3,2,5,5,4,3,4,5,3,5,2,1,3,7,5,3,5,3,3,6,7,7,5,2,5,2,7,3,4,6,4,4,3,2,1,6,2,6,5,1,6,3,2535,2638,2572,2573,2665,2666,716,178,103,83,83,178,178,225,747,2667,1007,171,189,679,2668,2600,1080,323,201,240,240,178,201,103,201,201,103,240,178,83,83,240,240,103,83,240,381,103,381,201,875,487,329,384,329,329,417,559,124,804,240,103,83,103,201,83,125,896,2669,1324,381,225,240,225,201,83,103,381,381,241,217,235,324,950,83,83,83,240,225,178,1197,2580,1236,2670,1238,1205,1204,1273,1205,1238,1202,1205,1203,1205,1273,1274,1204,1203,1273,1205,1744,2514,2515,83,381,225,83,240,381,178,201,178,83,201,240,381,83,2460,2671,2672,2533,2673,1655,2674,2675,2622,2676,250,875,2677,2678,1184,2569,2679,2680,2681,2682,2,6,2,7,5,1,1,4,1,1,3,1,2,1,1,1,3,1,1,4,1,5,4,6,3,2,5,1,4,1,5,2,2,6,6,2,3,6,2,4,4,1,1,6,3,5,6,4,5,2,1,4,7,3,1,3,1,3,4,5,2,7,1,1,7,5,5,5,7,3,3,4,4,1,7,3,1,3,2,6,4,5,4,5,2,2,2,4,2,3,2,5,5,7,7,5,7,1,3,5,7,3,5,6,1,6,2,1,2,6,3,5,1,4,1411,2683,2684,2685,2686,2233,381,103,201,381,225,201,240,414,1051,188,188,259,2450,350,792,292,103,83,103,83,178,953,2324,201,240,178,201,381,83,178,201,83,240,201,83,225,178,225,240,875,1435,329,327,330,417,300,327,1953,2687,332,381,201,240,225,896,1325,858,423,1354,2233,225,381,201,240,381,178,201,83,293,266,243,210,1014,178,240,1161,1978,1159,2688,2689,2670,1204,1204,1238,1203,1238,1203,1204,1273,1204,1274,1273,1274,1238,1203,1202,1238,1203,1204,1679,2690,103,83,240,201,178,103,83,201,225,83,381,103,381,225,2460,2691,2692,2693,2694,1099,1704,2400,2638,2572,2573,2695,250,84,105,202,180,2696,2697,2698,37,8,5,7,2,6,4,3,3,3,1,5,5,1,7,7,7,1,4,2,4,3,3,1,5,1,5,6,1,5,2,6,1,1,3,2,3,1,7,3,1,2,5,7,4,3,7,3,2,4,6,3,1,5,2,7,1,7,1,6,7,7,4,6,7,7,2,4,3,1,6,2,5,5,7,1,6,4,1,3,5,6,5,2,4,7,6,5,3,6,4,6,4,4,2,5,1,3,3,7,7,5,6,1,2,1,2,6,5,1,3,6,4,2,7,95,1385,2264,2441,2699,302,240,201,240,178,240,240,201,103,2325,1983,187,145,2236,988,381,240,178,178,240,381,1087,2700,2452,1009,103,201,240,225,240,240,103,225,178,240,381,201,83,201,201,2266,2701,417,300,327,328,329,329,329,356,1436,83,240,381,2336,1104,1402,327,330,2598,1244,381,201,83,225,201,103,240,201,414,769,145,259,82,201,2460,1163,1200,2364,1199,2702,1202,1202,1238,1204,1273,1274,1274,1202,1205,1238,1202,1203,1204,1205,1273,1203,1238,1202,1273,2272,1680,240,240,178,225,225,83,103,225,83,201,201,381,83,1803,2703,2704,2705,2706,2707,529,7,1,2300,2708,2709,2120,2710,124,2711,2712,42,180,2713,886,157,2714,19,5,5,3,5,6,7,2,5,2,6,2,4,3,6,4,7,4,7,5,6,6,3,1,2,2,5,7,2,3,3,7,7,1,7,2,3,3,7,1,4,6,2,7,5,1,6,4,3,1,1,3,4,5,2,6,4,7,1,5,3,5,2,1,5,3,3,6,5,2,7,3,2,7,6,1,2,1,7,6,6,5,2,5,4,7,6,1,2,3,2,2,4,6,4,7,4,2,1,4,4,3,6,4,7,7,4,3,6,2,1,6,1,7,1411,2715,2572,2716,2662,1324,225,83,83,83,381,240,381,83,2280,2599,380,322,323,225,201,83,225,103,293,2717,2718,2719,1461,758,381,381,83,225,2720,240,225,103,381,103,240,201,83,225,225,179,2721,328,384,300,417,329,300,327,1378,250,178,766,2483,416,330,384,327,384,273,274,201,381,381,225,381,201,225,216,242,187,210,895,2516,1163,1201,1202,1203,1203,1203,1204,1274,1273,1202,1273,1273,1202,1273,1274,1274,1273,1205,1203,1202,1274,1205,1273,1204,1202,2410,1772,178,103,225,201,381,225,240,240,240,240,178,83,240,2493,2722,2723,2724,365,45,1,5,5,95,567,568,1821,2725,2221,1076,523,2726,2727,1225,2728,654,2729,1003,3,6,6,6,2,5,5,4,6,5,5,2,4,3,2,7,3,1,4,2,2,1,7,1,1,4,1,7,7,7,6,2,7,5,6,2,6,5,3,3,3,3,5,4,2,5,7,5,3,2,2,5,3,1,5,5,1,7,1,2,4,1,6,6,3,4,4,1,5,2,7,2,5,7,7,7,2,4,2,3,7,7,6,3,1,2,7,6,6,7,3,2,3,4,2,6,4,6,6,5,1,6,1,4,7,1,5,1,6,3,3,7,3,2,2652,2119,2730,2120,2731,898,201,240,381,178,201,225,178,83,1150,2063,945,103,83,83,240,240,178,225,1048,2421,2103,1459,2200,83,381,126,2732,2733,2734,240,240,178,381,381,225,381,201,240,454,2735,330,328,327,327,300,327,417,300,559,863,875,326,329,328,417,300,384,301,2642,225,225,240,381,225,381,201,820,2276,680,543,82,2521,2604,1203,1203,1274,1202,1238,1203,1238,1203,1204,1205,1274,1204,1205,1238,1203,1202,1238,1273,1273,1203,1202,1273,1274,1273,2645,2736,103,178,178,83,103,225,201,83,178,381,83,225,103,178,1390,2737,2738,309,155,203,1,7,204,205,568,1004,1794,328,384,417,561,2145,878,365,2739,1,2,7,5,1,1,4,4,1,1,2,1,2,1,5,3,3,3,7,1,1,1,7,6,5,2,5,2,7,5,5,2,3,4,2,4,5,5,7,7,6,6,2,1,6,5,4,4,5,6,6,4,3,7,5,4,3,5,4,2,3,4,1,7,5,5,2,2,3,2,3,7,6,1,6,2,6,3,6,3,4,4,2,5,5,6,3,6,2,2,2,7,3,7,4,7,7,5,2,5,6,6,5,3,7,1,2,7,5,7,3,2,5,4,4,7,20,2740,2541,2741,2542,1244,178,83,240,381,178,419,1041,419,103,225,201,381,381,178,103,83,83,83,225,349,1981,2543,292,381,560,1325,2742,2743,2744,2745,201,381,240,240,178,103,178,83,83,2746,694,669,384,300,329,300,330,384,300,1378,2747,355,417,384,328,329,330,925,2317,178,381,201,381,103,103,240,103,2194,848,792,2748,2461,1164,1273,1273,1204,1204,1273,1273,1273,1204,1238,1274,1205,1203,1204,1274,1203,1202,1274,1274,1202,1238,1204,1203,1238,1203,1744,2749,225,83,240,381,225,201,83,240,83,225,103,381,83,225,201,1681,2750,2751,180,87,56,8,738,2263,2541,2752,2753,300,327,1471,1470,2754,458,2755,281,75,6,1,7,7,4,5,5,3,7,1,2,1,7,7,6,2,5,3,3,7,3,1,6,7,7,4,6,5,3,4,7,1,2,4,2,4,5,1,2,3,7,4,4,3,7,3,1,3,7,2,2,2,1,1,2,5,3,3,6,3,4,3,6,2,5,1,1,6,6,4,1,7,3,7,7,1,4,5,5,3,5,1,2,5,4,3,3,7,4,3,3,2,1,1,1,1,3,6,2,5,5,6,5,5,3,6,3,2,4,6,7,4,5,7,1,5,2300,2683,1413,2303,2731,2233,381,178,103,875,1012,857,2687,124,201,381,201,83,83,240,225,178,178,240,820,2278,988,178,2266,2756,1379,328,2757,2758,2759,1108,178,103,225,225,83,240,201,178,225,2760,2761,2762,328,417,330,329,300,384,327,2763,1402,329,327,417,330,327,2598,870,381,103,201,178,240,225,178,225,240,240,103,2688,2764,1202,1205,1204,1274,1273,1204,1238,1273,1204,1273,1204,1238,1205,1205,1203,1203,1238,1204,1202,1273,1204,1204,1204,1273,1203,2765,2766,83,201,103,225,225,201,178,225,201,225,225,240,225,83,225,178,2767,2768,202,309,310,17,71,2769,2257,2770,2771,2220,2435,2772,1544,1544,2773,2774,1962,2728,834,7,4,3,6,6,5,5,4,5,6,3,6,5,1,6,1,6,7,5,7,3,7,3,5,1,1,6,1,2,4,6,6,4,3,7,3,4,5,6,4,2,7,1,2,1,7,4,4,2,7,4,5,7,6,2,1,5,6,5,4,7,7,1,4,1,4,6,2,3,2,1,4,1,5,1,2,6,3,1,7,7,6,4,5,5,5,3,3,6,5,1,6,7,4,3,6,3,7,6,4,5,6,4,6,3,5,7,3,5,5,7,3,1,7,4,204,2540,2179,1387,2775,1436,201,103,103,521,487,384,328,273,1210,240,240,201,240,83,201,201,83,83,225,2194,794,178,225,66,1644,695,660,2776,2777,2778,103,178,201,201,381,103,178,225,560,2483,1323,1402,330,329,328,330,329,384,330,417,329,330,384,328,300,328,682,1145,103,381,83,225,240,201,201,178,103,83,2493,2577,2702,1274,1202,1205,1205,1274,1238,1203,1203,1203,1202,1238,1274,1203,1274,1238,1205,1204,1205,1203,1202,1238,2779,2779,2780,2781,2603,2782,1210,178,381,103,381,103,201,103,225,178,201,178,178,225,178,178,201,179,277,390,2783,92,86,2784,2785,2786,1334,2787,2532,2438,1618,1618,2788,2789,2724,44,45,5,2,5,3,1,6,3,3,6,3,7,7,2,1,7,5,5,6,1,6,6,6,5,4,4,4,3,7,1,5,6,3,4,5,3,1,5,3,7,2,1,3,4,4,7,5,2,3,3,1,7,4,5,1,5,5,7,1,2,2,2,7,3,2,2,2,1,1,1,5,6,2,6,6,6,7,5,2,5,2,5,2,6,3,7,7,6,1,4,3,3,2,3,2,2,2,1,7,2,2,4,1,2,3,4,4,7,1,7,7,3,6,4,4,6,1,2300,2790,2791,2622,2649,250,381,126,421,2792,2793,2793,2794,2795,178,381,103,103,240,240,240,240,225,240,103,178,381,381,201,2796,904,698,276,2797,863,201,381,240,103,201,178,103,1825,455,1402,417,328,327,300,695,328,417,328,327,327,327,328,417,417,329,696,2265,716,381,225,381,381,178,178,201,225,103,381,2798,2799,1204,1203,1205,1274,1273,1205,1273,1202,1273,1205,1204,1204,1205,1238,1205,1203,1274,1238,2800,2801,2780,2802,2603,2803,2804,2804,2805,719,716,201,201,240,83,178,240,201,83,83,83,83,240,240,83,381,381,381,303,105,362,2806,2807,2808,2809,2810,2811,2812,2813,2814,1666,1666,2815,2639,2816,593,2728,338,3,4,5,1,5,6,3,1,2,4,6,1,5,4,3,6,2,6,2,7,4,2,1,6,5,6,5,7,1,5,1,6,7,6,7,1,6,1,6,2,6,1,7,4,4,6,6,1,3,3,5,6,6,7,4,3,7,6,7,7,2,7,1,6,1,4,3,2,7,6,7,4,2,2,7,1,4,6,1,4,5,2,1,6,6,3,2,1,5,3,7,2,6,4,6,2,6,7,1,3,4,1,1,4,1,4,5,1,1,3,4,5,4,7,4,5,2535,2715,2621,2622,2695,2817,2818,2819,2820,1540,2821,2822,2823,2824,178,381,225,225,83,83,103,201,225,225,201,225,225,225,225,240,83,924,1435,1979,1324,178,83,178,225,83,201,924,1039,327,328,417,669,682,2825,1644,330,330,330,328,384,384,329,659,1750,719,720,103,83,240,103,103,83,103,83,240,225,225,2132,2764,1203,1273,1274,1273,2510,1520,1273,1274,1202,1274,1205,1202,1204,1238,1204,1238,2826,2827,2828,2829,2830,2831,2192,417,300,385,719,727,381,240,240,83,201,225,381,225,225,201,381,178,201,201,381,240,83,225,178,84,2832,2833,2834,2835,2836,2837,2838,2839,2840,2299,1130,1704,2841,2620,2537,2842,2843,2739,58,2,7,2,4,5,5,7,5,2,4,2,7,2,5,2,3,6,7,5,1,6,1,3,7,5,3,1,3,4,4,2,2,4,5,3,4,4,3,1,3,3,6,2,5,3,4,3,4,2,6,6,5,5,7,4,1,3,1,2,6,3,1,5,2,1,4,1,1,4,2,4,3,1,6,3,2,3,1,5,7,7,7,4,7,6,4,4,7,6,5,2,5,2,2,6,5,1,2,1,5,2,4,4,7,5,6,1,7,4,2,6,6,5,5,4,3,2217,2620,2572,2640,2844,2820,2845,2438,1616,2788,2846,2847,2848,804,225,381,225,240,225,381,178,240,178,225,201,381,178,201,201,201,1825,326,384,1979,898,240,240,178,201,83,1825,1435,330,327,1243,1751,698,727,2746,1644,328,328,384,328,384,1243,1685,904,716,381,225,201,103,381,381,381,381,381,103,83,240,2109,2849,2110,1590,1307,2850,2514,2607,2447,1202,1274,1202,1204,1204,1203,1273,1238,2159,2627,2829,2851,327,384,327,328,329,328,1750,768,83,225,83,381,178,240,240,240,83,240,83,103,225,225,240,103,2279,381,381,103,979,2852,2853,2854,2855,2856,1613,1613,2857,1154,1299,3,1,1,2619,2119,2858,2859,707,931,19,4,6,1,1,3,3,2,4,5,1,6,6,2,1,3,5,2,2,1,3,4,4,7,4,3,6,2,5,6,5,7,5,7,1,2,4,1,1,6,6,7,5,1,7,7,3,7,6,5,7,4,7,1,1,7,2,2,7,4,6,7,7,7,7,5,3,7,5,7,5,1,2,3,4,7,4,1,4,3,1,1,1,2,3,7,1,5,7,7,4,4,7,4,4,1,4,6,2,4,6,4,2,2,3,7,5,1,3,3,6,3,6,4,5,3,2,2217,2595,2621,2860,2659,2861,2673,1668,2862,2863,2864,2865,2866,2867,225,103,103,201,225,201,1044,1041,83,240,240,381,225,240,240,766,355,300,925,768,83,201,178,240,240,924,326,329,329,718,870,201,201,240,303,2868,300,327,330,330,696,1145,240,83,178,103,225,201,103,240,225,178,103,240,225,225,381,1587,2072,2509,1588,2509,2515,240,2018,1364,1205,1274,1203,1203,1274,1202,1884,2191,2316,327,330,330,417,330,417,1593,2212,697,215,240,381,201,381,201,201,225,201,240,178,201,201,178,381,103,2460,2869,2870,1041,560,2871,2872,2873,2874,2875,2876,1655,1666,2877,2299,566,6,4,1,88,2878,1921,2879,69,2880,886,11,9,11,2,5,6,7,2,2,2,4,2,6,1,4,6,6,4,2,6,2,6,2,1,3,7,7,6,4,3,2,4,5,1,3,3,7,6,3,3,6,7,1,5,2,4,5,2,7,6,2,1,2,7,5,3,6,5,6,4,1,3,5,5,1,6,2,7,7,3,7,4,4,5,5,2,5,6,1,3,6,4,2,7,4,6,4,1,3,5,1,2,7,4,3,2,3,6,6,7,3,1,3,2,7,4,6,1,1,7,6,1,6,6,3,5,7,2535,2638,2881,2814,2882,1099,1129,2883,2790,2863,2884,2648,2695,124,240,225,225,178,979,422,1111,418,804,419,240,83,178,225,2885,487,328,1750,2642,103,83,240,103,103,454,2886,300,718,2265,727,240,240,178,225,303,1644,659,300,356,2551,215,201,381,83,83,178,103,178,225,240,240,178,225,240,201,103,381,178,225,103,240,225,201,240,1363,1364,1205,1273,1274,1238,1273,1365,2887,2888,330,327,417,330,695,1750,1751,715,727,225,201,240,201,103,225,225,381,225,83,381,103,225,103,178,2576,2889,2890,2891,2892,2893,2894,2255,2895,939,1264,2439,1130,2397,2896,1264,2,4,5,182,2897,2898,2899,2900,2901,2503,2696,311,2902,2903,460,7,5,5,6,6,4,2,6,1,7,5,3,3,7,3,3,2,1,4,1,5,5,2,1,5,2,6,6,4,6,5,6,4,3,7,1,4,6,6,4,6,5,7,7,2,7,6,2,1,5,7,5,5,6,3,1,4,1,6,4,2,5,2,1,6,6,2,5,2,6,4,1,6,6,4,1,2,1,1,2,3,1,3,4,7,7,1,3,6,3,4,6,1,5,7,1,6,7,5,4,2,5,6,4,3,1,3,4,7,1,1,5,7,6,2535,2904,528,1704,37,1,1,2652,2638,2345,2905,2622,2662,863,83,381,2336,455,416,330,861,1323,2687,1324,125,125,481,2906,2907,869,2265,720,201,201,381,240,178,103,2746,2908,686,819,103,381,103,225,103,225,903,2909,699,682,817,103,381,103,225,103,103,381,201,83,103,201,381,381,201,103,225,225,225,240,240,381,103,83,103,201,2910,1364,1205,1238,1203,1202,1205,2911,1167,1208,660,661,685,1685,360,720,83,83,103,381,201,178,178,1978,1196,240,178,381,103,381,201,201,1197,2912,2913,2914,2915,2916,1542,1542,2917,2292,2396,940,7,5,6,2047,836,6,2,7,6,2300,2715,2639,2918,2474,2919,2920,26,2921,2922,566,2,4,3,2,7,5,1,3,7,5,6,1,6,6,2,5,6,3,3,2,7,4,6,7,3,7,3,7,2,2,3,3,4,4,2,4,6,7,5,5,3,3,6,2,1,6,4,2,5,4,1,7,1,2,1,3,2,7,5,1,5,4,5,6,2,2,3,4,5,3,4,5,2,3,5,5,2,1,7,3,2,1,7,6,2,5,2,2,1,1,6,3,2,4,6,4,4,3,4,5,2,7,3,1,2,4,3,7,1,6,7,6,1,3,3,1670,676,6,6,5,3,7,2217,1098,2674,2863,2923,2676,124,766,1325,416,330,327,329,384,328,550,858,1076,2924,2925,2926,719,905,381,240,448,381,178,83,178,381,358,720,240,240,83,178,201,83,201,225,178,2796,687,759,83,126,201,201,381,201,83,103,103,178,178,201,240,225,381,381,225,381,83,83,225,103,103,381,225,381,1681,1748,2510,1520,2110,1307,1590,2110,2927,2928,904,359,716,201,83,201,178,225,83,240,178,2929,2930,2931,1977,240,83,201,225,1161,2521,2932,2933,2934,2935,2936,1612,1616,1615,1065,2706,2299,1003,4,3,3,5,4,2,6,5,4,4,2217,2708,2881,2937,1667,1654,1666,1669,1264,6,7,2,3,4,2,6,7,3,3,7,2,4,2,4,2,5,5,5,1,6,6,6,2,5,2,5,4,1,2,7,7,4,1,7,4,5,7,4,7,6,1,1,4,5,7,7,3,4,5,3,7,6,5,3,2,4,7,5,1,4,3,6,7,6,7,4,3,2,6,1,3,6,6,6,6,5,6,2,6,1,1,2,6,7,7,4,6,4,2,7,1,7,1,5,4,2,1,6,1,6,5,3,1,3,4,5,1,7,7,6,5,2,3,5,5,5,5,3,7,4,3,6,4,835,2938,2620,2572,2622,2939,2940,487,384,330,329,330,327,384,329,417,327,329,508,2941,2942,240,953,216,2486,1289,1774,1047,381,240,201,1047,83,103,201,225,381,381,83,103,381,225,381,178,1825,2943,2482,178,103,225,201,83,381,83,103,83,240,201,225,225,201,240,201,178,240,240,225,83,178,83,201,1641,2509,1934,1588,2509,1934,1588,2545,2515,240,178,103,178,381,178,103,83,1196,381,896,2944,2945,2946,2947,2017,1159,1802,2521,2948,2949,2692,2950,527,2951,2398,1668,1667,1665,1668,2952,617,4,7,1,6,1,1,4,3,5,2,4,182,2953,2954,1128,1130,1129,1704,1130,37,2,5,6,6,2,1,5,2,1,6,1,4,3,7,4,1,6,7,4,2,5,3,6,4,7,1,7,2,4,1,5,6,3,7,2,2,3,6,2,1,3,4,5,1,3,1,1,5,6,2,4,1,4,2,7,5,5,2,7,1,4,5,7,7,3,5,3,5,5,7,2,3,3,6,3,3,3,1,2,4,4,5,3,1,2,4,7,6,5,2,3,2,7,6,7,6,6,6,3,4,6,1,4,3,5,7,5,3,5,5,7,2,6,5,3,1,3,5,5,6,4,6,3,5,5,1,1576,1412,2730,2480,2955,416,328,329,330,328,330,327,330,329,300,328,605,2956,2957,2958,2959,2958,2960,2961,1015,2022,1147,381,241,1424,990,240,381,178,201,240,201,225,201,83,381,201,454,2962,1145,381,103,225,201,103,381,83,201,178,240,178,381,83,240,201,225,381,103,225,240,103,201,201,381,83,83,103,201,103,201,225,240,103,103,103,201,178,381,225,103,2576,2869,2963,2944,2964,2965,2966,2967,2968,2969,2970,2971,2972,2973,2974,2534,1099,1003,2047,1697,1697,1130,1697,1698,529,3,7,6,3,2,3,3,7,2,6,5,157,1630,2922,37,7,4,5,4,3,6,5,1,7,1,7,1,1,4,5,2,6,5,2,1,7,4,7,4,1,4,2,2,6,5,6,4,6,3,1,5,3,7,2,4,3,5,7,5,4,2,1,1,4,4,3,7,6,5,6,2,4,6,2,1,4,1,1,2,1,7,3,6,6,6,7,4,3,3,2,5,1,1,7,2,7,5,3,7,2,1,4,6,3,4,2,6,7,7,4,1,7,5,4,1,3,4,3,5,3,2,7,5,6,6,1,2,5,4,6,6,1,5,7,5,7,5,3,6,3,2,5,6,4,4,2,95,2975,2541,2752,2976,384,300,327,327,300,328,330,327,300,330,327,682,2977,848,2277,1083,2978,1938,895,349,848,323,225,1047,1980,923,83,83,240,103,83,83,178,240,240,83,83,521,2979,357,225,201,240,178,240,225,201,83,103,381,240,381,178,381,201,201,103,240,381,201,225,83,83,201,178,381,225,83,381,240,178,201,1159,2279,1160,178,178,240,83,1162,2889,2980,2981,2672,2982,1095,2983,2675,2984,2985,2986,2987,2988,1065,527,2707,836,1,3,5,2,7,5,6,7,4,2,3,1,6,6,6,2,6,7,3,6,2047,1003,5,2,2,6,1,3,6,4,7,6,2,1,3,7,2,6,7,2,4,5,2,1,3,2,5,3,5,1,7,4,4,3,2,3,6,6,7,6,5,6,4,1,7,1,4,3,1,7,1,1,7,2,5,1,4,1,4,7,1,1,1,3,6,7,4,5,5,3,7,4,4,2,2,6,6,6,3,3,5,6,3,6,7,2,3,3,3,2,4,4,5,5,4,5,4,2,7,2,3,2,6,7,2,1,7,1,7,6,3,4,3,4,3,2,2,5,3,7,1,3,4,4,3,6,1,4,6,5,2,2,1,4,4,2989,2990,2770,2991,2220,327,328,300,329,300,300,300,330,669,682,1685,215,83,414,1051,2102,2718,2992,103,381,103,293,2700,1215,2105,201,381,201,83,178,381,83,201,103,240,225,240,2993,759,178,103,83,240,381,240,240,103,201,225,178,201,83,225,103,225,103,381,240,381,381,103,381,240,103,1802,1802,381,201,225,225,2521,2994,2995,2996,1837,2279,1159,1197,2889,2997,2998,2999,3000,3001,1574,3002,2790,3003,1615,1618,2346,2476,2348,1128,566,4,3,6,2,4,2,2,2,4,2,4,4,3,2,5,2,3,5,3,2,3,3,3,1,4,1,6,4,7,4,1,4,4,6,4,3,4,5,5,1,5,3,1,6,3,1,4,4,2,1,3,5,5,5,1,5,6,5,2,3,7,2,4,6,3,6,5,6,1,7,6,7,6,6,6,4,4,1,4,2,2,3,7,3,6,2,5,3,4,4,4,5,6,6,2,1,7,5,1,5,4,5,4,1,3,1,7,6,5,5,6,5,7,4,7,5,6,1,7,1,6,3,3,4,7,3,3,6,3,1,6,6,1,1,5,4,1,6,1,5,6,2,4,1,2,2,5,4,2,7,3,7,1,7,3,29,38,2785,167,1731,3004,330,417,659,1593,658,661,695,2212,2265,715,759,225,381,381,846,2064,3005,2452,988,225,178,83,1113,792,978,3006,420,178,381,225,103,201,83,225,201,225,421,3007,250,103,381,240,201,225,178,103,225,83,103,225,240,225,201,178,381,225,225,178,103,178,240,240,201,1162,2994,3008,1837,178,381,1133,3009,3010,3011,3012,2968,3013,3013,3014,2997,2974,3015,2675,3016,229,253,1793,3017,3018,1668,1667,1096,2299,1129,1003,2,2,5,5,1,2,4,5,7,3,3,1,2,4,6,7,7,1,3,3,7,1,1,5,2,3,7,7,2,4,5,7,3,5,7,3,6,2,3,1,2,7,1,3,7,6,3,7,3,6,3,6,4,3,1,3,3,3,4,1,4,1,3,3,3,5,1,7,7,2,6,6,5,5,2,7,5,2,7,3,7,2,1,5,5,1,4,7,4,5,5,4,4,2,2,1,7,4,6,1,7,3,2,4,3,7,7,2,2,6,7,1,4,6,5,5,3,5,7,1,5,1,4,6,4,1,6,5,2,7,6,5,2,7,2,1,1,4,1,3,4,3,1,7,7,4,2,1,1,4,6,2,1,2,2,13,428,3019,2087,3020,3021,1471,417,385,3022,3023,359,874,360,359,727,201,381,201,240,201,240,83,1113,792,323,178,83,103,240,103,2377,3024,3025,3026,3027,178,178,201,201,381,201,486,422,897,2160,1013,103,83,240,201,201,83,103,381,178,178,103,103,83,103,225,225,201,240,240,83,103,225,1197,2912,3028,3029,2947,2314,1162,2671,3030,3031,1613,3032,3033,2985,3034,3035,2705,3036,1097,1412,2684,3037,1962,3038,968,2439,1703,1129,1129,37,1,5,3,7,3,4,3,4,3,2,2,1,2,3,5,3,1,7,6,2,4,2,1,4,2,7,6,4,6,5,7,4,3,6,5,2,6,6,7,6,2,3,2,1,2,1,5,5,7,3,4,6,1,3,6,1,2,7,5,4,5,3,3,7,4,7,1,7,1,6,2,6,3,7,6,6,1,6,7,7,3,4,7,7,4,7,7,1,2,1,3,4,3,4,4,5,1,3,6,7,7,4,5,6,6,3,1,2,2,7,4,2,2,1,3,3,4,5,4,4,6,7,6,3,2,7,5,7,7,3,1,7,1,4,6,1,1,3,4,2,1,5,1,5,2,1,2,7,6,2,4,2,7,4,7,4,461,1332,3039,3040,3041,3042,3043,3044,2597,1476,3045,3046,124,3027,381,240,201,225,103,240,381,201,201,178,240,103,103,225,178,240,126,3047,3048,3049,3050,3051,1111,418,3027,381,225,1044,421,1325,416,384,330,273,332,240,83,225,225,103,225,83,103,225,178,225,201,178,381,240,225,201,103,225,240,2460,3009,2933,3052,3032,2967,3053,3054,3055,2974,2347,1666,2674,2537,1613,1615,1616,3056,491,3057,911,1820,3058,828,616,28,3,5,6,2,3,3,3,5,5,5,5,1,2,6,6,3,3,7,5,4,6,1,7,5,5,2,1,4,5,1,5,2,3,3,1,6,1,1,4,2,7,7,3,1,3,6,2,3,3,1,3,3,7,4,5,3,6,2,4,4,2,7,4,6,4,6,7,4,1,5,2,7,2,7,6,7,2,5,5,5,5,3,4,6,5,6,1,6,5,6,1,2,5,2,2,6,2,6,2,7,7,7,2,3,5,1,3,2,4,3,6,7,3,4,1,5,4,7,5,7,1,3,1,7,5,3,3,3,2,4,1,3,4,5,6,7,6,6,1,3,3,7,2,5,3,5,5,7,2,4,4,3,6,3,3,6,7,6,6,4,1,95,3059,3060,1665,2815,2537,1613,2660,3061,1544,1542,3044,3062,3046,2867,126,419,381,201,103,178,103,381,201,381,201,201,178,1044,421,1325,1323,3063,3064,3065,3066,3067,450,1937,418,2405,522,2406,523,327,300,329,949,357,103,225,83,178,178,83,201,178,240,381,83,225,83,83,201,83,225,83,201,2688,3009,3068,2934,3069,2674,2791,2915,3070,3071,3001,1186,1704,2938,2570,1668,1667,1664,1096,2707,3072,911,568,3073,2895,885,652,2,4,2,3,6,5,6,4,6,3,1,7,3,2,7,3,6,1,7,1,5,5,2,4,2,7,5,5,3,5,2,5,2,4,5,4,3,6,5,4,7,4,7,4,7,3,6,1,2,7,1,5,4,6,4,7,5,1,7,1,7,5,6,6,1,1,5,7,4,7,6,4,2,5,4,6,5,3,5,6,1,4,4,1,6,1,6,3,6,3,2,2,6,1,6,7,4,7,7,1,6,6,7,4,4,2,5,1,7,1,7,2,1,1,7,7,2,2,6,1,7,1,3,6,7,5,3,1,4,2,4,6,2,4,2,5,3,5,7,1,1,1,6,7,5,4,6,6,1,3,3,5,7,5,3,7,7,4,4,1,5,4,2047,1703,1129,2400,1098,1655,3074,2345,1618,1617,3032,3061,3075,3076,3077,3078,2867,126,178,225,225,240,178,178,103,178,2336,1325,1076,1402,328,327,417,3079,3080,3081,417,330,861,857,1402,384,329,384,329,300,1243,2317,225,225,103,225,381,240,240,201,103,225,178,83,381,240,83,103,103,381,2576,2889,2913,3082,527,36,2938,2119,2709,3083,3084,1357,737,338,1,835,1703,1703,1698,1704,676,157,3085,1820,3086,3087,3088,910,392,1,4,6,7,5,5,1,3,2,5,6,5,7,5,4,7,6,2,7,7,7,4,1,1,5,6,3,6,6,1,2,5,4,4,5,4,2,4,7,4,3,5,4,4,1,7,3,2,1,7,3,3,3,2,2,4,7,6,4,6,6,3,2,7,7,6,4,4,5,5,3,1,4,5,4,2,5,4,2,2,6,4,5,1,4,1,1,5,1,5,5,3,6,7,6,6,6,3,3,1,4,1,5,6,6,5,3,1,2,5,4,7,7,2,3,3,3,5,7,6,5,1,3,5,4,5,2,4,6,1,6,7,5,1,1,1,7,5,3,2,3,4,2,5,3,3,4,7,1,4,1,4,7,6,7,1,5,3,2,1,6,1,4,6,7,1670,1130,2883,2570,1655,1664,2983,2345,3089,3090,1539,3091,3092,3046,1324,1041,240,178,83,381,103,2405,1012,897,384,417,330,329,330,3093,3094,3095,327,328,417,327,384,329,300,417,330,330,301,1145,83,240,201,83,240,225,201,381,240,201,201,103,381,83,103,201,240,2798,3096,3097,3098,2706,3099,1003,59,567,1820,3100,3101,1262,1263,492,2,4,6,5,3,5,7,182,1385,3102,3103,2937,1667,3104,492,7,1,7,7,1,5,2,3,3,6,6,7,4,2,2,4,2,3,4,5,2,1,7,3,5,5,3,4,2,7,1,4,6,2,6,7,1,1,1,6,4,1,4,2,3,2,6,5,4,1,5,1,1,6,7,2,1,5,4,3,7,4,6,6,5,2,3,7,4,4,7,5,1,1,6,4,4,1,4,6,5,5,4,7,1,4,3,1,7,7,7,1,2,5,3,3,4,7,6,2,1,2,1,7,5,2,1,3,6,2,1,5,6,7,6,1,5,6,5,2,1,7,6,6,1,7,6,5,2,6,4,7,4,2,5,7,1,6,6,1,1,4,7,1,1,1,3,6,2,1,7,2,2,5,3,3,6,4,7,4,1,4,2,5,5,3,5,1,2729,1704,1704,2938,3105,3106,2345,1613,2788,3107,3108,3092,3109,1324,3027,381,419,979,2483,456,327,300,384,327,327,329,3110,3111,3081,300,384,330,330,330,330,327,329,328,330,925,3112,1041,1044,225,225,103,381,225,201,83,240,1041,2279,1196,178,83,225,381,2688,3113,3114,3115,491,940,6,157,2263,3116,3117,1617,3118,1154,2739,58,2,9,58,1,7,6,4,1411,1098,1096,528,1697,1697,37,6,3,5,5,2,3,1,1,5,5,2,5,1,2,7,3,7,5,5,4,6,2,2,4,5,3,4,1,6,3,2,1,7,7,5,1,3,7,4,5,7,3,5,1,3,1,7,3,2,3,4,7,7,7,3,4,3,7,3,4,2,2,3,2,4,1,4,1,2,3,2,6,3,7,7,1,5,3,5,5,2,7,6,2,5,4,3,1,1,1,3,4,2,5,2,5,6,6,6,7,4,2,7,6,3,7,6,1,2,7,4,2,7,7,5,2,5,3,4,3,3,6,6,2,5,3,6,1,5,7,5,2,5,3,7,5,2,2,4,3,3,7,3,6,1,2,5,4,1,2,7,1,4,3,4,4,4,7,6,2,2,2,2,7,3,4,7,5,4,2,3,3,835,2400,2398,1654,2983,3003,3032,3090,2648,3076,2866,3119,1325,858,456,417,417,329,330,417,329,300,3120,3094,3081,384,330,327,1477,2793,384,417,384,417,384,417,1473,2893,3121,250,83,103,83,225,240,381,1825,3122,3123,2058,2158,201,2279,2516,3124,3125,2705,2840,2299,529,7,7,2619,3105,1667,1666,2348,3126,3127,3128,932,2349,3128,460,4,3,5,4,3129,3130,1003,6,4,2,5,1,7,7,5,5,7,1,3,3,1,2,6,7,2,2,6,7,3,1,3,7,4,7,1,7,1,2,6,6,3,5,1,4,3,4,7,2,3,4,1,1,5,5,3,5,5,7,6,2,4,5,6,4,5,4,6,2,2,6,5,7,4,3,3,2,2,3,6,6,5,4,5,5,5,5,1,3,4,6,7,1,7,1,2,2,2,6,4,4,4,3,5,6,6,7,6,3,7,1,5,6,1,3,6,2,7,2,1,5,5,5,5,1,6,1,5,5,6,5,2,4,2,6,3,4,7,2,1,5,7,1,4,6,5,6,7,1,1,4,4,6,5,1,4,2,7,2,3,5,4,4,3,4,5,2,2,6,5,6,1,6,1,5,5,2,3,6,3,6,5,5,5,6,2729,1703,3131,3018,3074,3003,2905,3061,3108,3062,1402,328,300,300,417,300,329,328,300,329,3093,3132,3095,384,327,524,3133,3044,3134,1472,417,330,1476,2435,1538,1544,3044,2676,1324,178,178,83,103,225,924,3135,3136,3137,3138,2460,3139,3140,3141,3142,878,2843,45,5,6,6,1,2047,1698,1130,1130,1187,2729,1697,529,1670,1697,836,1,1,4,29,16,391,2682,1,3,7,3,2,6,5,3,7,7,4,5,2,3,7,2,2,4,1,2,5,2,2,5,6,1,5,4,5,3,2,7,2,4,4,4,2,5,1,2,2,1,5,3,4,3,3,7,2,7,1,3,7,2,2,7,2,7,7,5,4,6,4,6,2,3,2,2,4,4,4,7,3,6,2,6,1,4,3,3,2,7,5,3,3,5,5,4,6,7,5,2,5,5,6,7,1,6,5,5,6,5,6,1,4,3,4,3,6,5,6,1,4,4,4,4,7,2,5,2,7,6,2,2,2,1,3,1,2,5,2,5,6,3,3,1,4,4,3,5,5,4,3,5,4,4,4,5,3,1,1,5,7,6,6,1,7,3,4,3,7,7,3,5,5,7,1,4,7,6,4,1,5,7,7,2,1,2,4,3,3143,2938,3105,2674,2936,2660,2622,2597,1470,1475,329,327,330,417,3144,3145,384,3120,3146,3081,330,524,2853,2438,2905,3090,3044,2623,3147,3148,2845,2474,1618,3089,2640,2939,863,225,178,240,178,486,3149,3094,3150,3151,3152,3153,3154,3155,3156,3157,3158,3159,460,2,4,2,4,7,3,4,6,4,2,6,5,6,1,6,3,157,60,3160,2921,28,7,1,5,6,6,5,3,7,2,6,2,7,1,6,5,1,4,2,5,1,4,6,6,1,6,3,3,6,6,5,3,5,4,3,2,7,7,4,6,4,1,5,6,4,2,6,6,5,3,1,3,6,4,4,2,5,6,6,1,7,3,5,7,3,6,1,3,6,7,2,7,5,7,2,3,3,7,2,5,5,6,1,7,3,4,4,4,7,3,5,6,6,7,3,6,6,4,2,4,4,5,3,2,2,5,6,2,6,2,3,7,4,2,2,3,2,5,4,6,6,2,2,1,1,7,3,6,3,7,3,7,4,3,7,3,1,5,3,1,3,6,5,7,1,1,1,1,6,1,2,7,7,4,3,3,7,1,7,1,1,5,6,4,6,4,3,5,1,5,7,6,7,4,6,2,1,4,7,2,5,2,7,1670,2938,1098,2674,2675,3161,1541,3162,3163,384,417,1925,3164,3165,3166,3167,3168,3169,2473,2812,2500,2673,3074,2537,3089,3107,3170,3171,2475,2814,1655,3074,2791,2573,2676,1324,381,201,924,2483,3172,3173,3174,524,3175,2914,2967,2981,2704,3176,3036,2707,1187,5,6,4,3,2,4,3,5,2,5,3,6,3,4,5,2,204,2975,3177,939,492,6,4,3,2,7,1,2,6,4,3,3,5,7,5,6,3,2,4,4,3,2,3,5,6,1,6,3,3,3,7,4,3,2,1,6,7,2,2,2,5,4,1,3,3,1,7,7,6,1,2,4,4,4,1,4,2,7,3,2,4,6,4,1,1,7,2,1,7,5,6,6,3,2,1,1,4,1,6,4,6,1,2,1,3,3,6,6,6,7,6,2,5,5,5,6,3,2,6,3,5,6,1,6,6,3,4,1,7,5,1,6,3,4,7,4,3,4,2,2,2,7,2,2,3,1,4,1,6,5,5,5,5,3,2,6,1,4,4,2,3,3,6,2,1,5,3,1,5,3,5,6,5,7,6,1,1,7,7,4,7,2,7,2,3,1,3,7,1,2,1,4,4,3,7,7,2,5,1,6,3,6,5,5,4,2047,2397,2536,3003,1618,3178,2864,2623,1477,2793,3179,3180,3181,1541,3182,3183,2838,3184,2706,3099,2397,2570,3106,3185,1065,3069,2399,528,1704,2400,2119,2621,2716,2649,1013,419,2405,2181,3186,3094,3187,3188,3189,1066,2675,3190,3191,490,2396,492,5,3,3,7,4,7,2,4,6,7,1,5,5,6,5,1,4,2,2652,1098,2952,1299,7,1,1,6,5,3,3,6,2,4,1,4,2,6,2,4,4,5,1,4,4,6,6,2,3,4,4,1,4,5,4,5,4,7,1,3,7,7,6,4,6,2,1,6,2,2,6,5,3,3,3,1,6,1,1,1,5,6,4,7,7,3,3,1,6,1,3,6,5,7,2,6,7,2,3,1,3,3,2,2,5,1,1,6,5,4,2,7,5,5,6,6,3,6,7,4,1,3,3,4,2,3,5,2,1,5,3,1,4,4,5,4,2,7,1,3,1,3,5,6,2,2,1,1,3,5,5,3,6,4,7,6,3,7,7,7,3,2,1,7,5,5,7,7,5,1,2,6,1,4,3,7,6,2,3,7,1,5,5,5,4,4,1,4,6,5,2,4,6,4,2,7,1,6,2,4,1,2,5,1,2,2,7,4,1,1,1576,3018,1655,2862,2596,3107,1542,1541,3170,3192,1612,1614,1614,1617,1617,2857,2651,1264,1,835,2883,3018,3193,2299,1130,529,1,461,3194,3195,2572,2640,3062,858,1323,456,3196,3197,3198,3199,3200,2951,2595,2856,1065,3201,2299,37,3,5,4,4,7,5,4,3,5,5,7,5,6,3,7,2,1,3,7,3143,1701,676,1,7,6,2,3,5,1,7,4,2,6,2,7,3,6,1,1,7,1,5,2,5,5,1,4,2,2,6,2,7,1,4,2,6,1,5,1,2,5,6,4,6,1,3,7,7,7,6,1,1,1,2,5,3,4,4,4,7,2,1,7,1,1,4,3,2,5,7,5,3,1,4,3,1,3,4,4,1,2,6,6,2,1,1,7,7,7,3,4,4,1,2,3,2,7,2,5,7,5,1,1,2,6,1,5,7,6,4,3,1,5,1,3,6,7,7,6,5,2,3,4,4,7,7,6,1,2,5,3,4,3,6,4,7,1,2,7,3,3,2,2,1,3,5,2,7,4,5,7,5,4,2,5,1,1,5,7,4,7,1,7,3,5,2,2,5,4,7,5,4,1,5,2,4,4,1,5,5,1,4,5,3,1,6,5,2,7,2439,1697,2883,2620,3185,1616,1616,2475,3069,1666,1667,1655,1654,1655,1667,3202,1264,2,1,5,2439,1703,676,1,7,3,2,2729,3131,2790,2621,2640,3203,417,384,524,3204,3205,490,2539,1299,2300,2876,2882,36,1003,5,6,2,7,7,1,7,7,1,4,6,1,2,5,7,6,4,7,5,3,6,3,3,3,1,2,4,1,5,7,1,2,1,1,3,2,1,1,6,3,3,2,6,3,7,4,3,7,7,7,1,7,5,6,1,3,4,5,2,3,3,6,1,2,3,6,7,5,1,1,5,7,3,7,6,1,1,5,4,3,4,6,3,3,2,3,2,6,6,7,4,3,2,3,6,4,3,7,2,5,7,5,1,4,5,7,7,4,3,5,5,2,2,4,5,7,7,2,4,6,4,7,7,1,3,1,1,4,1,3,4,1,4,3,6,2,3,2,2,2,7,1,1,1,1,6,6,5,2,6,5,4,7,7,7,2,6,4,6,1,3,4,7,1,2,6,6,7,2,5,7,1,7,4,4,3,7,7,7,5,3,6,2,1,6,6,1,6,6,1,2,5,5,7,3,6,1,1,6,6,7,3,2,7,7,6,2,4,6,5,7,6,5,2535,2876,1654,1667,2348,3099,1704,1130,1130,1703,1704,1704,1130,836,4,3,7,2,3,7,4,5,6,5,7,4,2535,2683,2709,2219,3206,2435,2853,3192,2861,3207,528,1187,3,675,1704,676,4,7,2,6,6,6,7,3,4,2,1,3,3,4,1,4,7,1,2,6,3,1,1,5,5,6,3,5,2,6,2,5,6,7,4,1,4,4,4,5,5,3,6,2,3,2,3,4,1,1,5,4,7,2,1,4,5,5,4,1,1,2,3,2,6,1,5,5,6,2,4,1,1,4,6,7,2,5,7,7,6,2,7,5,4,6,6,4,2,5,6,3,1,4,6,7,3,5,5,1,3,5,7,4,2,2,5,3,3,5,5,6,5,4,6,2,2,5,2,2,3,6,3,3,2,5,5,1,1,4,3,5,5,2,7,4,7,1,7,4,4,2,7,2,2,6,2,2,1,3,4,2,2,5,2,7,7,3,1,3,2,2,3,3,6,6,3,2,7,7,7,5,4,6,5,5,7,7,7,2,6,3,6,3,3,2,5,3,6,7,7,2,1,2,1,6,1,7,6,2,1,1,6,3,5,1,1,4,5,6,7,3,7,7,1,1670,1703,1697,1703,529,1,6,5,5,5,7,4,7,7,2,1,6,1,1,4,2,7,1,7,6,157,567,2504,1360,3208,2532,2500,2937,2348,36,836,2,6,2,2,2,1,3,4,3,2,2,4,7,3,7,6,7,5,6,3,1,6,1,4,3,1,7,5,7,7,1,5,6,5,3,3,7,2,4,5,4,3,3,1,4,3,2,5,5,1,2,6,2,3,3,4,4,4,3,3,1,6,6,3,2,1,2,6,4,1,5,1,4,3,6,6,5,3,3,5,1,1,6,2,5,1,6,1,7,7,3,7,5,6,1,2,4,7,5,7,5,7,2,3,1,7,6,2,5,3,1,7,3,4,4,4,7,4,3,3,1,7,7,6,7,7,3,4,6,3,3,7,6,5,5,1,7,4,4,3,3,7,3,3,3,5,4,6,6,1,1,4,1,2,4,2,4,7,3,7,3,1,4,4,6,6,3,1,4,7,7,6,2,6,3,6,5,2,2,6,5,6,5,5,6,2,3,2,1,6,7,6,5,3,4,1,4,3,1,1,7,5,6,7,1,4,3,6,2,4,2,4,2,7,3,5,1,1,5,2,1,7,5,7,4,7,4,7,7,6,1,2,4,5,7,2,2,7,6,2,2,1,4,6,7,59,3085,1820,3209,3210,2339,2340,2299,1697,37,4,6,2,7,7,7,3,1,2,5,5,4,2,2,4,3,1,2,7,3,5,1,4,2,3,4,3,5,4,2,6,4,3,2,7,1,1,6,4,3,6,2,6,1,6,5,1,7,4,3,5,5,5,6,5,6,3,3,3,3,4,6,3,6,1,1,7,2,2,1,4,6,3,5,2,7,7,6,1,2,3,4,4,2,7,3,7,3,2,6,6,1,1,4,7,5,1,7,1,7,1,4,2,1,1,6,4,6,4,4,4,2,1,4,5,4,3,1,7,2,4,1,4,3,3,6,1,4,7,4,1,1,2,2,1,5,7,7,5,2,2,4,5,2,7,7,1,6,7,2,5,3,7,3,1,4,4,4,6,5,6,7,4,6,4,6,5,5,6,6,2,2,7,3,5,4,5,2,5,7,3,2,1,7,1,2,3,3,6,7,7,2,4,3,3,2,3,3,6,5,2,2,6,5,1,1,2,1,2,1,4,3,2,1,4,2,7,6,6,1,5,7,4,7,1,5,6,2,3,5,4,4,7,5,7,5,7,6,3,1,4,5,7,1,2,2,461,3085,2504,3211,3212,3213,2396,1264,4,4,2,4,3,5,6,1,3,2,6,7,2,3,4,6,6,1,1,3,7,7,2,2,5,7,6,6,1,6,4,4,1,1,6,1,3,6,5,6,2,5,5,1,7,3,7,2,5,2,7,1,7,3,4,7,2,4,6,7,2,7,5,2,5,3,5,2,4,5,4,1,5,7,3,5,7,6,1,3,3,3,6,5,3,3,6,3,7,1,5,7,3,4,1,4,6,7,7,1,1,7,1,2,3,4,3,1,1,6,2,4,2,4,4,1,7,4,1,7,2,2,3,7,2,1,1,2,7,3,5,3,2,7,4,7,6,7,2,4,6,6,4,2,6,1,4,2,5,2,5,1,4,6,2,1,2,1,2,1,2,6,3,5,3,2,5,7,5,1,3,2,1,7,4,6,3,2,7,6,6,1,5,3,3,5,7,1,5,5,5,6,6,3,2,5,4,6,1,1,7,1,1,1,7,7,7,4,6,3,3,4,5,2,1,4,1,6,5,7,5,4,4,5,1,5,1,4,5,1,5,4,3,1,6,7,2,7,4,2,1,7,4,4,2,1,3,6,157,2540,1386,3214,3215,2840,2299,676,7,1,6,2,5,3,5,3,4,5,2,7,4,4,3,7,3,4,4,5,3,6,2,1,6,6,3,2,6,3,2,2,2,5,1,2,6,2,3,6,4,6,6,7,4,5,5,6,4,2,6,4,3,3,5,1,2,1,7,2,1,6,7,6,6,7,4,1,3,1,7,1,4,6,4,3,2,2,7,1,3,4,4,5,6,4,2,1,3,6,4,5,5,3,4,7,7,1,5,5,4,5,3,6,4,2,4,4,3,7,1,3,6,1,1,3,1,6,6,6,3,3,4,7,3,2,2,5,5,6,4,6,5,3,7,6,1,3,2,3,2,3,3,3,1,3,6,7,7,1,4,7,6,3,3,5,1,1,6,6,3,1,2,2,6,4,7,1,2,5,6,7,7,1,2,7,6,6,6,3,3,6,4,5,2,4,4,7,7,3,6,3,6,2,6,2,5,5,3,7,1,3,5,6,4,3,4,5,3,6,1,5,1,3,5,6,3,1,4,4,4,1,2,1,1,4,4,1,4,5,7,2,1,7,2,2,4,6,2,4,3,2,1,5,4,2,2,3,1,2652,2218,3185,3056,2539,968,3,1,4,7,4,4,2,1,2,2,7,3,6,5,4,3,4,1,2,3,4,6,3,3,3,2,1,4,1,2,4,3,6,2,2,6,4,4,7,6,4,5,3,1,3,2,7,1,4,1,3,3,2,3,7,3,2,1,3,5,6,7,3,3,3,6,1,6,7,6,5,1,4,3,3,4,4,6,4,4,5,2,7,7,3,2,7,6,2,1,2,2,2,4,1,5,5,5,4,4,2,5,4,2,3,5,5,2,2,1,4,7,4,3,7,3,5,3,3,7,3,1,5,7,5,4,4,7,7,7,7,5,7,7,6,6,5,7,7,1,4,4,1,1,5,4,5,3,5,1,3,2,2,1,1,3,5,7,2,7,1,4,1,2,3,7,5,5,6,7,4,3,1,1,3,1,5,2,3,2,5,5,1,2,6,4,3,4,2,6,6,3,1,5,4,3,5,6,3,4,5,3,1,6,4,2,6,6,6,1,2,7,4,2,6,4,7,4,4,2,2,1,6,1,2,2,2,5,4,3,4,2,4,4,5,1,2,5,2,4,5,6,2,7,6,1,6,7,1,4,157,2953,3216,3217,2299,1003,7,7,6,5,1,1,4,2,7,7,6,1,3,7,6,5,2,2,6,6,2,1,5,5,4,6,4,2,3,3,2,5,3,6,6,2,6,1,2,7,5,7,1,3,5,7,2,7,1,7,7,5,7,5,2,6,1,3,1,4,2,5,6,6,1,7,2,7,1,6,6,2,5,6,5,1,7,3,5,3,4,1,6,1,1,7,1,3,6,5,5,6,4,1,5,2,6,4,5,3,6,6,5,2,1,6,6,1,6,7,2,6,7,5,1,4,6,1,1,7,7,7,3,1,3,5,3,6,6,6,4,6,1,5,3,3,4,1,1,4,3,7,5,5,6,1,3,4,2,6,4,3,4,2,2,6,7,2,7,4,3,7,2,6,4,7,1,7,4,7,5,4,1,5,2,6,6,5,6,1,3,3,3,6,5,5,4,6,7,7,2,1,5,3,1,1,2,5,4,3,2,4,3,3,6,1,7,5,6,5,4,5,5,6,5,7,7,6,3,6,6,4,2,4,1,6,6,4,1,6,1,4,3,4,7,2,1,4,5,3,6,7,1,6,2,4,5,2,5,2,95,3218,3219,1704,1187,3,5,1,3,3,4,7,2,4,1,2,7,4,6,3,2,7,4,6,5,7,7,6,3,3,5,1,6,1,1,2,4,4,6,7,5,6,4,6,4,4,4,5,2,1,2,7,2,2,4,1,7,3,5,7,7,7,3,6,3,2,3,3,3,3,5,1,5,3,5,6,5,1,4,1,2,7,1,6,6,4,5,1,2,7,3,3,2,4,7,2,7,2,5,4,5,5,5,1,6,4,5,6,6,1,3,5,5,3,2,2,6,7,1,4,6,6,1,3,7,4,2,3,1,2,1,5,4,2,5,6,7,5,4,3,3,4,1,4,2,1,4,2,4,7,2,4,5,3,5,7,5,1,6,4,7,3,5,6,2,7,2,1,6,2,2,2,3,5,3,6,6,2,1,4,2,2,2,7,3,3,6,4,2,7,3,7,2,3,7,4,1,2,1,2,3,7,6,6,2,6,6,3,1,4,7,2,3,7,7,4,2,6,6,2,7,1,2,1,7,3,4,5,7,2,4,5,3,5,3,3,5,1,4,7,6,1,3,1,2,4,1,5,2,2,6,1,4,4,4,1,3,835,836,3,2,6,1,7,6,5,5,6,4,1,7,4,6,1,3,3,1,5,7,2,6,1,2,2,5,6,6,7,2,4,3,7,2,7,3,6,4,2,5,2,2,7,5,2,1,4,1,1,1,2,1,7,6,1,2,5,5,1,1,3,6,1,7,5,7,5,4,4,1,5,5,7,6,5,5,7,1,1,7,3,5,5,1,4,7,6,5,7,7,5,5,1,5,6,4,1,6,7,4,7,2,2,6,7,5,7,5,6,7,1,6,6,4,1,2,2,2,1,7,6,4,5,3,7,4,4,2,1,5,4,6,1,5,7,6,6,2,2,7,4,2,3,5,3,2,3,7,2,7,1,2,1,4,7,3,5,3,7,2,4,6,1,4,4,5,5,3,6,6,2,1,4,2,7,4,3,5,7,3,1,1,5,5,2,4,1,2,1,4,1,3,4,3,6,7,4,1,4,7,2,7,5,3,1,5,2,5,4,2,1,6,2,4,2,2,5,1,2,3,7,1,7,6,7,1,1,6,4,2,4,6,7,2,3,5,3,4,3,2,6,5,5,4,2,5,3,3,6,3,5,2,2,1,7,6,1,6,5,5,6,4,2,7,6,2,6,3,7,4,6,4,2,3,7,6,5,1,2,4,4,2,7,2,5,4,6,5,5,7,7,1,4,3,4,1,1,3,5,7,2,3,6,5,3,3,3,3,6,2,3,5,4,4,6,5,2,4,3,4,7,5,2,2,5,3,2,3,7,3,4,6,5,7,7,1,1,7,1,2,6,3,7,2,3,3,6,3,6,2,1,3,7,7,4,1,6,4,3,3,1,7,1,7,5,1,5,1,4,6,3,4,1,4,7,1,2,2,1,1,5,5,3,2,2,7,2,3,7,2,1,3,7,7,1,6,3,7,5,7,5,4,4,2,7,2,3,1,2,2,2,5,4,6,1,6,5,5,2,1,2,4,3,1,3,2,3,7,6,7,7,5,1,7,6,1,3,7,5,2,1,1,1,4,3,7,7,5,5,5,1,5,1,7,2,5,1,5,7,6,7,6,1,4,3,4,7,4,1,5,7,1,2,3,6,5,1,6,5,3,6,4,3,5,1,1,2,6,2,4,5,3,3,5,5,7,5,3,1,2,2,7,1,5,5,1,3,6,3,2,1,1,2,4,4,6,3,5,5,6,5,3,5,2,6,6,6,2,4,6,2,3,7,6,4,3,1,1,2,1,4,5,3,5,6,5,2,7,4,1,1,2,6,5,4,1,4,5,6,6,4,5,1,6,3,7,2,3,3,2,4,2,7,1,7,2,6,1,4,6,5,4,1,1,2,4,3,2,6,2,6,4,3,1,7,1,7,4,5,6,4,4,2,1,3,1,1,6,6,3,1,7,6,1,3,6,4,6,3,2,1,1,6,6,5,3,4,3,3,5,1,6,5,6,6,6,7,7,1,2,1,2,2,6,5,6,4,2,3,2,7,4,4,5,5,2,4,3,7,5,5,6,6,6,7,1,4,5,2,7,3,3,6,1,7,6,3,3,5,2,4,5,3,5,2,6,4,5,6,1,6,2,2,6,6,5,2,6,4,1,2,4,1,3,7,2,1,3,6,1,1,1,1,4,5,7,4,2,6,6,4,1,5,5,3,6,5,5,1,1,5,4,3,4,1,3,4,2,3,7,4,4,4,1,7,6,4,7,1,1,4,4,4,6,2,3,3,2,1,5,3,7,3,5,2,5,4,4,3,5,5,2,1,5,6,2,5,2,5,2,2,7,7,3,5,4,5,4,5,7,7,4,6,1,3,3,1,1,1,5,7,4,6,5,3,2,4,4,4,7,6,2,3,3,1,3,7,7,2,3,7,3,4,2,6,7,7,2,1,3,5,6,7,4,1,5,6,7,7,6,4,1,1,3,2,3,1,6,6,7,4,5,5,6,2,3,1,2,5,1,7,3,5,1,4,7,5,1,5,7,4,7,2,3,2,3,5,5,5,2,5,1,7,1,7,3,3,5,4,3,7,2,4,5,7,6,3,4,2,2,6,7,1,6,6,4,6,5,7,3,4,7,3,1,7,6,1,5,3,5,4,3,3,1,6,1,3,5,2,5,2,5,6,1,7,5,2,3,1,6,7,4,3,3,3,3,7,6,2,3,2,6,5,5,2,3,4,3,1,2,6,6,2,1,1,3,7,1,7,3,4,5,3,6,7,3,2,7,4,6,5,2,2,6,2,7,4,7,5,3,7,1,6,6,1,1,1,3,5,7,3,3,3,4,4,2,3,7,5,2,1,6,5,2,7,6,6,5,6,5,1,2,5,5,5,3,2,1,3,5,3,4,3,4,3,7,6,6,1,6,3,1,6,2,4,6,1,2,5,6,5,4,7,3,7,3,6,5,7,6,6,6,5,1,4,5,7,6,6,1,7,5,6,2,6,1,4,6,3,7,5,2,6,6,3,5,3,3,5,5,7,4,7,6,6,3,6,6,2,6,1,1,5,7,3,5,2,4,1,5,4,6,2,1,1,1,6,5,2,3,6,2,3,4,4,6,3,5,7,7,2,5,6,4,1,6,7,7,4,7,5,1,5,4,5,1,3,6,5,2,5,6,1,3,7,1,3,5,6,2,6,7,5,4,7,4,5,3,7,5,3,4,7,7,1,5,5,2,5,1,1,2,1,3,4,7,7,7,5,6,7,6,6,1,5,6,3,6,1,2,7,5,1,4,4,1,4,5,2,2,1,6,7,1,3,5,5,6,2,7,6,6,4,5,3,4,7,4,3,3,7,2,7,1,4,1,2,3,1,4,3,2,5,6,4,2,5,7,5,3,6,3,2,5,5,4,3,1,7,3,2,6,4,3,5,1,6,1,7,5,5,2,4,7,4,1,3,5,1,2,1,6,6,4,7,4,3,5,4,6,2,4,6,1,5,7,5,7,4,3,1,3,6,5,1,7,3,1,2,2,5,2,4,7,5,7,3,5,7,4,5,1,4,2,7,4,3,1,5,6,6,3,5,3,2,1,5,6,1,6,1,1,2,7,6,3,6,1,4,1,1,2,5,2,7,2,4,5,6,5,7,4,7,1,7,7,5,5,3,5,3,7,3,6,3,5,7,1,4,6,5,4,7,7,4,1,4,5,4,3,1,4,4,3,5,7,7,3,7,2,3,4,1,5,7,1,4,4,2,4,2,4,1,4,5,1,2,1,7,2,5,1,4,3,1,6,4,3,2,5,4,4,3,4,6,4,6,4,4,7,5,1,3,1,3,7,4,7,1,5,6,3,6,3,6,7,5,2,3,3,6,3,1,6,1,4,4,2,4,7,5,5,4,3,1,1,2,5,3,4,1,7,6,3,1,5,1,7,2,3,7,4,4,4,2,2,6,7,2,3,2,6,6,1,6,1,7,4,6,6,1,5,1,4,7,4,7,6,2,6,5,5,5,2,5,3,6,1,1,3,4,4,1,7,4,7,7,3,5,4,2,1,4,3,2,7,4,2,2,1,3,2,3,1,2,2,2,5,5,7,3,4,5,7,1,3,6,7,7,1,7,5,6,3,1,5,3,5,5,4,1,3,5,6,7,3,5,5,1,4,6,3,4,5,3,3,5,3,6,2,7,6,2,4,2,3,3,6,4,6,5,7,3,4,2,4,2,1,3,6,5,1,6,6,7,7,4,3,1,4,1,2,1,7,4,7,6,5,2,2,2,2,1,6,6,2,7,3,3,6,7,5,2,4,5,1,6,5,7,4,1,3,2,2,5,5,3,5,3,5,1,5,5,3,3,6,3,4,6,5,3,3,7,7,3,4,2,3,2,7,2,1,3,3,5,5,1,3,4,7,5,5,5,5,5,3,6,1,4,4,4,1,7,6,6,7,3,5,1,4,7,3,2,7,2,2,5,2,1,7,1,3,5,7,4,5,5,6,3,1,5,7,2,1,4,1,5,2,3,2,4,6,4,5,5,7,1,5,2,3,1,7,1,5,1,2,3,4,2,2,4,7,6,7,3,4,1,6,7,4,7,6,3,6,6,4,5,2,7,3,2,3,5,5,7,1,6,6,7,6,3,1,2,1,4,4,6,7,1,4,6,6,7,2,7,3,5,6,4,2,3,3,3,3,2,6,6,4,6,1,3,2,2,4,7,5,6,2,7,5,3,5,7,4,5,3,1,2,6,4,2,7,6,1,3,4,5,4,5,5,1,6,4,2,2,5,4,1,3,1,1,6,4,7,7,6,2,4,3,4,2,2,7,7,5,5,7,6,6,4,2,4,3,7,6,6,6,5,4,2,1,6,6,6,6,2,3,4,4,5,3,1,2,6,5,3,1,5,4,3,7,3,5,3,6,4,3,7,3,4,6,5,1,2,6,7,1,5,6,2,3,2,6,1,2,6,5,7,1,4,3,6,5,4,3,5,7,3,3,2,7,4,7,7,5,4,3,4,3,2,2,2,2,7,5,4,5,6,6,1,7,6,6,1,3,3,4,1,5,6,7,7,4,3,4,2,5,2,1,4,3,2,2,6,1,1,5,3,1,3,6,2,1,4,1,3,3,1,4,4,7,5,4,2,6,6,2,1,3,1,5,6,2,5,1,3,3,7,5,1,2,2,7,5,5,2,7,6,7,7,3,7,3,1,1,2,4,2,4,2,5,5,7,2,2,4,7,7,6,6,6,1,7,3,3,4,5,6,4,4,6,3,1,3,1,4,4,6,4,3,5,3,2,6,2,6,6,7,2,1,6,1,1,4,3,2,3,2,5,5,5,3,4,4,3,6,3,2,6,5,6,3,1,6,5,7,5,3,3,6,5,7,1,4,4,3,7,2,4,5,6,7,6,2,4,6,6,2,5,4,3,3,3,7,1,5,7,3,3,7,5,2,6,5,1,7,6,4,2,2,5,7,1,3,6,6,5,5,7,5,5,3,6,5,1,3,3,4,4,7,2,1,2,3,2,7,4,3,4,2,5,6,1,6,3,7,5,5,6,2,6,6,6,4,5,1,5,4,4,4,4,1,3,3,3,1,5,6,7,6,2,1,3,5,5,6,7,5,2,2,5,7,3,3,1,7,1,1,5,4,2,1,2,3,2,5,4,6,4,7,5,7,1,7,2,1,6,1,4,2,3,3,6,5,1,2,2,3,3,4,5,5,6,3,7,4,3,2,6,6,6,5,4,2,7,6,6,1,5,7,7,5,2,3,6,2,1,1,7,7,7,6,5,1,3,1,1,4,1,2,1,3,6,6,3,6,4,7,2,4,4,6,3,6,2,3,7,7,1,4,6,1,5,7,7,7,7,1,6,3,4,2,2,4,7,7,5,7,3,5,2,6,6,6,6,6,5,5,2,2,1,5,7,5,7,7,2,4,7,3,7,1,4,1,4,5,7,1,2,3,2,7,2,2,5,7,2,5,7,1,7,6,7,4,3,7,4,4,2,1,7,3,1,6,4,6,1,2,2,2,4,5,7,1,3,2,2,2,7,5,1,7,2,2,5,3,6,1,3,6,3,1,3,5,2,6,6,7,3,1,7,2,2,3,3,1,7,5,4,2,4,6,6,6,2,6,3,6,5,3,2,4,6,7,7,2,1,7,4,4,1,2,5,7,6,2,7,4,1,7,6,3,1,6,1,4,3,2,4,1,3,2,7,7,5,3,1,7,6,2,1,6,3,1,3,5,7,6,3,5,4,4,7,3,1,3,4,1,2,2,4,3,4,5,4,3,2,6,3,6,5,5,3,4,2,5,1,3,1,3,4,3,2,2,2,5,5,4,7,4,3,5,5,7,3,6,6,1,5,2,4,2,1,5,2,5,3,6,3,5,4,6,1,2,1,2,1,6,5,6,1,4,6,3,7,3,5,4,2,1,6,3,5,4,6,7,4,6,4,4,2,6,6,7,1,1,4,2,2,2,5,2,4,6,1,4,2,6,5,7,5,4,6,2,1,4,2,4,2,7,3,2,2,7,5,6,4,2,7,4,7,2,4,4,2,2,5,3,1,6,1,1,3,3,7,3,2,3,7,7,2,7,2,6,4,3,3,4,6,6,1,4,3,5,2,7,5,1,1,2,4,2,3,5,5,1,5,7,2,1,7,4,1,3,7,3,3,3,7,7,6,2,1,1,2,5,2,2,4,5,5,2,7,7,1,1,2,4,1,1,5,6,4,6,2,5,7,4,1,4,4,1,3,2,2,3,3,6,3,3,3,3,6,7,5,2,6,4,5,5,2,1,7,7,3,6,7,3,7,5,1,4,3,7,6,3,3,2,4,4,6,7,5,4,5,3,5,5,3,7,7,7,4,2,6,4,3,3,4,7,1,7,4,6,7,1,2,5,6,4,3,4,4,5,5,1,1,1,4,6,1,4,7,5,6,5,7,6,6,4,5,4,2,2,4,4,2,2,4,6,6,1,7,1,7,2,5,7,4,4,5,4,4,6,6,4,1,6,2,2,4,4,2,1,7,6,4,6,1,3,5,5,1,4,5,4,7,1,5,3,7,7,6,2,4,1,1,2,1,7,6,2,4,6,4,4,4,1,3,5,3,7,7,6,5,1,3,2,5,1,5,4,7,6,4,5,2,1,6,6,3,6,6,1,5,4,4,6,4,7,7,7,3,2,4,2,3,3,6,6,6,6,4,4,3,4,1,3,5,6,5,1,2,6,4,3,5,5,7,4,5,6,6,5,5,5,7,6,3,5,6,4,6,7,7,1,3,4,2,1,2,4,7,7,7,2,4,7,6,3,1,3,2,3,3,3,1,2,6,1,2,4,6,5,4,6,4,5,2,5,6,6,2,1,6,6,6,4,6,3,5,1,5,6,1,3,7,5,4,6,2,1,4,7,2,3,2,1,6,2,7,1,3,3,6,5,4,5,2,1,3,4,1,6,5,6,7,3,5,1,2,3,1,4,3,3,4,1,2,3,3,7,7,3,5,3,5,1,4,3,2,3,1,5,2,2,3,1,7,4,7,2,1,1,5,2,5,7,2,4,2,7,6,6,4,2,6,5,3,7,5,5,1,7,1,7,5,5,6,7,7,7,3,5,4,6,7,7,4,7,3,3,1,3,6,1,1,1,7,7,3,3,7,1,1,5,5,3,1,3,5,4,7,2,1,3,5,1,4,5,6,3,4,1,4,7,1,7,1,3,5,4,1,5,2,7,1,2,5,7,7,2,2,2,1,5,7,5,5,4,5,1,7,1,2,1,3,3,2,2,6,5,1,5,2,1,1,5,5,4,2,1,3,6,6,5,4,3,6,4,6,4,6,4,1,6,3,2,2,7,4,7,1,3,4,6,6,1,6,4,5,5,6,1,4,4,2,1,4,6,6,7,5,2,2,7,7,7,2,7,7,2,2,2,1,6,1,3,5,7,6,6,5,1,3,1,3,7,2,5,4,2,1,7,7,7,7,6,3,1,1,2,1,3,3,3,1,6,1,2,4,4,5,2,2,7,4,7,7,2,6,1,1,4,2,2,4,2,2,5,5,3,5,4,7,3,1,3,1,5,6,2,6,5,7,6,3,1,3,1,4,3,1,6,3,2,7,4,3,7,7,3,2,6,2,2,7,3,3,3,3,3,7,3,7,5,3,6,7,1,4,5,3,2,4,5,3,5,4,4,1,7,4,5,6,4,5,4,1,5,5,6,5,7,5,2,7,2,5,3,2,4,7,3,5,4,5,1,3,7,5,6,1,6,3,4,2,2,6,7,6,6,5,7,3,3,1,4,7,5,6,7,6,5,1,5,2,1,6,5,1,2,3,3,4,3,6,4,1,4,6,7,6,5,6,5,5,3,5,3,6,7,3,4,5,1,6,5,1,6,3,7,2,5,2,7,3,2,3,5,3,5,5,6,1,6,3,2,2,3,2,5,2,4,5,3,4,3,7,4,5,4,5,3,1,3,2,2,2,5,1,3,5,3,6,1,6,6,1,1,3,6,4,6,1,1,7,7,4,3,4,2,7,2,2,4,2,7,7,5,2,5,5,3,4,3,4,1,1,1,5,2,2,3,4,7,6,3,3,1,6,5,2,1,1,4,3,1,3,3,4,7,3,7,5,5,7,2,3,3,2,4,5,3,6,7,3,4,3,2,7,5,1,3,3,5,1,6,4,7,1,2,7,3,6,5,6,1,7,3,5,6,5,7,5,4,6,5,6,5,6,1,4,5,1,4,2,3,1,6,2,7,6,4,2,1,6,1,2,4,6,3,7,3,2,3,6,1,4,5,3,3,7,4,7,5,6,3,7,4,6,5,5,7,5,6,6,7,4,7,4,2,3,2,5,3,6,3,6,6,6,7,2,2,3,3,5,5,3,7,5,6,6,4,3,3,2,5,4,1,1,6,6,1,1,7,7,2,6,1,7,5,6,5,6,6,3,1,5,5,5,2,2,1,7,1,4,2,1,3,3,2,3,4,2,7,2,4,5,7,3,7,6,7,2,7,2,4,6,2,4,3,5,3,7,3,6,6,6,1,5,6,2,6,4,1,3,2,6,7,6,4,5,6,6,6,3,3,6,6,1,6,3,7,2,6,3,7,2,6,5,5,7,7,1,3,6,4,7,4,5,5,1,7,1,2,3,4,1,4,2,6,4,6,6,4,3,3,5,1,2,1,6,2,6,3,2,7,7,4,3,1,6,4,2,1,3,2,4,7,1,6,7,7,6,2,7,2,1,7,2,7,1,3,7,6,7,5,6,4,1,7,5,2,4,2,1,1,3,1,3,2,6,4,6,3,7,2,4,1,5,3,4,5,1,3,2,6,1,3,5,7,3,7,1,7,4,2,2,7,5,3,6,7,4,6,6,6,5,1,4,5,6,2,7,6,4,7,5,2,7,1,1,2,2,1,4,3,2,7,7,6,5,3,6,6,2,3,5,1,7,1,5,1,4,1,5,3,5,1,2,1,3,5,3,3,2,2,7,2,3,4,1,7,7,7,5,4,2,1,3,2,1,2,4,6,3,5,1,3,2,5,3,7,7,5,6,1,5,3,6,2,7,5,4,2,3,6,3,5,4,3,1,2,1,6,1,1,6,4,5,5,2,7,1,3,7,2,4,7,5,7,3,1,7,6,4,1,1,4,2,7,4,1,5,3,2,3,6,1,7,7,6,2,1,3,4,4,3,1,7,5,5,5,6,3,3,5,7,2,2,4,6,3,7,2,6,2,1,6,6,1,3,3,6,2,7,7,2,4,6,6,7,1,7,1,3,4,7,4,2,3,2,7,5,1,4,5,1,2,6,4,1,2,4,3,3,1,2,4,6,6,6,2,4,4,3,5,5,5,4,1,4,4,3,3,5,4,1,3,7,1,7,6,1,5,4,3,3,5,3,6,7,7,6,5,4,2,5,2,4,2,2,1,1,5,6,7,4,5,7,2,2,3,3,3,3,1,7,1,6,3,5,1,3,3,6,3,7,6,7,5,2,5,4,6,6,3,6,5,3,2,4,2,2,6,2,3,4,1,3,4,7,1,3,4,1,7,4,6,4,1,6,4,6,5,4,5,7,1,1,4,1,2,1,6,1,5,2,4,2,3,1,1,3,2,6,5,7,5,1,4,2,5,4,1,7,4,3,1,1,4,7,1,7,2,7,6,2,6,6,3,6,2,1,3,6,2,5,5,5,6,2,3,5,5,3,2,5,7,5,6,2,1,4,2,4,1,5,5,7,6,5,4,2,2,5,5,4,3,5,4,5,1,7,4,5,4,4,6,4,7,3,1,6,2,5,2,4,6,1,6,1,1,6,5,4,5,6,4,3,4,1,2,6,5,3,7,1,3,6,6,7,6,1,6,1,4,3,3,6,3,6,1,4,4,1,5,6,1,5,3,1,4,5,5,2,1,7,1,6,1,2,3,1,4,2,7,2,4,4,1,4,7,7,2,6,7,3,2,5,4,5,7,3,1,2,3,6,6,2,5,1,5,2,6,6,4,3,2,5,2,6,5,6,5,5,5,5,5,6,2,4,2,4,7,6,6,7,3,2,1,1,3,3,4,1,6,5,7,1,2,4,7,2,4,7,3,6,3,6,3,4,7,1,2,1,5,2,4,1,5,3,5,7,2,6,7,1,1,4,3,5,4,2,7,2,6,4,1,3,2,7,7,2,3,4,7,4,3,4,7,2,3,2,4,6,2,4,4,1,5,5,7,4,3,2,3,2,4,4,6,7,1,5,2,5,1,2,6,7,1,2,1,3,4,4,2,6,1,4,7,7,6,7,5,6,5,7,5,2,7,2,4,3,6,1,7,2,5,1,2,6,4,6,3,6,7,6,7,2,5,6,3,4,3,1,5,4,2,3,1,3,1,2,5,5,7,3,3,2,4,5,7,7,2,1,1,6,7,3,3,4,7,5,6,3,6,5,7,2,7,3,3,5,4,2,5,7,2,4,3,7,7,5,3,7,6,2,5,2,7,4,7,1,2,3,7,7,1,2,3,7,2,6,3,2,7,5,7,6,3,2,5,6,6,7,5,3,1,5,3,7,5,3,4,3,6,7,3,2,5,7,1,5,6,3,4,7,1,3,4,3,3,7,4,7,3,5,6,3,3,5,5,5,2,7,4,4,6,6,1,4,7,7,1,3,4,4,4,7,3,5,1,1,1,2,5,2,5,2,6,5,3,6,2,4,6,5,6,1,7,1,6,4,3,1,3,5,6,7,5,4,5,6,2,1,6,1,5,2,6,6,5,2,1,3,5,4,4,4,5,5,7,3,5,4,4,3,6,7,1,1,4,7,6,1,2,3,6,7,1,6,3,6,7,5,4,3,3,1,1,1,1,6,4,5,4,2,5,1,7,5,4,6,7,1,6,4,1,5,3,7,1,5,7,2,2,2,1,7,4,2,4,2,7,7,4,5,4,4,2,3,4,2,6,4,1,5,2,4,7,5,4,4,1,6,5,4,3,5,7,5,6,5,2,6,2,2,2,1,3,6,6,7,5,1,6,1,6,6,7,1,6,5,1,4,6,5,3,6,1,5,2,5,6,6,5,2,5,7,1,6,6,5,4,4,4,1,7,2,1,7,6,1,4,7,2,4,7,2,1,6,5,3,7,7,1,2,3,7,5,2,3,6,2,7,6,6,1,6,5,6,2,1,7,1,3,3,5,5,1,4,7,7,2,6,3,4,6,7,7,1,6,1,5,4,3,1,7,5,4,5,1,7,1,2,7,1,4,6,4,2,4,3,2,7,5,4,2,3,2,1,6,1,5,3,1,1,3,2,1,4,4,5,3,2,3,3,7,4,6,3,2,7,5,1,7,1,1,7,2,4,7,3,7,2,3,4,5,1,5,2,7,1,5,6,1,7,3,5,2,3,5,6,2,2,2,2,1,5,5,1,2,1,2,2,4,4,2,1,1,3,2,7,7,7,5,4,5,7,2,2,7,2,4,6,2,5,4,7,6,2,1,6,4,7,2,4,2,6,5,2,5,4,1,1,4,5,7,7,2,5,1,3,4,2,2,3,7,5,3,5,4,5,5,6,5,1,5,6,7,7,3,6,4,3,6,7,2,5,3,5,3,3,3,1,6,1,1,3,2,5,7,4,6,1,3,3,7,3,6,5,4,7,4,1,2,7,7,7,2,2,3,2,5,6,3,1,5,2,7,1,1,3,1,4,1,4,3,6,2,2,2,7,5,5,2,7,2,4,4,2,2,7,2,5,4,3,1,4,6,4,3,5,3,3,3,7,6,5,1,3,5,5,2,5,2,4,7,3,5,4,1,4,6,5,2,7,5,5,7,1,2,3,5,2,3,7,2,1,6,5,4,7,7,3,2,4,3,4,7,6,4,2,2,4,3,1,6,4,4,3,2,6,1,5,3,5,6,4,1,7,7,5,3,5,1,7,3,3,1,3,2,2,3,3,2,2,4,2,4,2,6,2,6,6,4,4,3,2,3,2,4,7,7,6,3,5,5,7,3,6,5,2,4,5,6,3,1,3,1,5,2,5,4,5,4,5,5,7,1,2,2,6,4,2,2,3,7,1,2,2,7,7,6,3,3,3,6,3,7,1,7,7,4,5,1,1,2,6,5,7,4,6,1,7,5,7,1,7,4,2,6,7,7,1,1,4,2,6,3,2,2,4,3,4,1,5,1,5,7,7,7,6,7,1,5,2,4,7,2,7,5,2,1,2,7,1,2,5,6,6,4,5,5,2,7,5,7,6,7,3,1,6,1,2,3,3,7,6,2,7,5,3,6,2,3,4,1,3,2,3,6,6,3,5,3,3,4,4,6,3,3,2,5,5,3,1,4,1,6,5,6,5,6,4,5,1,5,1,4,2,6,5,6,5,6,1,5,1,5,1,3,2,6,3,4,1,6,4,6,4,3,1,4,7,2,3,3,4,1,2,7,6,5,5,6,1,5,4,2,5,1,3,6,2,2,1,7,7,7,3,1,7,3,4,3,5,2,4,6,3,7,4,7,2,2,5,4,1,1,6,4,5,2,1,2,7,2,6,7,2,5,3,5,4,4,1,5,1,1,3,1,6,7,2,5,7,7,4,5,4,6,4,7,6,4,3,5,7,1,6,5,7,4,7,6,7,1,5,3,7,4,1,5,4,4,6,5,1,7,5,1,5,2,6,2,2,6,6,2,5,3,3,5,7,4,5,3,7,2,5,5,2,7,1,6,1,3,4,2,7,3,2,4,5,6,7,4,2,1,2,4,7,7,7,7,2,6,5,6,4,3,6,2,5,4,2,7,7,3,7,1,2,4,7,7,2,7,2,7,2,5,3,2,5,3,6,7,3,3,6,6,4,5,7,3,1,7,1,3,7,1,4,7,7,1,1,7,5,1,4,1,6,1,3,3,2,1,4,5,5,6,3,2,4,3,2,6,4,5,3,4,2,6,5,1,1,5,7,7,6,2,3,4,6,3,2,1,2,5,6,2,4,5,3,6,3,5,3,7,1,4,1,1,2,2,7,5,7,7,6,1,4,6,3,1,4,7,5,4,3,6,3,1,5,3,4,2,1,7,1,1,4,4,7,7,4,7,5,2,4,5,4,5,3,4,1,5,3,1,5,6,7,6,3,5,1,1,6,2,7,7,7,5,7,4,7,4,2,2,3,1,5,6,5,3,2,7,5,5,5,2,6,7,6,6,5,1,2,3,3,1,6,6,7,1,3,3,2,2,2,5,7,6,6,4,5,1,3,1,7,7,4,4,6,7,7,1,5,2,3,5,3,7,1,7,4,1,5,5,7,2,1,7,3,6,5,5,4,1,5,7,2,2,6,7,7,7,1,6,1,1,4,3,4,6,6,2,2,5,1,7,6,1,3,5,6,6,4,6,1,4,2,6,4,4,2,2,1,2,2,7,2,4,4,5,4,3,7,2,4,7,3,2,5,1,2,2,3,1,2,1,6,1,2,6,1,5,2,6,4,1,3,7,1,2,6,3,1,5,4,5,5,5,6,7,6,2,4,7,6,4,3,2,1,4,4,7,7,4,1,1,1,7,5,7,3,7,2,1,7,4,6,5,5,3,4,3,1,5,1,2,3,4,6,2,7,5,6,1,6,6,6,1,2,7,6,2,5,3,3,1,3,1,3,1,7,7,5,3,5,2,3,1,3,7,3,3,7,3,4,2,3,4,1,5,6,7,6,3,6,4,7,3,1,6,6,6,5,3,5,2,1,2,7,4,3,2,3,5,4,1,6,1,6,4,6,6,2,5,7,1,1,2,4,5,6,4,2,7,6,4,6,6,4,2,5,4,1,3,7,2,6,3,2,2,5,3,2,4,5,5,1,2,4,1,2,6,6,2,3,2,2,3,7,7,5,7,7,2,1,5,6,3,3,3,3,7,7,6,2,6,5,2,2,7,3,6,3,4,1,5,3,4,4,4,7,3,5,3,5,7,1,2,7,2,3,3,4,7,3,2,7,4,2,5,3,2,6,3,2,7,2,1,6,6,2,5,6,6,7,4,3,6,5,3,7,6,2,4,7,6,7,7,6,1,7,2,5,5,3,6,7,5,3,7,7,3,7,4,7,6,5,6,3,4,5,5,1,1,3,3,3,6,5,3,4,5,3,2,7,2,3,1,7,4,7,1,5,1,3,5,2,6,1,6,6,7,6,5,4,6,5,6,2,4,2,7,6,3,5,2,6,1,4,2,1,6,6,7,3,6,2,4,7,7,3,7,5,6,2,2,3,3,7,5,6,4,1,1,6,3,4,5,1,2,5,3,6,4,5,2,5,6,7,5,1,6,3,5,4,6,1,4,7,1,2,6,2,4,6,7,5,6,2,4,7,6,3,7,1,4,4,3,6,2,1,1,6,1,7,1,1,2,7,1,6,4,3,6,3,2,3,3,4,5,5,4,2,2,3,5,5,1,6,4,3,5,5,4,1,1,4,3,5,6,2,4,5,6,2,5,5,1,7,1,7,3,1,2,7,7,6,3,6,4,7,1,7,7,4,1,4,2,5,2,3,7,3,2,4,7,4,5,5,7,5,6,1,4,2,7,6,1,3,7,4,7,2,6,3,1,7,5,3,7,4,5,2,7,7,2,3,7,1,6,5,1,2,5,2,5,5,1,5,3,5,4,6,2,4,6,6,2,5,2,1,6,7,2,3,4,7,1,7,5,1,1,4,5,3,3,7,5,2,1,2,5,4,5,3,4,1,1,5,7,1,3,6,5,5,3,5,5,1,3,6,5,7,5,2,7,2,3,3,7,5,7,5,6,5,5,7,3,3,2,5,5,6,5,3,2,5,4,3,5,4,4,4,6,1,5,3,3,2,4,7,5,3,6,3,2,6,7,7,1,6,1,3,2,5,4,5,7,5,4,3,5,4,2,1,7,1,1,1,1,2,2,3,2,7,3,4,2,6,1,2,2,3,3,3,6,7,1,5,2,3,4,5,1,6,4,3,1,1,5,6,5,5,3,3,7,7,3,4,7,5,3,3,3,4,2,4,4,4,1,3,4,1,6,6,7,5,3,6,1,5,7,1,3,1,2,1,4,5,6,1,6,5,2,3,1,2,4,5,6,1,7,2,7,7,6,3,2,1,7,1,7,1,6,3,5,7,5,3,3,1,1,2,4,4,5,3,1,4,1,5,2,5,6,4,6,1,2,3,5,2,4,3,3,4,3,7,7,2,6,1,2,4,7,4,7,6,3,7,6,5,7,1,4,1,1,7,2,5,1,6,2,2,5,3,4,3,1,3,7,4,1,5,4,3,7,7,3,1,7,1,4,4,4,7,1,6,1,7,1,4,5,6,7,4,5,3,6,2,6,7,5,7,1,1,6,3,2,7,3,7,4,6,1,5,7,7,7,2,4,6,3,4,6,2,7,3,3,5,2,2,1,1,7,4,5,5,2,6,5,5,7,1,4,6,5,1,5,5,5,4,6,4,1,7,6,1,1,6,3,7,5,3,7,5,6,7,4,2,5,5,6,6,3,2,6,5,4,4,7,5,5,4,1,1,6,2,6,4,3,2,6,7,7,5,4,2,7,3,4,7,1,2,7,1,6,7,6,5,6,6,6,7,3,6,6,1,2,7,3,4,1,2,5,3,6,3,1,6,2,5,6,3,7,7,5,6,5,6,3,3,6,4,7,2,7,6,4,6,1,5,4,1,6,5,7,3,3,3,2,2,7,6,7,2,3,3,6,5,6,5,3,2,4,3,7,4,6,2,3,2,2,5,5,3,4,3,5,5,6,2,6,2,6,5,2,1,1,1,2,2,5,1,6,4,2,6,5,4,3,3,6,6,1,4,7,6,1,4,4,7,6,5,3,1,4,1,1,2,5,5,5,3,6,7,5,7,1,6,5,3,2,3,6,1,3,2,7,4,2,2,4,4,5,4,3,3,5,3,2,5,2,5,3,2,4,5,3,6,2,4,3,6,4,5,1,5,1,2,3,2,6,6,6,4,4,2,2,7,5,7,7,7,2,5,4,7,5,4,5,4,7,4,6,3,7,3,3,5,4,6,7,7,2,3,7,4,7,5,2,6,2,1,1,4,5,3,4,2,5,2,4,3,2,3,5,4,4,5,7,1,5,6,7,1,5,6,3,2,5,5,3,6,4,6,2,2,4,4,7,3,4,6,7,2,3,7,7,1,1,7,5,7,7,6,1,5,4,6,7,1,2,5,2,2,7,3,5,5,4,3,4,2,1,5,1,1,2,1,3,6,5,5,2,7,2,2,2,7,5,4,6,6,6,6,1,7,1,7,2,3,5,4,3,7,2,1,4,1,5,6,6,3,7,3,4,7,1,5,3,6,2,3,4,4,3,1,7,4,5,6,3,4,3,7,6,4,6,7,3,4,7,7,3,3,1,7,6,3,4,3,6,3,3,3,5,2,3,7,5,4,7,6,6,6,7,3,6,4,2,2,4,5,7,7,7,6,3,1,3,4,4,7,6,2,4,6,1,2,1,5,4,6,3,6,2,6,1,2,1,4,1,7,1,6,6,1,6,4,4,3,1,7,2,7,4,5,4,7,5,5,3,7,6,1,1,5,6,4,4,4,3,5,7,1,4,4,5,5,3,1,5,3,5,6,4,4,3,6,1,3,6,2,4,7,2,2,6,1,4,2,1,3,1,6,4,1,5,5,1,1,4,2,3,7,5,1,5,1,1,1,5,2,2,1,3,7,4,2,7,2,4,7,3,2,1,2,6,2,1,6,6,6,6,7,2,3,1,2,6,2,4,4,6,2,3,3,6,7,2,1,5,4,6,7,2,6,4,4,3,1,3,4,6,4,2,4,2,7,4,6,3,6,6,2,6,3,3,6,5,3,2,2,7,1,4,1,4,3,6,5,6,2,1,5,3,3,2,6,6,2,2,5,3,2,5,5,2,4,5,2,6,2,7,2,3,1,2,5,5,1,7,1,1,6,6,1,2,7,4,1,7,3,4,3,1,3,7,5,7,6,6,7,6,5,3,4,4,2,5,3,5,5,5,1,3,6,1,2,6,5,5,3,3,3,1,5,2,5,3,4,2,2,2,4,3,4,5,3,2,3,7,1,3,6,3,1,4,5,4,7,7,7,4,1,1,1,2,5,4,2,2,4,1,7,7,7,4,2,2,7,6,2,7,6,5,7,1,7,5,4,2,2,2,1,4,5,3,1,7,5,3,1,2,3,2,3,2,6,3,6,4,6,5,1,3,7,3,4,2,7,5,7,7,3,7,4,2,4,1,1,6,3,7,2,7,3,6,4,5,3,5,5,3,6,6,6,2,2,4,4,3,6,5,1,2,2,3,7,7,1,6,5,2,2,7,7,7,2,4,4,6,1,2,5,7,7,7,4,5,5,1,3,5,5,5,2,5,6,5,1,5,5,4,6,2,3,7,3,3,4,2,6,5,6,4,4,1,7,1,7,3,7,5,1,3,5,7,1,7,6,4,6,4,2,3,1,1,3,5,7,7,6,1,3,7,4,3,7,5,4,1,4,4,6,3,7,6,7,6,6,5,4,4,7,3,2,2,6,3,1,3,1,5,2,7,5,5,2,6,7,6,7,1,6,6,1,7,3,6,6,5,5,3,6,2,6,3,4,1,4,7,3,7,1,2,5,4,6,1,2,7,2,1,7,3,6,5,4,4,2,2,6,2,3,1,1,4,6,5,3,6,7,6,4,7,4,1,1,4,3,2,3,7,7,1,4,1,6,5,1,3,4,5,2,3,2,6,6,1,5,2,6,5,7,2,7,1,5,2,4,4,6,7,2,1,2,6,3,4,4,3,7,6,2,6,4,1,5,3,2,6,6,3,5,2,6,3,7,1,6,4,6,2,7,2,4,7,2,7,1,4,3,7,6,5,3,4,2,1,3,5,5,4,5,4,7,5,2,4,1,5,5,3,7,2,1,7,7,4,2,5,1,1,3,4,2,3,1,7,1,5,4,4,1,6,6,2,3,7,4,6,6,5,6,7,1,4,4,4,3,7,3,2,1,6,4,3,4,4,7,7,1,5,6,6,3,4,7,5,7,6,3,5,5,2,3,6,2,3,7,3,7,7,5,6,3,2,2,5,2,6,6,2,5,7,5,7,6,1,4,1,6,5,1,7,2,4,4,3,3,4,7,7,3,1,5,3,5,1,1,3,5,1,1,5,2,2,4,5,3,6,1,2,3,7,5,4,1,7,1,3,3,3,1,7,7,5,7,5,2,7,3,3,6,7,5,4,2,6,3,6,3,3,6,6,4,5,2,5,3,1,7,7,3,5,4,4,4,7,5,3,4,4,2,4,7,1,2,7,2,1,7,3,7,4,6,1,7,2,5,4,3,7,3,1,4,3,7,2,4,7,1,5,4,2,5,5,4,2,7,3,2,3,6,6,7,3,3,5,7,6,2,6,5,2,3,3,2,1,6,1,3,2,6,2,4,1,5,5,5,2,3,2,7,3,5,7,7,4,2,5,5,5,1,1,3,6,4,6,7,3,1,1,1,5,6,3,3,7,1,3,1,4,2,5,1,6,3,6,7,1,1,6,5,1,5,2,4,7,5,7,3,1,1,6,1,1,4,5,4,6,4,5,5,2,6,2,3,4,3,3,4,6,7,3,2,4,1,6,3,6,4,2,4,2,1,4,5,2,6,2,6,6,1,3,6,2,6,4,4,2,4,3,2,3,3,4,2,3,2,2,6,5,5,5,1,3,2,6,5,7,2,1,3,2,4,4,2,2,2,7,3,4,1,7,1,3,4,7,1,2,6,4,7,6,4,1,3,6,6,2,5,6,7,6,2,1,1,1,7,1,7,4,7,1,7,1,7,2,5,3,4,7,4,4,6,3,3,5,2,7,6,3,5,5,7,4,1,5,4,5,5,3,6,1,5,7,1,4,4,5,1,5,3,5,3,7,4,6,7,6,1,1,5,3,3,3,3,2,3,6,3,4,5,3,1,1,6,1,7,2,5,1,7,2,7,5,4,2,1,6,6,4,1,3,1,1,7,2,5,7,5,7,2,4,7,1,2,2,3,6,2,6,7,6,6,7,7,3,7,1,2,3,1,7,1,1,7,3,3,5,3,1,6,6,5,7,4,7,4,5,6,3,1,2,3,5,4,2,2,3,5,3,7,1,3,6,2,6,4,6,3,3,5,2,5,4,6,4,1,3,5,4,1,7,1,1,1,6,2,1,7,6,1,3,2,3,3,5,3,4,3,6,1,4,5,1,5,3,6,7,1,4,2,3,7,5,1,6,4,2,6,1,1,2,5,7,1,3,6,3,7,1,6,4,4,5,5,5,1,1,3,3,2,4,5,5,5,5,5,3,4,1,2,6,3,1,3,5,6,3,2,7,3,2,2,2,1,2,3,3,4,3,3,4,5,2,7,3,3,4,1,4,7,1,4,1,1,1,1,6,3,1,5,4,2,6,5,6,6,4,7,1,7,3,7,6,4,1,7,2,7,1,3,2,3,3,4,4,4,7,5,5,1,3,6,7,7,2,4,7,6,1,5,1,6,7,4,2,3,3,6,4,3,5,5,5,3,3,2,1,1,4,5,6,1,1,7,7,2,4,2,4,2,6,5,3,4,6,6,5,1,1,4,2,3,5,1,5,7,2,5,7,1,1,6,2,7,2,5,1,7,4,5,6,1,4,6,4,2,7,7,5,3,1,3,4,5,1,2,1,6,7,1,3,6,6,7,1,2,4,2,3,7,1,4,5,6,6,3,1,4,2,3,3,2,5,3,2,7,5,4,4,4,5,5,7,3,7,4,1,7,1,5,4,4,3,1,5,3,2,1,7,3,5,7,6,4,5,4,6,1,6,7,7,2,6,3,3,2,4,3,6,5,4,3,2,5,7,7,6,7,6,5,4,4,4,5,5,1,5,2,6,3,7,2,2,2,7,3,2,6,2,2,4,3,4,7,2,1,4,6,5,3,1,1,5,1,1,6,2,3,4,1,3,4,2,3,6,3,7,6,1,2,6,3,2,1,3,3,2,5,7,5,1,3,7,3,2,3,6,1,7,4,6,5,6,7,6,1,5,6,4,2,7,7,5,3,2,6,4,5,1,4,3,2,6,6,4,6,5,7,6,2,1,4,2,1,1,4,6,3,4,7,5,5,7,7,5,2,4,5,2,1,2,1,3,2,5,4,1,3,1,5,6,7,2,7,7,5,7,5,6,4,4,5,3,3,3,3,3,7,2,6,5,5,4,5,6,2,7,1,2,1,3,3,6,2,3,5,6,3,2,7,6,6,5,1,1,2,2,2,6,3,6,3,1,7,7,2,2,7,7,6,6,6,3,3,4,6,4,3,7,6,7,5,3,5,7,7,6,6,4,6,1,3,4,6,1,3,1,5,6,4,6,7,3,3,7,5,5,2,6,2,3,5,1,2,5,1,6,6,7,3,5,2,4,1,1,7,2,4,6,2,3,1,7,1,4,1,7,4,6,7,3,3,2,4,1,1,7,4,2,2,3,7,7,4,4,3,5,3,5,4,4,2,6,6,2,2,7,3,7,6,6,3,3,6,4,2,4,5,6,5,3,2,5,7,7,7,6,6,4,7,7,1,1,3,7,6,5,4,6,1,7,5,1,3,5,3,3,5,7,6,6,4,6,2,5,6,5,1,7,2,7,2,2,7,7,3,6,6,7,4,2,2,3,5,3,7,7,2,4,3,7,3,5,5,1,1,6,4,2,6,6,7,7,3,5,1,6,2,6,7,6,3,7,5,7,6,2,1,2,2,1,3,5,6,2,5,5,3,5,1,2,3,5,5,7,3,6,7,2,3,3,6,2,4,4,4,6,4,3,7,6,5,2,6,1,6,2,5,4,7,3,4,6,6,5,6,5,6,2,6,3,3,7,6,5,5,5,2,3,1,5,7,5,6,5,4,2,6,5,5,2,4,3,5,7,4,4,2,4,5,7,6,2,7,6,7,2,2,4,3,1,5,6,1,4,4,5,6,5,1,5,4,3,4,6,5,4,1,1,3,4,2,7,7,3,6,5,6,7,4,7,2,6,4,2,1,1,4,6,1,7,5,6,5,3,6,5,5,5,2,3,3,3,3,7,2,2,6,5,7,1,1,1,4,5,2,4,5,5,3,5,7]},{"id":2,"name":"GroundDecals","type":"tilelayer","width":256,"height":192,"x":0,"y":0,"opacity":1,"visible":true,"data":[0,0,0,0,0,0,0,0,0,0,0,0,0,0,0,0,0,0,0,0,0,0,0,0,0,0,0,0,0,0,0,0,0,0,0,0,0,0,0,0,0,0,0,0,0,0,0,0,0,0,0,0,0,0,0,0,0,0,0,0,0,0,0,0,0,0,0,0,0,0,0,0,0,0,0,0,0,0,0,0,0,0,0,0,0,0,0,0,0,0,0,0,0,0,0,0,0,0,0,0,0,0,0,0,0,0,0,0,0,0,0,0,0,0,0,0,0,0,0,0,0,0,0,0,0,0,0,0,0,0,0,0,0,0,0,0,0,0,0,0,0,0,0,0,0,0,0,0,0,0,0,0,0,0,0,0,0,0,0,0,0,0,0,0,0,0,0,0,0,0,0,0,0,0,0,0,0,0,0,0,0,0,0,0,0,0,0,0,0,0,0,0,0,0,0,0,0,0,0,0,0,0,0,0,0,0,0,0,0,0,0,0,0,0,0,0,0,0,0,0,0,0,0,0,0,0,0,0,0,0,0,0,0,0,0,0,0,0,0,0,0,0,0,0,0,0,0,0,0,0,0,0,0,0,0,0,0,0,0,0,0,0,0,0,0,0,0,0,0,0,0,0,0,0,0,0,0,0,0,0,0,0,0,0,0,0,0,0,0,0,0,0,0,0,0,0,0,0,0,0,0,0,0,0,0,0,0,0,0,0,0,0,0,0,0,0,0,0,0,0,0,0,0,0,0,0,0,0,0,0,0,0,0,0,0,0,0,0,0,0,0,0,0,0,0,0,0,0,0,0,0,0,0,0,0,0,0,0,0,0,0,0,0,0,0,0,0,0,0,0,0,0,0,0,0,0,0,0,0,0,0,0,0,0,0,0,0,0,0,0,0,0,0,0,0,0,0,0,0,0,0,0,0,0,0,0,0,0,0,0,0,0,0,0,0,0,0,0,0,0,0,0,0,0,0,0,0,0,0,0,0,0,0,0,0,0,0,0,0,0,0,0,0,0,0,0,0,0,0,0,0,0,0,0,0,0,0,0,0,0,0,0,0,0,0,0,0,0,0,0,0,0,0,0,0,0,0,0,0,0,0,0,0,0,0,0,0,0,0,0,0,0,0,0,0,0,0,0,0,0,0,0,0,0,0,0,0,0,0,0,0,0,0,0,0,0,0,0,0,0,0,0,0,0,0,0,0,0,0,0,0,0,0,0,0,0,0,0,0,0,0,0,0,0,0,0,0,0,0,0,0,0,0,0,0,0,0,0,0,0,0,0,0,0,0,0,0,0,0,0,0,0,0,0,0,0,0,0,0,0,0,0,0,0,0,0,0,0,0,0,0,0,0,0,0,0,0,0,0,0,0,0,0,0,0,0,0,0,0,0,0,0,0,0,0,0,0,0,0,0,0,0,0,0,0,0,0,0,0,0,0,0,0,0,0,0,0,0,0,0,0,0,0,0,0,0,0,0,0,0,0,0,0,0,0,0,0,0,0,0,0,0,0,0,0,0,0,0,0,0,0,0,0,0,0,0,0,0,0,0,0,0,0,0,0,0,0,0,0,0,0,0,0,0,0,0,0,0,0,0,0,0,0,0,0,0,0,0,0,0,0,0,0,0,0,0,0,0,0,0,0,0,0,0,0,0,0,0,0,0,0,0,0,0,0,0,0,0,0,0,0,0,0,0,0,0,0,0,0,0,0,0,0,0,0,0,0,0,0,0,0,0,0,0,0,0,0,0,0,0,0,0,0,0,0,0,0,0,0,0,0,0,0,0,0,0,0,0,0,0,0,0,0,0,0,0,0,0,0,0,0,0,0,0,0,0,0,0,0,0,0,0,0,0,0,0,0,0,0,0,0,0,0,0,0,0,0,0,0,0,0,0,0,0,0,0,0,0,0,0,0,0,0,0,0,0,0,0,0,0,0,0,0,0,0,0,0,0,0,0,0,0,0,0,0,0,0,0,0,0,0,0,0,0,0,0,0,0,0,0,0,0,0,0,0,0,0,0,0,0,0,0,0,0,0,0,0,0,0,0,0,0,0,0,0,0,0,0,0,0,0,0,0,0,0,0,0,0,0,0,0,0,0,0,0,0,0,0,0,0,0,0,0,0,0,0,0,0,0,0,0,0,0,0,0,0,0,0,0,0,0,0,0,0,0,0,0,0,0,0,0,0,0,0,0,0,0,0,0,0,0,0,0,0,0,0,0,0,0,0,0,0,0,0,0,0,0,0,0,0,0,0,0,0,0,0,0,0,0,0,0,0,0,0,0,0,0,0,0,0,0,0,0,0,0,0,0,0,0,0,0,0,0,0,0,0,0,0,0,0,0,0,0,0,0,0,0,0,0,0,0,0,0,0,0,0,0,0,0,0,0,0,0,0,0,0,0,0,0,0,0,0,0,0,0,0,0,0,0,0,0,0,0,0,0,0,0,0,0,0,0,0,0,0,0,0,0,0,0,0,0,0,0,0,0,0,0,0,0,0,0,0,0,0,0,0,0,0,0,0,0,0,0,0,0,0,0,0,0,0,0,0,0,0,0,0,0,0,0,0,0,0,0,0,0,0,0,0,0,0,0,0,0,0,0,0,0,0,0,0,0,0,0,0,0,0,0,0,0,0,0,0,0,0,0,0,0,0,0,0,0,0,0,0,0,0,0,0,0,0,0,0,0,0,0,0,0,0,0,0,0,0,0,0,0,0,0,0,0,0,0,0,0,0,0,0,0,0,0,0,0,0,0,0,0,0,0,0,0,0,0,0,0,0,0,0,0,0,0,0,0,0,0,0,0,0,0,0,0,0,0,0,0,0,0,0,0,0,0,0,0,0,0,0,0,0,0,0,0,0,0,0,0,0,0,0,0,0,0,0,0,0,0,0,0,0,0,0,0,0,0,0,0,0,0,0,0,0,0,0,0,0,0,0,0,0,0,0,0,0,0,0,0,0,0,0,0,0,0,0,0,0,0,0,0,0,0,0,0,0,0,0,0,0,0,0,0,0,0,0,0,0,0,0,0,0,0,0,0,0,0,0,0,0,0,0,0,0,0,0,0,0,0,0,0,0,0,0,0,0,0,0,0,0,0,0,0,0,0,0,0,0,0,0,0,0,0,0,0,0,0,0,0,0,0,0,0,0,0,0,0,0,0,0,0,0,0,0,0,0,0,0,0,0,0,0,0,0,0,0,0,0,0,0,0,0,0,0,0,0,0,0,0,0,0,0,0,0,0,0,0,0,0,0,0,0,0,0,0,0,0,0,0,0,0,0,0,0,0,0,0,0,0,0,0,0,0,0,0,0,0,0,0,0,0,0,0,0,0,0,0,0,0,0,0,0,0,0,0,0,0,0,0,0,0,0,0,0,0,0,0,0,0,0,0,0,0,0,0,0,0,0,0,0,0,0,0,0,0,0,0,0,0,0,0,0,0,0,0,0,0,0,0,0,0,0,0,0,0,0,0,0,0,0,0,0,0,0,0,0,0,0,0,0,0,0,0,0,0,0,0,0,0,0,0,0,0,0,0,0,0,0,0,0,0,0,0,0,0,0,0,0,0,0,0,0,0,0,0,0,0,0,0,0,0,0,0,0,0,0,0,0,0,0,0,0,0,0,0,0,0,0,0,0,0,0,0,0,0,0,0,0,0,0,0,0,0,0,0,0,0,0,0,0,0,0,0,0,0,0,0,0,0,0,0,0,0,0,0,0,0,0,0,0,0,0,0,0,0,0,0,0,0,0,0,0,0,0,0,0,0,0,0,0,0,0,0,0,0,0,0,0,0,0,0,0,0,0,0,0,0,0,0,0,0,0,0,0,0,0,0,0,0,0,0,0,0,0,0,0,0,0,0,0,0,0,0,0,0,0,0,0,0,0,0,0,0,0,0,0,0,0,0,0,0,0,0,0,0,0,0,0,0,0,0,0,0,0,0,0,0,0,0,0,0,0,0,0,0,0,0,0,0,0,0,0,0,0,0,0,0,0,0,0,0,0,0,0,0,0,0,0,0,0,0,0,0,0,0,0,0,0,0,0,0,0,0,0,0,0,0,0,0,0,0,0,0,0,0,0,0,0,0,0,0,0,0,0,0,0,0,0,0,0,0,0,0,0,0,0,0,0,0,0,0,0,0,0,0,0,0,0,0,0,0,0,0,0,0,0,0,0,0,0,0,0,0,0,0,0,0,0,0,0,0,0,0,0,0,0,0,0,0,0,0,0,0,0,0,0,0,0,0,0,0,0,0,0,0,0,0,0,0,0,0,0,0,0,0,0,0,0,0,0,0,0,0,0,0,0,0,0,0,0,0,0,0,0,0,0,0,0,0,0,0,0,0,0,0,0,0,0,0,0,0,0,0,0,0,0,0,0,0,0,0,0,0,0,0,0,0,0,0,0,0,0,0,0,0,0,0,0,0,0,0,0,0,0,0,0,0,0,0,0,0,0,0,0,0,0,0,0,0,0,0,0,0,0,0,0,0,0,0,0,0,0,0,0,0,0,0,0,0,0,0,0,0,0,0,0,0,0,0,0,0,0,0,0,0,0,0,0,0,0,0,0,0,0,0,0,0,0,0,0,0,0,0,0,0,0,0,0,0,0,0,0,0,0,0,0,0,0,0,0,0,0,0,0,0,0,0,0,0,0,0,0,0,0,0,0,0,0,0,0,0,0,0,0,0,0,0,0,0,0,0,0,0,0,0,0,0,0,0,0,0,0,0,0,0,0,0,0,0,0,0,0,0,0,0,0,0,0,0,0,0,0,0,0,0,0,0,0,0,0,0,0,0,0,0,0,0,0,0,0,0,0,0,0,0,0,0,0,0,0,0,0,0,0,0,0,0,0,0,0,0,0,0,0,0,0,0,0,0,0,0,0,0,0,0,0,0,0,0,0,0,0,0,0,0,0,0,0,0,0,0,0,0,0,0,0,0,0,0,0,0,0,0,0,0,0,0,0,0,0,0,0,0,0,0,0,0,0,0,0,0,0,0,0,0,0,0,0,0,0,0,0,0,0,0,0,0,0,0,0,0,0,0,0,0,0,0,0,0,0,0,0,0,0,0,0,0,0,0,0,0,0,0,0,0,0,0,0,0,0,0,0,0,0,0,0,0,0,0,0,0,0,0,0,0,0,0,0,0,0,0,0,0,0,0,0,0,0,0,0,0,0,0,0,0,0,0,0,0,0,0,0,0,0,0,0,0,0,0,0,0,0,0,0,0,0,0,0,0,0,0,0,0,0,0,0,0,0,0,0,0,0,0,0,0,0,0,0,0,0,0,0,0,0,0,0,0,0,0,0,0,0,0,0,0,0,0,0,0,0,0,0,0,0,0,0,0,0,0,0,0,0,0,0,0,0,0,0,0,0,0,0,0,0,0,0,0,0,0,0,0,0,0,0,0,0,0,0,0,0,0,0,0,0,0,0,0,0,0,0,0,0,0,0,0,0,0,0,0,0,0,0,0,0,0,0,0,0,0,0,0,0,0,0,0,0,0,0,0,0,0,0,0,0,0,0,0,0,0,0,0,0,0,0,0,0,0,0,0,0,0,0,0,0,0,0,0,0,0,0,0,0,0,0,0,0,0,0,0,0,0,0,0,0,0,0,0,0,0,0,0,0,0,0,0,0,0,0,0,0,0,0,0,0,0,0,0,0,0,0,0,0,0,0,0,0,0,0,0,0,0,0,0,0,0,0,0,0,0,0,0,0,0,0,0,0,0,0,0,0,0,0,0,0,0,0,0,0,0,0,0,0,0,0,0,0,0,0,0,0,0,0,0,0,0,0,0,0,0,0,0,0,0,0,0,0,0,0,0,0,0,0,0,0,0,0,0,0,0,0,0,0,0,0,0,0,0,0,0,0,0,0,0,0,0,0,0,0,0,0,0,0,0,0,0,0,0,0,0,0,0,0,0,0,0,0,0,0,0,0,0,0,0,0,0,0,0,0,0,0,0,0,0,0,0,0,0,0,0,0,0,0,0,0,0,0,0,0,0,0,0,0,0,0,0,0,0,0,0,0,0,0,0,0,0,0,0,0,0,0,0,0,0,0,0,0,0,0,0,0,0,0,0,0,0,0,0,0,0,0,0,0,0,0,0,0,0,0,0,0,0,0,0,0,0,0,0,0,0,0,0,0,0,0,0,0,0,0,0,0,0,0,0,0,0,0,0,0,0,0,0,0,0,0,0,0,0,0,0,0,0,0,0,0,0,0,0,0,0,0,0,0,0,0,0,0,0,0,0,0,0,0,0,0,0,0,0,0,0,0,0,0,0,0,0,0,0,0,0,0,0,0,0,0,0,0,0,0,0,0,0,0,0,0,0,0,0,0,0,0,0,0,0,0,0,0,0,0,0,0,0,0,0,0,0,0,0,0,0,0,0,0,0,0,0,0,0,0,0,0,0,0,0,0,0,0,0,0,0,0,0,0,0,0,0,0,0,0,0,0,0,0,0,0,0,0,0,0,0,0,0,0,0,0,0,0,0,0,0,0,0,0,0,0,0,0,0,0,0,0,0,0,0,0,0,0,0,0,0,0,0,0,0,0,0,0,0,0,0,0,0,0,0,0,0,0,0,0,0,0,0,0,0,0,0,0,0,0,0,0,0,0,0,0,0,0,0,0,0,0,0,0,0,0,0,0,0,0,0,0,0,0,0,0,0,0,0,0,0,0,0,0,0,0,0,0,0,0,0,0,0,0,0,0,0,0,0,0,0,0,0,0,0,0,0,0,0,0,0,0,0,0,0,0,0,0,0,0,0,0,0,0,0,0,0,0,0,0,0,0,0,0,0,0,0,0,0,0,0,0,0,0,0,0,0,0,0,0,0,0,0,0,0,0,0,0,0,0,0,0,0,0,0,0,0,0,0,0,0,0,0,0,0,0,0,0,0,0,0,0,0,0,0,0,0,0,0,0,0,0,0,0,0,0,0,0,0,0,0,0,0,0,0,0,0,0,0,0,0,0,0,0,0,0,0,0,0,0,0,0,0,0,0,0,0,0,0,0,0,0,0,0,0,0,0,0,0,0,0,0,0,0,0,0,0,0,0,0,0,0,0,0,0,0,0,0,0,0,0,0,0,0,0,0,0,0,0,0,0,0,0,0,0,0,0,0,0,0,0,0,0,0,0,0,0,0,0,0,0,0,0,0,0,0,0,0,0,0,0,0,0,0,0,0,0,0,0,0,0,0,0,0,0,0,0,0,0,0,0,0,0,0,0,0,0,0,0,0,0,0,0,0,0,0,0,0,0,0,0,0,0,0,0,0,0,0,0,0,0,0,0,0,0,0,0,0,0,0,0,0,0,0,0,0,0,0,0,0,0,0,0,0,0,0,0,0,0,0,0,0,0,0,0,0,0,0,0,0,0,0,0,0,0,0,0,0,0,0,0,0,0,0,0,0,0,0,0,0,0,0,0,0,0,0,0,0,0,0,0,0,0,0,0,0,0,0,0,0,0,0,0,0,0,0,0,0,0,0,0,0,0,0,0,0,0,0,0,0,0,0,0,0,0,0,0,0,0,0,0,0,0,0,0,0,0,0,0,0,0,0,0,0,0,0,0,0,0,0,0,0,0,0,0,0,0,0,0,0,0,0,0,0,0,0,0,0,0,0,0,0,0,0,0,0,0,0,0,0,0,0,0,0,0,0,0,0,0,0,0,0,0,0,0,0,0,0,0,0,0,0,0,0,0,0,0,0,0,0,0,0,0,0,0,0,0,0,0,0,0,0,0,0,0,0,0,0,0,0,0,0,0,0,0,0,0,0,0,0,0,0,0,0,0,0,0,0,0,0,0,0,0,0,0,0,0,0,0,0,0,0,0,0,0,0,0,0,0,0,0,0,0,0,0,0,0,0,0,0,0,0,0,0,0,0,0,0,0,0,0,0,0,0,0,0,0,0,0,0,0,0,0,0,0,0,0,0,0,0,0,0,0,0,0,0,0,0,0,0,0,0,0,0,0,0,0,0,0,0,0,0,0,0,0,0,0,0,0,0,0,0,0,0,0,0,0,0,0,0,0,0,0,0,0,0,0,0,0,0,0,0,0,0,0,0,0,0,0,0,0,0,0,0,0,0,0,0,0,0,0,0,0,0,0,0,0,0,0,0,0,0,0,0,0,0,0,0,0,0,0,0,0,0,0,0,0,0,0,0,0,0,0,0,0,0,0,0,0,0,0,0,0,0,0,0,0,0,0,0,0,0,0,0,0,0,0,0,0,0,0,0,0,0,0,0,0,0,0,0,0,0,0,0,0,0,0,0,0,0,0,0,0,0,0,0,0,0,0,0,0,0,0,0,0,0,0,0,0,0,0,0,0,0,0,0,0,0,0,0,0,0,0,0,0,0,0,0,0,0,0,0,0,0,0,0,0,0,0,0,0,0,0,0,0,0,0,0,0,0,0,0,0,0,0,0,0,0,0,0,0,0,0,0,0,0,0,0,0,0,0,0,0,0,0,0,0,0,0,0,0,0,0,0,0,0,0,0,0,0,0,0,0,0,0,0,0,0,0,0,0,0,0,0,0,0,0,0,0,0,0,0,0,0,0,0,0,0,0,0,0,0,0,0,0,0,0,0,0,0,0,0,0,0,0,0,0,0,0,0,0,0,0,0,0,0,0,0,0,0,0,0,0,0,0,0,0,0,0,0,0,0,0,0,0,0,0,0,0,0,0,0,0,0,0,0,0,0,0,0,0,0,0,0,0,0,0,0,0,0,0,0,0,0,0,0,0,0,0,0,0,0,0,0,0,0,0,0,0,0,0,0,0,0,0,0,0,0,0,0,0,0,0,0,0,0,0,0,0,0,0,0,0,0,0,0,0,0,0,0,0,0,0,0,0,0,0,0,0,0,0,0,0,0,0,0,0,0,0,0,0,0,0,0,0,0,0,0,0,0,0,0,0,0,0,0,0,0,0,0,0,0,0,0,0,0,0,0,0,0,0,0,0,0,0,0,0,0,0,0,0,0,0,0,0,0,0,0,0,0,0,0,0,0,0,0,0,0,0,0,0,0,0,0,0,0,0,0,0,0,0,0,0,0,0,0,0,0,0,0,0,0,0,0,0,0,0,0,0,0,0,0,0,0,0,0,0,0,0,0,0,0,0,0,0,0,0,0,0,0,0,0,0,0,0,0,0,0,0,0,0,0,0,0,0,0,0,0,0,0,0,0,0,0,0,0,0,0,0,0,0,0,0,0,0,0,0,0,0,0,0,0,0,0,0,0,0,0,0,0,0,0,0,0,0,0,0,0,0,0,0,0,0,0,0,0,0,0,0,0,0,0,0,0,0,0,0,0,0,0,0,0,0,0,0,0,0,0,0,0,0,0,0,0,0,0,0,0,0,0,0,0,0,0,0,0,0,0,0,0,0,0,0,0,0,0,0,0,0,0,0,0,0,0,0,0,0,0,0,0,0,0,0,0,0,0,0,0,0,0,0,0,0,0,0,0,0,0,0,0,0,0,0,0,0,0,0,0,0,0,0,0,0,0,0,0,0,0,0,0,0,0,0,0,0,0,0,0,0,0,0,0,0,0,0,0,0,0,0,0,0,0,0,0,0,0,0,0,0,0,0,0,0,0,0,0,0,0,0,0,0,0,0,0,0,0,0,0,0,0,0,0,0,0,0,0,0,0,0,0,0,0,0,0,0,0,0,0,0,0,0,0,0,0,0,0,0,0,0,0,0,0,0,0,0,0,0,0,0,0,0,0,0,0,0,0,0,0,0,0,0,0,0,0,0,0,0,0,0,0,0,0,0,0,0,0,0,0,0,0,0,0,0,0,0,0,0,0,0,0,0,0,0,0,0,0,0,0,0,0,0,0,0,0,0,0,0,0,0,0,0,0,0,0,0,0,0,0,0,0,0,0,0,0,0,0,0,0,0,0,0,0,0,0,0,0,0,0,0,0,0,0,0,0,0,0,0,0,0,0,0,0,0,0,0,0,0,0,0,0,0,0,0,0,0,0,0,0,0,0,0,0,0,0,0,0,0,0,0,0,0,0,0,0,0,0,0,0,0,0,0,0,0,0,0,0,0,0,0,0,0,0,0,0,0,0,0,0,0,0,0,0,0,0,0,0,0,0,0,0,0,0,0,0,0,0,0,0,0,0,0,0,0,0,0,0,0,0,0,0,0,0,0,0,0,0,0,0,0,0,0,0,0,0,0,0,0,0,0,0,0,0,0,0,0,0,0,0,0,0,0,0,0,0,0,0,0,0,0,0,0,0,0,0,0,0,0,0,0,0,0,0,0,0,0,0,0,0,0,0,0,0,0,0,0,0,0,0,0,0,0,0,0,0,0,0,0,0,0,0,0,0,0,0,0,0,0,0,0,0,0,0,0,0,0,0,0,0,0,0,0,0,0,0,0,0,0,0,0,0,0,0,0,0,0,0,0,0,0,0,0,0,0,0,0,0,0,0,0,0,0,0,0,0,0,0,0,0,0,0,0,0,0,0,0,0,0,0,0,0,0,0,0,0,0,0,0,0,0,0,0,0,0,0,0,0,0,0,0,0,0,0,0,0,0,0,0,0,0,0,0,0,0,0,0,0,0,0,0,0,0,0,0,0,0,0,0,0,0,0,0,0,0,0,0,0,0,0,0,0,0,0,0,0,0,0,0,0,0,0,0,0,0,0,0,0,0,0,0,0,0,0,0,0,0,0,0,0,0,0,0,0,0,0,0,0,0,0,0,0,0,0,0,0,0,0,0,0,0,0,0,0,0,0,0,0,0,0,0,0,0,0,0,0,0,0,0,0,0,0,0,0,0,0,0,0,0,0,0,0,0,0,0,0,0,0,0,0,0,0,0,0,0,0,0,0,0,0,0,0,0,0,0,0,0,0,0,0,0,0,0,0,0,0,0,0,0,0,0,0,0,0,0,0,0,0,0,0,0,0,0,0,0,0,0,0,0,0,0,0,0,0,0,0,0,0,0,0,0,0,0,0,0,0,0,0,0,0,0,0,0,0,0,0,0,0,0,0,0,0,0,0,0,0,0,0,0,0,0,0,0,0,0,0,0,0,0,0,0,0,0,0,0,0,0,0,0,0,0,0,0,0,0,0,0,0,0,0,0,0,0,0,0,0,0,0,0,0,0,0,0,0,0,0,0,0,0,0,0,0,0,0,0,0,0,0,0,0,0,0,0,0,0,0,0,0,0,0,0,0,0,0,0,0,0,0,0,0,0,0,0,0,0,0,0,0,0,0,0,0,0,0,0,0,0,0,0,0,0,0,0,0,0,0,0,0,0,0,0,0,0,0,0,0,0,0,0,0,0,0,0,0,0,0,0,0,0,0,0,0,0,0,0,0,0,0,0,0,0,0,0,0,0,0,0,0,0,0,0,0,0,0,0,0,0,0,0,0,0,0,0,0,0,0,0,0,0,0,0,0,0,0,0,0,0,0,0,0,0,0,0,0,0,0,0,0,0,0,0,0,0,0,0,0,0,0,0,0,0,0,0,0,0,0,0,0,0,0,0,0,0,0,0,0,0,0,0,0,0,0,0,0,0,0,0,0,0,0,0,0,0,0,0,0,0,0,0,0,0,0,0,0,0,0,0,0,0,0,0,0,0,0,0,0,0,0,0,0,0,0,0,0,0,0,0,0,0,0,0,0,0,0,0,0,0,0,0,0,0,0,0,0,0,0,0,0,0,0,0,0,0,0,0,0,0,0,0,0,0,0,0,0,0,0,0,0,0,0,0,0,0,0,0,0,0,0,0,0,0,0,0,0,0,0,0,0,0,0,0,0,0,0,0,0,0,0,0,0,0,0,0,0,0,0,0,0,0,0,0,0,0,0,0,0,0,0,0,0,0,0,0,0,0,0,0,0,0,0,0,0,0,0,0,0,0,0,0,0,0,0,0,0,0,0,0,0,0,0,0,0,0,0,0,0,0,0,0,0,0,0,0,0,0,0,0,0,0,0,0,0,0,0,0,0,0,0,0,0,0,0,0,0,0,0,0,0,0,0,0,0,0,0,0,0,0,0,0,0,0,0,0,0,0,0,0,0,0,0,0,0,0,0,0,0,0,0,0,0,0,0,0,0,0,0,0,0,0,0,0,0,0,0,0,0,0,0,0,0,0,0,0,0,0,0,0,0,0,0,0,0,0,0,0,0,0,0,0,0,0,0,0,0,0,0,0,0,0,0,0,0,0,0,0,0,0,0,0,0,0,0,0,0,0,0,0,0,0,0,0,0,0,0,0,0,0,0,0,0,0,0,0,0,0,0,0,0,0,0,0,0,0,0,0,0,0,0,0,0,0,0,0,0,0,0,0,0,0,0,0,0,0,0,0,0,0,0,0,0,0,0,0,0,0,0,0,0,0,0,0,0,0,0,0,0,0,0,0,0,0,0,0,0,0,0,0,0,0,0,0,0,0,0,0,0,0,0,0,0,0,0,0,0,0,0,0,0,0,0,0,0,0,0,0,0,0,0,0,0,0,0,0,0,0,0,0,0,0,0,0,0,0,0,0,0,0,0,0,0,0,0,0,0,0,0,0,0,0,0,0,0,0,0,0,0,0,0,0,0,0,0,0,0,0,0,0,0,0,0,0,0,0,0,0,0,0,0,0,0,0,0,0,0,0,0,0,0,0,0,0,0,0,0,0,0,0,0,0,0,0,0,0,0,0,0,0,0,0,0,0,0,0,0,0,0,0,0,0,0,0,0,0,0,0,0,0,0,0,0,0,0,0,0,0,0,0,0,0,0,0,0,0,0,0,0,0,0,0,0,0,0,0,0,0,0,0,0,0,0,0,0,0,0,0,0,0,0,0,0,0,0,0,0,0,0,0,0,0,0,0,0,0,0,0,0,0,0,0,0,0,0,0,0,0,0,0,0,0,0,0,0,0,0,0,0,0,0,0,0,0,0,0,0,0,0,0,0,0,0,0,0,0,0,0,0,0,0,0,0,0,0,0,0,0,0,0,0,0,0,0,0,0,0,0,0,0,0,0,0,0,0,0,0,0,0,0,0,0,0,0,0,0,0,0,0,0,0,0,0,0,0,0,0,0,0,0,0,0,0,0,0,0,0,0,0,0,0,0,0,0,0,0,0,0,0,0,0,0,0,0,0,0,0,0,0,0,0,0,0,0,0,0,0,0,0,0,0,0,0,0,0,0,0,0,0,0,0,0,0,0,0,0,0,0,0,0,0,0,0,0,0,0,0,0,0,0,0,0,0,0,0,0,0,0,0,0,0,0,0,0,0,0,0,0,0,0,0,0,0,0,0,0,0,0,0,0,0,0,0,0,0,0,0,0,0,0,0,0,0,0,0,0,0,0,0,0,0,0,0,0,0,0,0,0,0,0,0,0,0,0,0,0,0,0,0,0,0,0,0,0,0,0,0,0,0,0,0,0,0,0,0,0,0,0,0,0,0,0,0,0,0,0,0,0,0,0,0,0,0,0,0,0,0,0,0,0,0,0,0,0,0,0,0,0,0,0,0,0,0,0,0,0,0,0,0,0,0,0,0,0,0,0,0,0,0,0,0,0,0,0,0,0,0,0,0,0,0,0,0,0,0,0,0,0,0,0,0,0,0,0,0,0,0,0,0,0,0,0,0,0,0,0,0,0,0,0,0,0,0,0,0,0,0,0,0,0,0,0,0,0,0,0,0,0,0,0,0,0,0,0,0,0,0,0,0,0,0,0,0,0,0,0,0,0,0,0,0,0,0,0,0,0,0,0,0,0,0,0,0,0,0,0,0,0,0,0,0,0,0,0,0,0,0,0,0,0,0,0,0,0,0,0,0,0,0,0,0,0,0,0,0,0,0,0,0,0,0,0,0,0,0,0,0,0,0,0,0,0,0,0,0,0,0,0,0,0,0,0,0,0,0,0,0,0,0,0,0,0,0,0,0,0,0,0,0,0,0,0,0,0,0,0,0,0,0,0,0,0,0,0,0,0,0,0,0,0,0,0,0,0,0,0,0,0,0,0,0,0,0,0,0,0,0,0,0,0,0,0,0,0,0,0,0,0,0,0,0,0,0,0,0,0,0,0,0,0,0,0,0,0,0,0,0,0,0,0,0,0,0,0,0,0,0,0,0,0,0,0,0,0,0,0,0,0,0,0,0,0,0,0,0,0,0,0,0,0,0,0,0,0,0,0,0,0,0,0,0,0,0,0,0,0,0,0,0,0,0,0,0,0,0,0,0,0,0,0,0,0,0,0,0,0,0,0,0,0,0,0,0,0,0,0,0,0,0,0,0,0,0,0,0,0,0,0,0,0,0,0,0,0,0,0,0,0,0,0,0,0,0,0,0,0,0,0,0,0,0,0,0,0,0,0,0,0,0,0,0,0,0,0,0,0,0,0,0,0,0,0,0,0,0,0,0,0,0,0,0,0,0,0,0,0,0,0,0,0,0,0,0,0,0,0,0,0,0,0,0,0,0,0,0,0,0,0,0,0,0,0,0,0,0,0,0,0,0,0,0,0,0,0,0,0,0,0,0,0,0,0,0,0,0,0,0,0,0,0,0,0,0,0,0,0,0,0,0,0,0,0,0,0,0,0,0,0,0,0,0,0,0,0,0,0,0,0,0,0,0,0,0,0,0,0,0,0,0,0,0,0,0,0,0,0,0,0,0,0,0,0,0,0,0,0,0,0,0,0,0,0,0,0,0,0,0,0,0,0,0,0,0,0,0,0,0,0,0,0,0,0,0,0,0,0,0,0,0,0,0,0,0,0,0,0,0,0,0,0,0,0,0,0,0,0,0,0,0,0,0,0,0,0,0,0,0,0,0,0,0,0,0,0,0,0,0,0,0,0,0,0,0,0,0,0,0,0,0,0,0,0,0,0,0,0,0,0,0,0,0,0,0,0,0,0,0,0,0,0,0,0,0,0,0,0,0,0,0,0,0,0,0,0,0,0,0,0,0,0,0,0,0,0,0,0,0,0,0,0,0,0,0,0,0,0,0,0,0,0,0,0,0,0,0,0,0,0,0,0,0,0,0,0,0,0,0,0,0,0,0,0,0,0,0,0,0,0,0,0,0,0,0,0,0,0,0,0,0,0,0,0,0,0,0,0,0,0,0,0,0,0,0,0,0,0,0,0,0,0,0,0,0,0,0,0,0,0,0,0,0,0,0,0,0,0,0,0,0,0,0,0,0,0,0,0,0,0,0,0,0,0,0,0,0,0,0,0,0,0,0,0,0,0,0,0,0,0,0,0,0,0,0,0,0,0,0,0,0,0,0,0,0,0,0,0,0,0,0,0,0,0,0,0,0,0,0,0,0,0,0,0,0,0,0,0,0,0,0,0,0,0,0,0,0,0,0,0,0,0,0,0,0,0,0,0,0,0,0,0,0,0,0,0,0,0,0,0,0,0,0,0,0,0,0,0,0,0,0,0,0,0,0,0,0,0,0,0,0,0,0,0,0,0,0,0,0,0,0,0,0,0,0,0,0,0,0,0,0,0,0,0,0,0,0,0,0,0,0,0,0,0,0,0,0,0,0,0,0,0,0,0,0,0,0,0,0,0,0,0,0,0,0,0,0,0,0,0,0,0,0,0,0,0,0,0,0,0,0,0,0,0,0,0,0,0,0,0,0,0,0,0,0,0,0,0,0,0,0,0,0,0,0,0,0,0,0,0,0,0,0,0,0,0,0,0,0,0,0,0,0,0,0,0,0,0,0,0,0,0,0,0,0,0,0,0,0,0,0,0,0,0,0,0,0,0,0,0,0,0,0,0,0,0,0,0,0,0,0,0,0,0,0,0,0,0,0,0,0,0,0,0,0,0,0,0,0,0,0,0,0,0,0,0,0,0,0,0,0,0,0,0,0,0,0,0,0,0,0,0,0,0,0,0,0,0,0,0,0,0,0,0,0,0,0,0,0,0,0,0,0,0,0,0,0,0,0,0,0,0,0,0,0,0,0,0,0,0,0,0,0,0,0,0,0,0,0,0,0,0,0,0,0,0,0,0,0,0,0,0,0,0,0,0,0,0,0,0,0,0,0,0,0,0,0,0,0,0,0,0,0,0,0,0,0,0,0,0,0,0,0,0,0,0,0,0,0,0,0,0,0,0,0,0,0,0,0,0,0,0,0,0,0,0,0,0,0,0,0,0,0,0,0,0,0,0,0,0,0,0,0,0,0,0,0,0,0,0,0,0,0,0,0,0,0,0,0,0,0,0,0,0,0,0,0,0,0,0,0,0,0,0,0,0,0,0,0,0,0,0,0,0,0,0,0,0,0,0,0,0,0,0,0,0,0,0,0,0,0,0,0,0,0,0,0,0,0,0,0,0,0,0,0,0,0,0,0,0,0,0,0,0,0,0,0,0,0,0,0,0,0,0,0,0,0,0,0,0,0,0,0,0,0,0,0,0,0,0,0,0,0,0,0,0,0,0,0,0,0,0,0,0,0,0,0,0,0,0,0,0,0,0,0,0,0,0,0,0,0,0,0,0,0,0,0,0,0,0,0,0,0,0,0,0,0,0,0,0,0,0,0,0,0,0,0,0,0,0,0,0,0,0,0,0,0,0,0,0,0,0,0,0,0,0,0,0,0,0,0,0,0,0,0,0,0,0,0,0,0,0,0,0,0,0,0,0,0,0,0,0,0,0,0,0,0,0,0,0,0,0,0,0,0,0,0,0,0,0,0,0,0,0,0,0,0,0,0,0,0,0,0,0,0,0,0,0,0,0,0,0,0,0,0,0,0,0,0,0,0,0,0,0,0,0,0,0,0,0,0,0,0,0,0,0,0,0,0,0,0,0,0,0,0,0,0,0,0,0,0,0,0,0,0,0,0,0,0,0,0,0,0,0,0,0,0,0,0,0,0,0,0,0,0,0,0,0,0,0,0,0,0,0,0,0,0,0,0,0,0,0,0,0,0,0,0,0,0,0,0,0,0,0,0,0,0,0,0,0,0,0,0,0,0,0,0,0,0,0,0,0,0,0,0,0,0,0,0,0,0,0,0,0,0,0,0,0,0,0,0,0,0,0,0,0,0,0,0,0,0,0,0,0,0,0,0,0,0,0,0,0,0,0,0,0,0,0,0,0,0,0,0,0,0,0,0,0,0,0,0,0,0,0,0,0,0,0,0,0,0,0,0,0,0,0,0,0,0,0,0,0,0,0,0,0,0,0,0,0,0,0,0,0,0,0,0,0,0,0,0,0,0,0,0,0,0,0,0,0,0,0,0,0,0,0,0,0,0,0,0,0,0,0,0,0,0,0,0,0,0,0,0,0,0,0,0,0,0,0,0,0,0,0,0,0,0,0,0,0,0,0,0,0,0,0,0,0,0,0,0,0,0,0,0,0,0,0,0,0,0,0,0,0,0,0,0,0,0,0,0,0,0,0,0,0,0,0,0,0,0,0,0,0,0,0,0,0,0,0,0,0,0,0,0,0,0,0,0,0,0,0,0,0,0,0,0,0,0,0,0,0,0,0,0,0,0,0,0,0,0,0,0,0,0,0,0,0,0,0,0,0,0,0,0,0,0,0,0,0,0,0,0,0,0,0,0,0,0,0,0,0,0,0,0,0,0,0,0,0,0,0,0,0,0,0,0,0,0,0,0,0,0,0,0,0,0,0,0,0,0,0,0,0,0,0,0,0,0,0,0,0,0,0,0,0,0,0,0,0,0,0,0,0,0,0,0,0,0,0,0,0,0,0,0,0,0,0,0,0,0,0,0,0,0,0,0,0,0,0,0,0,0,0,0,0,0,0,0,0,0,0,0,0,0,0,0,0,0,0,0,0,0,0,0,0,0,0,0,0,0,0,0,0,0,0,0,0,0,0,0,0,0,0,0,0,0,0,0,0,0,0,0,0,0,0,0,0,0,0,0,0,0,0,0,0,0,0,0,0,0,0,0,0,0,0,0,0,0,0,0,0,0,0,0,0,0,0,0,0,0,0,0,0,0,0,0,0,0,0,0,0,0,0,0,0,0,0,0,0,0,0,0,0,0,0,0,0,0,0,0,0,0,0,0,0,0,0,0,0,0,0,0,0,0,0,0,0,0,0,0,0,0,0,0,0,0,0,0,0,0,0,0,0,0,0,0,0,0,0,0,0,0,0,0,0,0,0,0,0,0,0,0,0,0,0,0,0,0,0,0,0,0,0,0,0,0,0,0,0,0,0,0,0,0,0,0,0,0,0,0,0,0,0,0,0,0,0,0,0,0,0,0,0,0,0,0,0,0,0,0,0,0,0,0,0,0,0,0,0,0,0,0,0,0,0,0,0,0,0,0,0,0,0,0,0,0,0,0,0,0,0,0,0,0,0,0,0,0,0,0,0,0,0,0,0,0,0,0,0,0,0,0,0,0,0,0,0,0,0,0,0,0,0,0,0,0,0,0,0,0,0,0,0,0,0,0,0,0,0,0,0,0,0,0,0,0,0,0,0,0,0,0,0,0,0,0,0,0,0,0,0,0,0,0,0,0,0,0,0,0,0,0,0,0,0,0,0,0,0,0,0,0,0,0,0,0,0,0,0,0,0,0,0,0,0,0,0,0,0,0,0,0,0,0,0,0,0,0,0,0,0,0,0,0,0,0,0,0,0,0,0,0,0,0,0,0,0,0,0,0,0,0,0,0,0,0,0,0,0,0,0,0,0,0,0,0,0,0,0,0,0,0,0,0,0,0,0,0,0,0,0,0,0,0,0,0,0,0,0,0,0,0,0,0,0,0,0,0,0,0,0,0,0,0,0,0,0,0,0,0,0,0,0,0,0,0,0,0,0,0,0,0,0,0,0,0,0,0,0,0,0,0,0,0,0,0,0,0,0,0,0,0,0,0,0,0,0,0,0,0,0,0,0,0,0,0,0,0,0,0,0,0,0,0,0,0,0,0,0,0,0,0,0,0,0,0,0,0,0,0,0,0,0,0,0,0,0,0,0,0,0,0,0,0,0,0,0,0,0,0,0,0,0,0,0,0,0,0,0,0,0,0,0,0,0,0,0,0,0,0,0,0,0,0,0,0,0,0,0,0,0,0,0,0,0,0,0,0,0,0,0,0,0,0,0,0,0,0,0,0,0,0,0,0,0,0,0,0,0,0,0,0,0,0,0,0,0,0,0,0,0,0,0,0,0,0,0,0,0,0,0,0,0,0,0,0,0,0,0,0,0,0,0,0,0,0,0,0,0,0,0,0,0,0,0,0,0,0,0,0,0,0,0,0,0,0,0,0,0,0,0,0,0,0,0,0,0,0,0,0,0,0,0,0,0,0,0,0,0,0,0,0,0,0,0,0,0,0,0,0,0,0,0,0,0,0,0,0,0,0,0,0,0,0,0,0,0,0,0,0,0,0,0,0,0,0,0,0,0,0,0,0,0,0,0,0,0,0,0,0,0,0,0,0,0,0,0,0,0,3220,0,0,0,0,0,0,0,0,0,0,0,0,0,0,0,0,0,0,0,0,0,0,0,0,0,0,0,0,0,0,0,0,0,0,0,0,0,0,0,0,0,0,0,0,0,0,0,0,0,0,0,0,0,0,0,0,0,0,0,0,0,0,0,0,0,0,0,0,0,0,0,0,0,0,0,0,0,0,0,0,0,0,0,0,0,0,0,0,0,0,0,0,0,0,0,0,0,0,0,0,0,0,0,0,0,0,0,0,0,0,0,0,0,0,0,0,0,0,0,0,0,0,0,0,0,0,0,0,0,0,0,0,0,0,0,0,0,0,0,0,0,0,0,0,0,0,0,0,0,0,0,0,0,0,0,0,0,0,0,0,0,0,0,0,0,0,0,0,0,0,0,0,0,0,0,0,0,0,0,0,0,0,0,0,0,0,0,0,0,0,0,0,0,0,0,0,0,0,0,0,0,0,0,0,0,0,0,0,0,0,0,0,0,0,0,0,0,0,0,0,0,0,0,0,0,0,0,0,0,0,0,0,0,0,0,0,0,0,0,0,0,0,0,0,0,0,0,0,0,0,0,0,0,0,0,0,0,0,0,0,0,0,0,0,0,0,0,0,0,0,0,0,0,0,0,0,0,0,0,0,0,0,0,0,0,0,0,0,0,0,0,0,0,0,0,0,0,0,0,0,0,0,0,0,0,0,0,0,0,0,0,0,0,0,0,0,0,0,0,0,0,0,0,0,0,0,0,0,0,0,0,0,0,0,0,0,0,0,0,0,0,0,0,0,0,0,0,0,0,0,0,0,0,0,0,0,0,0,0,0,0,0,0,0,0,0,0,0,0,0,0,0,0,0,0,0,0,0,0,0,0,0,0,0,0,0,0,0,0,0,0,0,0,0,0,0,0,0,0,0,0,0,0,0,0,0,0,0,0,0,0,0,0,0,0,0,0,0,0,0,0,0,0,0,0,0,0,0,0,0,0,0,0,0,0,0,0,0,0,0,0,0,0,0,0,0,0,0,0,0,0,0,0,0,0,0,0,0,0,0,0,0,0,0,0,0,0,0,0,0,0,0,0,0,0,0,0,0,0,0,0,0,0,0,0,0,0,0,0,0,0,0,0,0,0,0,0,0,0,0,0,0,0,0,0,0,0,0,0,0,3220,0,3222,0,0,3222,0,0,0,0,0,0,0,0,0,0,0,0,0,0,0,0,0,0,0,0,0,0,0,0,0,0,0,0,0,0,0,0,0,0,0,0,0,0,0,0,0,0,0,0,0,0,0,0,0,0,0,0,0,0,0,0,0,0,0,0,0,0,0,0,0,0,0,0,0,0,0,0,0,0,0,0,0,0,0,0,0,0,0,0,0,0,0,0,0,0,0,0,0,0,0,0,0,0,0,0,0,0,0,0,0,0,0,0,0,0,0,0,0,0,0,0,0,0,0,0,0,0,0,0,0,0,0,0,0,0,0,0,0,0,0,0,0,0,0,0,0,0,0,0,0,0,0,0,0,0,0,0,0,0,0,0,0,0,0,0,0,0,0,0,0,0,0,0,0,0,0,0,0,0,0,0,0,0,0,0,0,0,0,0,0,0,0,0,0,0,0,0,0,0,0,0,0,0,0,0,0,0,0,0,0,0,0,0,0,0,0,0,0,0,0,0,0,0,0,0,0,0,0,0,0,0,0,0,0,0,0,0,0,0,0,0,0,0,0,0,0,0,0,0,0,0,0,0,0,0,0,0,0,0,0,0,0,0,0,0,0,0,0,0,0,0,0,0,0,0,0,0,0,0,0,0,0,0,0,0,0,0,0,0,0,0,0,0,0,0,0,0,0,0,0,0,0,0,0,0,0,0,0,0,0,0,0,0,0,0,0,0,0,0,0,0,0,0,0,0,0,0,0,0,0,0,0,0,0,0,0,0,0,0,0,0,0,0,0,0,0,0,0,0,0,0,0,0,0,0,0,0,0,0,0,0,0,0,0,0,0,0,0,0,0,0,0,0,0,0,0,0,0,0,0,0,0,0,0,0,0,0,0,0,0,0,0,0,0,0,0,0,0,0,0,0,0,0,0,0,0,0,0,0,0,0,0,0,0,0,0,0,0,0,0,0,0,0,0,0,0,0,0,0,0,0,0,0,0,0,0,0,0,0,0,0,0,0,0,0,0,0,0,0,0,0,0,0,0,0,0,0,0,0,0,0,0,0,0,0,0,0,0,0,0,0,0,0,0,0,0,0,0,0,0,0,0,0,0,0,0,0,0,0,0,0,0,0,0,0,0,0,0,0,0,0,0,0,0,0,0,0,0,0,0,0,0,0,0,0,0,0,0,3224,0,0,0,3225,0,0,0,0,0,0,0,0,0,0,0,0,0,0,0,0,0,0,0,0,0,0,0,0,0,0,0,0,0,0,0,0,0,0,0,0,0,0,0,0,0,0,0,0,0,0,0,0,0,0,0,0,0,0,0,0,0,0,0,0,0,0,0,0,0,0,0,0,0,0,0,0,0,0,0,0,0,0,0,0,0,0,0,0,0,0,0,0,0,0,0,0,0,0,0,0,0,0,0,0,0,0,0,0,0,0,0,0,0,0,0,0,0,0,0,0,0,0,0,0,0,0,0,0,0,0,0,0,0,0,0,0,0,0,0,0,0,0,0,0,0,0,0,0,0,0,0,0,0,0,0,0,0,0,0,0,0,0,0,0,0,0,0,0,0,0,0,0,0,0,0,0,0,0,0,0,0,0,0,0,0,0,0,0,0,0,0,0,0,0,0,0,0,0,0,0,0,0,0,0,0,0,0,0,0,0,0,0,0,0,0,0,0,0,0,0,0,0,0,0,0,0,0,0,0,0,0,0,0,0,0,0,0,0,0,0,0,0,0,0,0,0,0,0,0,0,3225,0,0,0,0,0,0,0,0,0,0,0,0,0,0,0,0,0,0,0,0,0,0,0,0,0,0,0,0,0,0,0,0,0,0,0,0,0,0,0,0,0,0,0,0,0,0,0,0,0,0,0,0,0,0,0,0,0,0,0,0,0,0,0,0,0,0,0,0,0,0,0,0,0,0,0,0,0,0,0,0,0,0,0,0,0,0,0,0,0,0,0,0,0,0,0,0,0,0,0,0,0,0,0,0,0,0,0,0,0,0,0,0,0,0,0,0,0,0,0,0,0,0,0,0,0,0,0,0,0,0,0,0,0,0,0,0,0,0,0,0,0,0,0,0,0,0,0,0,0,0,0,0,0,0,0,0,0,0,0,0,0,0,0,0,0,0,0,0,0,0,0,0,0,0,0,0,0,0,0,0,0,0,0,0,0,0,0,0,0,0,0,0,0,0,0,0,0,0,0,0,0,0,0,0,0,0,0,0,0,0,0,0,0,0,0,0,0,0,0,0,0,0,0,0,0,0,0,0,0,0,0,0,0,0,0,0,0,0,0,0,0,0,0,0,0,0,0,0,0,0,0,0,0,0,0,0,3225,0,0,0,0,0,0,0,0,0,0,0,0,0,0,0,0,0,0,0,0,0,0,0,0,0,0,0,0,0,0,0,0,0,0,0,0,0,0,0,0,0,0,0,0,0,0,0,0,0,0,0,0,0,0,0,0,0,0,0,0,0,0,0,0,0,0,0,0,0,0,0,0,0,0,0,0,0,0,0,0,0,0,0,0,0,0,0,0,0,0,0,0,0,0,0,0,0,0,0,0,0,0,0,0,0,0,0,0,0,0,0,0,0,0,0,0,0,0,0,0,0,0,0,0,0,0,0,0,0,0,0,0,0,0,0,0,0,0,0,0,0,0,0,0,0,0,0,0,0,0,0,0,0,0,0,0,0,0,0,0,0,0,0,0,0,0,0,0,0,0,0,0,0,0,0,0,0,0,0,0,0,0,0,0,0,0,0,0,0,0,0,0,0,0,0,0,0,0,0,0,0,0,0,0,0,0,0,0,0,0,0,0,0,0,0,0,0,0,0,0,0,0,0,0,0,0,0,0,0,0,0,0,0,0,0,0,0,0,0,0,0,0,0,0,0,0,0,0,3221,0,0,0,0,0,0,3223,0,0,0,0,0,0,0,0,0,0,0,0,0,0,0,0,0,0,0,0,0,0,0,0,0,0,0,0,0,0,0,0,0,0,0,0,0,0,0,0,0,0,0,0,0,0,0,0,0,0,0,0,0,0,0,0,0,0,0,0,0,0,0,0,0,0,0,0,0,0,0,0,0,0,0,0,0,0,0,0,0,0,0,0,0,0,0,0,0,0,0,0,0,0,0,0,0,0,0,0,0,0,0,0,0,0,0,0,0,0,0,0,0,0,0,0,0,0,0,0,0,0,0,0,0,0,0,0,0,0,0,0,0,0,0,0,0,0,0,0,0,0,0,0,0,0,0,0,0,0,0,0,0,0,0,0,0,0,0,0,0,0,0,0,0,0,0,0,0,0,0,0,0,0,0,0,0,0,0,0,0,0,0,0,0,0,0,0,0,0,0,0,0,0,0,0,0,0,0,0,0,0,0,0,0,0,0,0,0,0,0,0,0,0,0,0,0,0,0,0,0,0,0,0,0,0,0,0,0,0,0,0,0,0,0,0,0,0,0,0,0,0,0,0,0,0,0,0,0,0,0,0,0,0,3220,0,0,0,0,0,0,0,0,0,3224,0,3225,0,3221,0,0,0,0,0,0,0,0,0,0,0,0,0,0,0,0,0,0,0,0,0,0,0,0,0,0,0,0,0,0,0,0,0,0,0,0,0,0,0,0,0,0,0,0,0,0,0,0,0,0,0,0,0,0,0,0,0,0,0,0,0,0,0,0,0,0,0,0,0,0,0,0,0,0,0,0,0,0,0,0,0,0,0,0,0,0,0,0,0,0,0,0,0,0,0,0,0,0,0,0,0,0,0,0,0,0,0,0,0,0,0,0,0,0,0,0,0,0,0,0,0,0,0,0,0,0,0,0,0,0,0,0,0,0,0,0,0,0,0,0,0,0,0,0,0,0,0,0,0,0,0,0,0,0,0,0,0,0,0,0,0,0,0,0,0,0,0,0,0,0,0,0,0,0,0,0,0,0,0,0,0,0,0,0,0,0,0,0,0,0,0,0,0,0,0,0,0,0,0,0,0,0,0,0,0,0,0,0,0,0,0,0,0,0,0,0,0,0,0,0,0,0,0,0,0,0,0,0,0,0,0,0,0,0,0,0,0,0,0,0,0,0,0,0,0,0,0,0,0,0,0,0,0,0,0,0,0,0,0,0,0,0,0,0,0,0,0,0,0,0,0,0,0,0,0,0,0,0,0,0,0,0,0,0,0,0,0,0,0,0,0,0,0,0,0,0,0,0,0,0,0,0,0,0,0,0,0,0,0,0,0,0,0,0,0,0,0,0,0,0,0,0,0,0,0,0,0,0,0,0,0,0,0,0,0,0,0,0,0,0,0,0,0,0,0,0,0,0,0,0,0,0,0,0,0,0,0,0,0,0,0,0,0,0,0,0,0,0,0,0,0,0,0,0,0,0,0,0,0,0,0,0,0,0,0,0,0,0,0,0,0,0,0,0,0,0,0,0,0,0,0,0,0,0,0,0,0,0,0,0,0,0,0,0,0,0,0,0,0,0,0,0,0,0,0,0,0,0,0,0,0,0,0,0,0,0,0,0,0,0,0,0,0,0,0,0,0,0,0,0,0,0,0,0,0,0,0,0,0,0,0,0,0,0,0,0,0,0,0,0,0,0,0,0,0,0,0,0,0,0,0,0,0,0,0,0,0,0,0,0,0,0,0,0,0,0,0,0,0,0,0,0,0,0,0,0,0,0,0,0,0,0,0,0,0,0,0,0,0,0,0,0,0,0,0,0,0,0,0,0,0,0,0,0,0,0,0,0,0,0,0,0,0,0,0,0,0,0,0,0,0,0,0,0,0,0,0,0,0,0,0,0,0,0,0,0,0,0,0,0,0,0,0,0,0,0,0,0,0,0,0,0,0,0,0,0,0,0,0,0,0,0,0,0,0,0,0,0,0,0,0,0,0,0,0,0,0,0,0,0,0,0,0,0,0,0,0,0,0,0,0,0,0,0,0,0,0,0,0,0,0,0,0,0,0,0,0,0,0,0,0,0,0,0,0,0,0,0,0,0,0,0,0,0,0,0,0,0,0,0,0,0,0,0,0,0,0,0,0,0,0,0,0,0,0,0,0,0,0,0,0,0,0,0,0,0,0,0,0,0,0,0,0,0,0,0,0,0,0,0,0,0,0,0,0,0,0,0,0,0,0,0,0,0,0,0,0,0,0,0,0,0,0,0,0,0,0,0,0,0,0,0,0,0,0,0,0,0,0,0,3223,3223,0,0,0,0,0,0,0,0,0,0,0,0,0,0,0,0,0,0,0,0,3224,0,0,0,0,0,0,0,0,0,3223,0,0,0,0,0,0,0,0,0,0,0,0,0,0,0,0,0,0,0,0,0,0,0,0,0,0,0,0,0,0,0,0,0,0,0,0,0,0,0,0,0,0,0,0,0,0,0,0,0,0,0,0,0,0,0,0,0,0,0,0,0,0,0,0,0,0,0,0,0,0,0,0,0,0,0,0,0,0,0,0,0,0,0,0,0,0,0,0,0,0,0,0,0,0,0,0,0,0,0,0,0,0,0,0,0,0,0,0,0,0,0,0,0,0,0,0,0,0,0,0,0,0,0,0,0,0,0,0,0,0,0,0,0,0,0,0,0,0,0,0,0,0,0,0,0,0,0,0,0,0,0,0,0,0,0,0,0,0,0,0,0,0,0,0,0,0,0,0,0,0,0,0,0,0,0,0,0,0,0,0,0,0,0,0,0,0,0,0,0,0,0,0,0,0,0,0,0,0,0,0,0,0,0,0,0,0,0,0,0,0,0,0,0,0,0,0,0,0,0,0,0,0,0,0,0,3224,0,0,0,0,0,0,0,0,0,0,0,0,0,0,0,0,0,0,0,0,0,0,0,0,0,0,0,0,0,0,0,0,0,0,0,0,0,0,0,0,0,0,0,0,0,0,0,0,0,0,0,0,0,0,0,0,0,0,0,0,0,0,0,0,0,0,0,0,0,0,0,0,0,0,0,0,0,0,0,0,0,0,0,0,0,0,0,0,0,0,0,0,0,0,0,0,0,0,0,0,0,0,0,0,0,0,0,0,0,0,0,0,0,0,0,0,0,0,0,0,0,0,0,0,0,0,0,0,0,0,0,0,0,0,0,0,0,0,0,0,0,0,0,0,0,0,0,0,0,0,0,0,0,0,0,0,0,0,0,0,0,0,0,0,0,0,0,0,0,0,0,0,0,0,0,0,0,0,0,0,0,0,0,0,0,0,0,0,0,0,0,0,0,0,0,0,0,0,0,0,0,0,0,0,0,0,0,0,0,0,0,0,0,0,0,0,0,0,0,0,0,0,0,0,0,0,0,0,0,0,0,0,0,0,0,0,0,0,0,0,0,0,0,0,0,0,0,0,0,0,0,0,3225,0,0,0,3223,0,0,0,0,0,0,0,0,0,0,0,0,0,0,0,0,0,3225,0,0,0,0,0,0,0,0,0,0,0,0,0,3220,0,0,0,0,0,0,0,0,0,0,0,0,0,0,0,0,0,0,0,0,0,0,0,0,0,0,0,0,0,0,0,0,0,0,0,0,0,0,0,0,0,0,0,0,0,0,0,0,0,0,0,0,0,0,0,0,0,0,0,0,0,0,0,0,0,0,0,0,0,0,0,0,0,0,0,0,0,0,0,0,0,0,0,0,0,0,0,0,0,0,0,0,0,0,0,0,0,0,0,0,0,0,0,0,0,0,0,0,0,0,0,0,0,0,0,0,0,0,0,0,0,0,0,0,0,0,0,0,0,0,0,0,0,0,0,0,0,0,0,0,0,0,0,0,0,0,0,0,0,0,0,0,0,0,0,0,0,0,0,0,0,0,0,0,0,0,0,0,0,0,0,0,0,0,0,0,0,0,0,0,0,0,0,0,0,0,0,0,0,0,0,0,0,0,0,0,0,0,0,0,0,0,0,0,0,0,0,0,0,0,3225,0,0,0,0,0,0,0,0,0,3222,0,3220,0,0,0,0,0,0,0,0,0,0,0,0,0,0,0,0,3223,0,0,0,0,0,0,0,0,0,0,0,0,0,0,0,0,0,0,0,0,0,0,0,0,0,0,0,0,0,0,0,0,0,0,0,0,0,0,0,0,0,0,0,0,0,0,0,0,0,0,0,0,0,0,0,0,0,0,0,0,0,0,0,0,0,0,0,0,0,0,0,0,0,0,0,0,0,0,0,0,0,0,0,0,0,0,0,0,0,0,0,0,0,0,0,0,0,0,0,0,0,0,0,0,0,0,0,0,0,0,0,0,0,0,0,0,0,0,0,0,0,0,0,0,0,0,0,0,0,0,0,0,0,0,0,0,0,0,0,0,0,0,0,0,0,0,0,0,0,0,0,0,0,0,0,0,0,0,0,0,0,0,0,0,0,0,0,0,0,0,0,0,0,0,0,0,0,0,0,0,0,0,0,0,0,0,0,0,0,0,0,0,0,0,0,0,0,0,0,0,0,0,0,0,0,0,0,0,0,0,0,0,0,0,0,0,0,0,0,0,0,0,0,0,0,0,0,0,0,0,0,0,0,0,0,0,0,0,0,0,0,0,0,0,0,0,0,0,0,0,0,0,0,0,0,0,0,0,0,0,0,0,0,0,0,0,0,0,0,0,0,0,0,0,0,0,0,0,0,0,0,0,0,0,0,0,0,0,0,0,0,0,0,0,0,0,0,0,0,0,0,0,0,0,0,0,0,0,0,0,0,0,0,0,0,0,0,0,0,0,0,0,0,0,0,0,0,0,0,0,0,0,0,0,0,0,0,0,0,0,0,0,0,0,0,0,0,0,0,0,0,0,0,0,0,0,0,0,0,0,0,0,0,0,0,0,0,0,0,0,0,0,0,0,0,0,0,0,0,0,0,0,0,0,0,0,0,0,0,0,0,0,0,0,0,0,0,0,0,0,0,0,0,0,0,0,0,0,0,0,0,0,0,0,0,0,0,0,0,0,0,0,0,0,0,0,0,0,0,0,0,0,0,0,0,0,0,0,0,0,0,0,0,0,0,0,0,0,0,0,0,0,0,0,0,0,0,0,0,0,0,0,0,0,0,0,0,0,0,0,0,0,0,0,0,0,0,0,0,0,0,0,0,0,0,0,0,0,0,0,0,0,0,0,0,0,0,0,0,0,0,0,3222,0,0,0,0,0,0,0,0,0,0,0,0,0,0,0,0,3223,0,0,0,0,3221,0,3225,0,0,0,0,3224,0,0,0,0,0,0,0,0,0,0,0,0,0,0,0,0,0,0,0,0,0,0,0,0,0,0,0,0,0,0,0,0,0,0,0,0,0,0,0,0,0,0,0,0,0,0,0,0,0,0,0,0,0,0,0,0,0,0,0,0,0,0,0,0,0,0,0,0,0,0,0,0,0,0,0,0,0,0,0,0,0,0,0,0,0,0,0,0,0,0,0,0,0,0,0,0,0,0,0,0,0,0,0,0,0,0,0,0,0,0,0,0,0,0,0,0,0,0,0,0,0,0,0,0,0,0,0,0,0,0,0,0,0,0,0,0,0,0,0,0,0,0,0,0,0,0,0,0,0,0,0,0,0,0,0,0,0,0,0,0,0,0,0,0,0,0,0,0,0,0,0,0,0,0,0,0,0,0,0,0,0,0,0,0,0,0,0,0,0,0,0,0,0,0,0,0,0,0,0,0,0,0,0,0,0,0,0,0,0,0,0,3220,0,0,0,0,0,0,0,0,0,0,0,0,0,0,3222,0,0,0,3225,0,3221,0,0,3224,0,0,0,0,0,0,0,3224,0,0,0,0,0,0,0,0,3225,0,0,3221,0,0,0,0,0,0,0,0,0,0,0,0,0,0,0,0,0,0,0,0,0,0,0,0,0,0,0,0,0,0,0,0,0,0,0,0,0,0,0,0,0,0,0,0,0,0,0,0,0,0,0,0,0,0,0,0,0,0,0,0,0,0,0,0,0,0,0,0,0,0,0,0,0,0,0,0,0,0,0,0,0,0,0,0,0,0,0,0,0,0,0,0,0,0,0,0,0,0,0,0,0,0,0,0,0,0,0,0,0,0,0,0,0,0,0,0,0,0,0,0,0,0,0,0,0,0,0,0,0,0,0,0,0,0,0,0,0,0,0,0,0,0,0,0,0,0,0,0,0,0,0,0,0,0,0,0,0,0,0,0,0,0,0,0,0,0,0,0,0,0,0,0,0,0,0,0,0,0,0,0,0,0,0,0,0,0,0,0,0,0,3222,0,0,3220,0,0,0,0,0,0,0,0,0,0,0,0,0,0,0,0,0,0,0,0,0,0,0,0,3221,0,3225,0,0,0,0,0,0,0,0,0,0,0,0,0,0,0,0,0,0,0,0,0,0,0,0,0,0,0,0,0,0,0,0,0,0,0,0,0,0,0,0,0,0,0,0,0,0,0,0,0,0,0,0,0,0,0,0,0,0,0,0,0,0,0,0,0,0,0,0,0,0,0,0,0,0,0,0,0,0,0,0,0,0,0,0,0,0,0,0,0,0,0,0,0,0,0,0,0,0,0,0,0,0,0,0,0,0,0,0,0,0,0,0,0,0,0,0,0,0,0,0,0,0,0,0,0,0,0,0,0,0,0,0,0,0,0,0,0,0,0,0,0,0,0,0,0,0,0,0,0,0,0,0,0,0,0,0,0,0,0,0,0,0,0,0,0,0,0,0,0,0,0,0,0,0,0,0,0,0,0,0,0,0,0,0,0,0,0,0,0,0,0,0,0,0,0,0,0,0,0,0,0,0,0,0,0,0,0,0,0,0,0,0,0,0,0,0,0,0,0,3223,0,0,0,0,0,0,0,0,0,0,0,3221,0,0,0,0,0,3224,0,0,0,0,0,0,0,0,0,0,0,3225,0,0,0,0,0,0,0,0,0,0,0,0,0,0,0,0,0,0,0,0,0,0,0,0,0,0,0,0,0,0,0,0,0,0,0,0,0,0,0,0,0,0,0,0,0,0,0,0,0,0,0,0,0,0,0,0,0,0,0,0,0,0,0,0,0,0,0,0,0,0,0,0,0,0,0,0,0,0,0,0,0,0,0,0,0,0,0,0,0,0,0,0,0,0,0,0,0,0,0,0,0,0,0,0,0,0,0,0,0,0,0,0,0,0,0,0,0,0,0,0,0,0,0,0,0,0,0,0,0,0,0,0,0,0,0,0,0,0,0,0,0,0,0,0,0,0,0,0,0,0,0,0,0,0,0,0,0,0,0,0,0,0,0,0,0,0,0,0,0,0,0,0,0,0,0,0,0,0,0,0,0,0,0,0,0,0,0,0,0,0,0,0,0,0,0,0,0,0,0,0,0,0,0,0,0,0,0,0,0,0,0,0,0,0,0,0,0,0,0,0,0,0,3221,0,0,0,0,0,0,0,0,0,0,0,0,0,3223,0,0,0,0,0,0,0,0,0,0,0,0,0,0,0,0,0,0,0,0,0,0,0,0,0,0,0,3225,0,0,0,0,0,0,0,0,0,0,0,0,0,0,0,0,0,0,0,0,0,0,0,0,0,0,0,0,0,0,0,0,0,0,0,0,0,0,0,0,0,0,0,0,0,0,0,0,0,0,0,0,0,0,0,0,0,0,0,0,0,0,0,0,0,0,0,0,0,0,0,0,0,0,0,0,0,0,0,0,0,0,0,0,0,0,0,0,0,0,0,0,0,0,0,0,0,0,0,0,0,0,0,0,0,0,0,0,0,0,0,0,0,0,0,0,0,0,0,0,0,0,0,0,0,0,0,0,0,0,0,0,0,0,0,0,0,0,0,0,0,0,0,0,0,0,0,0,0,0,0,0,0,0,0,0,0,0,0,0,0,0,0,0,0,0,0,0,0,0,0,0,0,0,0,0,0,0,0,0,0,0,0,0,0,0,0,0,0,0,0,0,0,0,0,0,0,0,0,0,0,0,0,0,0,0,0,0,0,0,0,0,0,0,0,3221,0,0,0,0,0,0,0,0,3221,3224,3221,0,0,3222,0,0,0,0,0,0,0,0,0,0,0,0,0,0,0,0,0,0,3224,0,0,0,0,0,0,0,0,0,0,0,0,0,0,0,0,0,0,3225,0,0,0,0,0,0,0,0,3223,0,0,0,0,0,3221,0,0,0,0,0,0,0,0,0,0,0,0,0,0,0,0,0,0,0,0,0,0,0,0,0,0,0,0,0,0,0,0,0,0,0,0,0,0,0,0,0,0,0,0,0,0,0,0,0,0,0,0,0,0,0,0,0,0,0,0,0,0,0,0,0,0,0,0,0,0,0,0,0,0,0,0,0,0,0,0,0,0,0,0,0,0,0,0,0,0,0,0,0,0,0,0,0,0,0,0,0,0,0,0,0,0,0,0,0,0,0,0,0,0,0,0,0,0,0,0,0,0,0,0,0,0,0,0,0,0,0,0,0,0,0,0,0,0,0,0,0,0,0,0,0,0,0,0,0,0,0,0,0,0,0,0,0,0,0,0,0,0,0,0,0,0,0,0,0,0,0,0,0,0,0,0,0,0,0,0,0,0,0,0,0,0,0,3222,3221,0,0,0,0,0,0,0,0,0,0,0,0,0,0,0,0,0,0,0,0,0,0,0,0,0,0,0,0,0,0,0,0,0,0,0,0,0,3222,0,0,0,0,0,0,0,0,0,0,0,3222,0,0,0,0,0,0,0,0,0,0,0,0,0,0,0,0,0,0,0,0,0,0,0,0,0,0,0,0,0,0,0,0,0,0,0,0,0,0,0,0,0,0,0,0,0,0,0,0,0,0,0,0,0,0,0,0,0,0,0,0,0,0,0,0,0,0,0,0,0,0,0,0,0,0,0,0,0,0,0,0,0,0,0,0,0,0,0,0,0,0,0,0,0,0,0,0,0,0,0,0,0,0,0,0,0,0,0,0,0,0,0,0,0,0,0,0,0,0,0,0,0,0,0,0,0,0,0,0,0,0,0,0,0,0,0,0,0,0,0,0,0,0,0,0,0,0,0,0,0,0,0,0,0,0,0,0,0,0,0,0,0,0,0,0,0,0,0,0,0,0,0,0,0,0,0,0,0,0,0,0,0,0,0,0,0,0,0,0,0,0,0,0,0,0,0,0,0,0,0,0,0,0,0,0,0,0,0,3221,0,0,0,0,0,0,0,0,0,0,0,0,0,0,0,0,0,0,0,0,0,0,3223,0,0,0,0,0,0,0,0,0,0,0,0,0,0,0,0,0,0,0,0,0,0,0,0,0,0,0,0,0,0,0,0,0,0,0,0,0,3224,0,0,0,0,0,0,0,0,0,0,0,0,0,0,0,0,0,0,0,0,0,0,0,0,0,0,0,0,0,0,0,0,0,0,0,0,0,0,0,0,0,0,0,0,0,0,0,0,0,0,0,0,0,0,0,0,0,0,0,0,0,0,0,0,0,0,0,0,0,0,0,0,0,0,0,0,0,0,0,0,0,0,0,0,0,0,0,0,0,0,0,0,0,0,0,0,0,0,0,0,0,0,0,0,0,0,0,0,0,0,0,0,0,0,0,0,0,0,0,0,0,0,0,0,0,0,0,0,0,0,0,0,0,0,0,0,0,0,0,0,0,0,0,0,0,0,0,0,0,0,0,0,0,0,0,0,0,0,0,0,0,0,0,0,0,0,0,0,0,0,0,0,0,0,0,0,0,0,0,0,0,0,0,0,0,0,0,0,0,0,0,0,0,0,3223,0,0,0,0,0,0,0,0,0,3222,0,3224,0,0,0,0,0,0,0,0,0,0,0,0,0,0,0,0,0,0,0,0,0,0,0,0,0,0,0,0,0,3225,0,3221,3224,0,0,0,0,0,0,3225,0,0,0,0,0,0,0,0,3224,0,3223,0,3220,0,0,0,0,0,0,0,0,0,0,0,0,0,0,0,0,0,0,0,0,0,0,0,0,0,0,0,0,0,0,0,0,0,0,0,0,0,0,0,0,0,0,0,0,0,0,0,0,0,0,0,0,0,0,0,0,0,0,0,0,0,0,0,0,0,0,0,0,0,0,0,0,0,0,0,0,0,0,0,0,0,0,0,0,0,0,0,0,0,0,0,0,0,0,0,0,0,0,0,0,0,0,0,0,0,0,0,0,0,0,0,0,0,0,0,0,0,0,0,0,0,0,0,0,0,0,0,0,0,0,0,0,0,0,0,0,0,0,0,0,0,0,0,0,0,0,0,0,0,0,0,0,0,0,0,0,0,0,0,0,0,0,0,0,0,0,0,0,0,0,0,0,0,0,0,0,0,0,0,0,0,0,0,0,3220,0,0,0,0,0,0,0,0,0,0,0,0,3220,0,0,0,0,0,0,0,0,0,0,0,0,0,0,0,0,0,0,0,0,0,0,0,0,0,0,0,0,0,0,0,0,0,0,0,0,0,0,0,0,0,0,0,0,0,0,0,0,0,0,0,0,0,0,0,0,0,0,0,0,0,0,0,0,0,0,0,0,0,0,0,0,0,0,0,0,0,0,0,0,0,0,0,0,0,0,0,0,0,0,0,0,0,0,0,0,0,0,0,0,0,0,0,0,0,0,0,0,0,0,0,0,0,0,0,0,0,0,0,0,0,0,0,0,0,0,0,0,0,0,0,0,0,0,0,0,0,0,0,0,0,0,0,0,0,0,0,0,0,0,0,0,0,0,0,0,0,0,0,0,0,0,0,0,0,0,0,0,0,0,0,0,0,0,0,0,0,0,0,0,0,0,0,0,0,0,0,0,0,0,0,0,0,0,0,0,0,0,0,0,0,0,0,0,0,0,0,0,0,0,0,0,0,0,0,0,0,0,0,0,0,0,0,0,0,0,0,0,0,0,0,0,0,0,0,0,0,0,0,0,0,0,0,0,0,3224,0,0,0,0,0,0,0,0,0,0,0,0,0,0,0,0,0,0,0,0,0,0,0,0,0,0,0,0,0,0,0,0,0,0,0,0,0,0,0,3225,0,0,0,0,0,0,0,0,0,0,0,0,0,0,0,0,0,0,0,0,0,3220,0,0,0,0,0,0,0,0,0,0,0,0,0,0,0,0,0,0,0,3221,0,0,0,0,0,0,0,0,0,0,0,0,0,0,0,0,0,0,0,0,0,0,0,0,0,0,0,0,0,0,0,0,0,0,0,0,0,0,0,0,0,0,0,0,0,0,0,0,0,0,0,0,0,0,0,0,0,0,0,0,0,0,0,0,0,0,0,0,0,0,0,0,0,0,0,0,0,0,0,0,0,0,0,0,0,0,0,0,0,0,0,0,0,0,0,0,0,0,0,0,0,0,0,0,0,0,0,0,0,0,0,0,0,0,0,0,0,0,0,0,0,0,0,0,0,0,0,0,0,0,0,0,0,0,0,0,0,0,0,0,0,0,0,0,0,0,0,0,0,0,0,0,0,0,0,0,0,0,0,0,0,0,0,0,0,0,0,0,0,0,3225,0,0,0,0,0,0,0,0,0,0,0,0,0,0,0,0,0,0,0,0,3225,0,0,0,0,0,0,0,3225,0,0,0,0,0,0,0,0,0,0,0,0,0,0,0,0,0,0,0,0,0,3220,0,0,0,0,0,0,0,0,0,0,0,0,0,0,0,0,0,0,0,0,0,0,0,0,3223,0,0,0,0,0,0,0,0,0,0,0,0,0,0,0,0,0,0,0,0,0,0,0,0,0,0,0,0,0,0,0,0,0,0,0,0,0,0,0,0,0,0,0,0,0,0,0,0,0,0,0,0,0,0,0,0,0,0,0,0,0,0,0,0,0,0,0,0,0,0,0,0,0,0,0,0,0,0,0,0,0,0,0,0,0,0,0,0,0,0,0,0,0,0,0,0,0,0,0,0,0,0,0,0,0,0,0,0,0,0,0,0,0,0,0,0,0,0,0,0,0,0,0,0,0,0,0,0,0,0,0,0,0,0,0,0,0,0,0,0,0,0,0,0,0,0,0,0,0,0,0,0,0,0,0,0,0,0,0,0,0,0,0,3220,0,0,0,0,0,0,0,0,0,0,0,0,3225,0,0,0,0,0,0,0,0,0,0,0,0,0,0,0,0,0,0,0,0,0,0,0,0,0,0,0,0,0,0,0,0,0,0,0,0,0,3220,0,0,0,0,0,0,3225,0,0,0,0,3220,0,0,0,0,0,0,0,0,0,0,0,0,0,3224,0,0,0,0,0,0,0,0,0,0,0,3223,0,0,0,0,0,0,0,0,0,0,0,0,0,0,0,0,0,0,0,0,0,0,0,0,0,0,0,0,0,0,0,0,0,0,0,0,0,0,0,0,0,0,0,0,0,0,0,0,0,0,0,0,0,0,0,0,0,0,0,0,0,0,0,0,0,0,0,0,0,0,0,0,0,0,0,0,0,0,0,0,0,0,0,0,0,0,0,0,0,0,0,0,0,0,0,0,0,0,0,0,0,0,0,0,0,0,0,0,0,0,0,0,0,0,0,0,0,0,0,0,0,0,0,0,0,0,0,0,0,0,0,0,0,0,0,0,0,0,0,0,0,0,0,0,0,0,0,0,0,0,0,0,0,0,0,0,0,0,0,0,0,0,0,0,0,0,0,0,0,0,0,0,0,0,0,0,0,0,0,0,0,0,0,0,0,0,0,0,0,0,0,0,0,3225,0,0,0,0,0,3223,0,0,0,0,0,0,0,0,0,3220,0,0,0,0,0,0,3221,0,0,0,0,0,0,0,0,0,0,0,0,0,0,0,0,0,0,3224,0,0,0,0,3221,0,0,0,0,0,0,0,0,0,0,0,0,0,0,0,0,0,0,0,0,0,0,0,0,0,0,0,0,0,0,0,0,0,0,0,0,0,0,0,0,0,0,0,0,0,0,0,0,0,0,0,0,0,0,0,0,0,0,0,0,0,0,0,0,0,0,0,0,0,0,0,0,0,0,0,0,0,0,0,0,0,0,0,0,0,0,0,0,0,0,0,0,0,0,0,0,0,0,0,0,0,0,0,0,0,0,0,0,0,0,0,0,0,0,0,0,0,0,0,0,0,0,0,0,0,0,0,0,0,0,0,0,0,0,0,0,0,0,0,0,0,0,0,0,0,0,0,0,0,0,0,0,0,0,0,0,0,0,0,0,0,0,0,0,0,0,0,0,0,0,0,0,0,0,0,0,0,0,0,0,0,0,0,0,0,0,0,0,0,0,0,0,0,0,0,0,0,0,0,0,0,0,0,0,0,0,0,0,0,0,0,0,0,0,0,0,0,0,0,0,0,0,3222,0,0,0,0,0,0,0,0,0,0,0,0,0,0,0,0,0,0,0,0,0,0,0,0,0,0,0,0,0,0,3224,0,3223,0,0,0,0,0,0,0,0,0,0,0,0,3223,0,0,0,3222,0,0,0,0,0,0,0,0,0,0,0,0,0,0,0,0,0,0,0,0,0,0,0,3222,0,0,0,0,0,0,0,0,0,0,0,0,0,0,0,0,0,0,0,0,0,0,0,0,0,0,0,0,0,0,0,0,0,0,0,0,0,0,0,0,0,0,0,0,0,0,0,0,0,0,0,0,0,0,0,0,0,0,0,0,0,0,0,0,0,0,0,0,0,0,0,0,0,0,0,0,0,0,0,0,0,0,0,0,0,0,0,0,0,0,0,0,0,0,0,0,0,0,0,0,0,0,0,0,0,0,0,0,0,0,0,0,0,0,0,0,0,0,0,0,0,0,0,0,0,0,0,0,0,0,0,0,0,0,0,0,0,0,0,0,3220,0,0,0,0,0,0,0,0,0,0,0,0,0,0,0,0,0,0,0,0,0,0,0,0,0,0,0,0,0,0,0,0,0,0,0,0,0,0,0,0,0,0,0,0,0,0,0,0,0,0,0,0,3221,0,0,0,0,0,0,0,0,3224,0,0,0,0,0,0,0,0,0,0,0,0,0,0,0,0,0,0,0,0,0,0,0,0,0,0,0,0,0,0,0,0,0,0,0,0,0,0,3222,0,0,3222,0,0,0,0,0,0,0,0,0,0,0,0,0,0,0,0,0,0,0,0,0,0,0,0,0,0,0,0,0,0,0,0,0,0,0,0,0,0,0,0,0,0,0,0,0,0,0,0,0,0,0,0,0,0,0,0,0,0,0,0,0,0,0,0,0,0,0,0,0,0,0,0,0,0,0,0,0,0,0,0,0,0,0,0,0,0,0,0,0,0,0,0,0,0,0,0,0,0,0,0,0,0,0,0,0,0,0,0,0,0,0,0,0,0,0,0,0,0,0,0,0,0,0,0,0,0,0,0,0,0,0,0,0,0,0,0,0,0,0,0,0,0,0,0,0,0,0,0,0,0,0,0,0,0,0,0,0,0,0,0,0,0,0,0,0,0,0,0,0,0,0,0,0,0,0,0,0,0,0,0,0,0,0,0,0,0,0,0,0,0,0,3223,0,0,0,0,0,0,0,0,3224,0,0,0,0,0,0,0,0,0,0,0,0,0,0,0,0,0,0,0,0,0,0,0,0,0,0,0,0,0,0,0,0,0,0,0,0,0,3223,0,0,0,0,0,0,0,0,0,0,0,0,0,0,0,0,0,0,0,0,0,0,0,0,0,0,0,0,0,0,0,0,0,0,0,0,0,0,0,0,0,0,0,0,0,0,0,0,0,0,0,0,0,0,0,0,0,0,0,0,0,0,0,0,0,0,0,0,0,0,0,0,0,0,0,0,0,0,0,0,0,0,0,0,0,0,0,0,0,0,0,0,0,0,0,0,0,0,0,0,0,0,0,0,0,0,0,0,0,0,0,0,0,0,0,0,0,0,0,0,0,0,0,0,0,0,0,0,0,0,0,0,0,0,0,0,0,0,0,0,0,0,0,0,0,0,0,0,0,0,0,0,0,0,0,0,0,0,0,0,3222,0,0,0,0,0,0,0,0,0,0,0,0,0,0,0,0,3225,0,0,0,0,0,0,0,0,0,0,0,0,0,0,0,0,0,0,0,0,0,0,0,0,0,0,0,0,3222,0,0,0,0,0,0,0,0,0,0,0,0,0,0,0,0,0,0,0,0,0,0,0,0,0,0,0,0,0,0,0,0,0,0,0,0,0,0,0,0,0,0,0,0,0,0,0,0,0,0,0,0,0,3223,3221,0,0,0,0,0,0,0,0,0,0,0,0,0,0,0,0,0,0,0,0,0,0,0,0,0,0,0,0,0,0,0,0,0,0,0,0,0,0,0,0,0,0,0,0,0,0,0,0,0,0,0,0,0,0,0,0,0,0,0,0,0,0,0,0,0,0,0,0,0,0,0,0,0,0,0,0,0,0,0,0,0,0,0,0,0,0,0,0,0,0,0,0,0,0,0,0,0,0,0,0,0,0,0,0,0,0,0,0,0,0,0,0,0,0,0,0,0,0,0,0,0,0,0,0,0,0,0,0,0,0,0,0,0,0,0,0,0,0,0,0,0,0,0,0,0,0,0,0,0,0,0,0,0,0,0,0,0,0,0,0,0,0,0,0,0,0,0,0,0,0,0,0,0,0,0,0,0,0,0,0,0,0,3221,0,0,0,3223,0,0,0,0,0,0,0,0,0,0,3221,0,0,0,0,0,0,0,0,0,3222,0,0,0,0,0,0,0,0,0,0,0,0,0,3224,0,0,0,0,0,0,0,0,0,0,0,0,0,0,0,0,0,0,0,0,0,0,0,0,0,0,0,0,0,3222,0,0,0,0,0,0,0,0,0,0,0,0,0,0,0,0,0,0,0,0,0,0,0,0,0,0,0,0,0,0,0,0,0,0,0,0,0,0,0,0,0,0,0,0,0,0,0,0,0,0,0,0,0,0,0,0,0,0,0,0,0,0,0,0,0,0,0,0,0,0,0,0,0,0,0,0,0,0,0,0,0,0,0,0,0,0,0,0,0,0,0,0,0,0,0,0,0,0,0,0,0,0,0,0,0,0,0,0,0,0,0,0,0,0,0,0,0,0,0,0,0,0,0,0,0,0,0,0,0,0,0,0,0,0,0,0,0,0,0,0,0,0,0,0,0,0,0,0,0,0,0,0,0,0,0,0,0,0,0,0,0,0,0,0,0,3225,0,0,0,0,0,0,0,0,0,0,0,0,0,0,0,0,0,3223,3222,0,0,0,0,0,0,0,0,0,0,0,0,0,0,0,0,0,0,0,3225,0,0,3223,0,0,0,0,0,0,0,0,0,0,0,0,0,0,0,0,0,0,0,0,0,0,0,0,0,0,0,0,0,0,0,0,0,0,0,0,0,0,0,0,0,0,0,0,0,3224,0,0,0,0,0,0,3223,0,0,0,0,0,0,0,0,0,3225,0,0,0,0,0,0,0,0,0,0,0,0,0,0,0,0,0,0,0,0,0,0,0,0,0,0,0,0,0,0,0,0,0,0,0,0,0,0,0,0,0,0,0,0,0,0,0,0,0,0,0,0,0,0,0,0,0,0,0,0,0,0,0,0,0,0,0,0,0,0,0,0,0,0,0,0,0,0,0,0,0,0,0,0,0,0,0,0,0,0,0,0,0,0,0,0,0,0,0,0,0,0,0,0,0,0,0,0,0,0,0,0,0,0,0,0,0,0,0,0,0,0,0,0,0,0,0,0,0,0,0,0,0,0,0,0,0,0,0,0,0,0,0,0,0,0,3225,0,0,0,0,3224,0,0,0,0,0,0,0,0,0,0,0,0,0,0,0,0,0,0,0,0,0,0,0,0,0,0,0,0,0,0,0,0,0,0,0,0,0,0,0,0,0,0,0,0,0,0,0,0,0,0,0,0,3221,0,0,0,0,0,0,0,3222,0,0,0,0,0,0,0,0,0,0,0,0,0,0,0,0,0,0,0,0,0,0,0,0,0,3224,0,0,0,0,0,0,0,0,0,0,0,0,3223,0,0,0,0,0,0,0,0,0,0,0,0,0,0,0,0,0,0,0,0,0,0,0,0,0,0,0,0,0,0,0,0,0,0,0,0,0,0,0,0,0,0,0,0,0,0,0,0,0,0,0,0,0,0,0,0,0,0,0,0,0,0,0,0,0,0,0,0,0,0,0,0,0,0,0,0,0,0,0,0,0,0,0,0,0,0,0,0,0,0,0,0,0,0,0,0,0,0,0,0,0,0,0,0,0,0,0,0,0,0,0,0,0,0,0,0,0,0,0,0,0,0,0,0,0,0,0,0,0,0,0,0,0,0,0,0,0,0,0,0,0,0,0,0,0,0,0,0,0,0,0,0,0,0,3222,0,0,0,0,0,0,0,0,0,0,0,0,0,0,0,0,0,0,0,0,0,0,0,0,0,0,0,0,0,0,0,0,0,0,0,0,0,0,0,0,0,0,0,0,0,0,0,0,0,0,0,0,0,0,0,0,0,0,0,0,0,0,0,0,0,0,0,0,0,0,0,0,0,3225,0,0,0,0,0,0,0,0,0,0,0,0,0,0,0,0,0,0,0,0,0,0,0,0,0,0,0,0,0,0,0,0,0,0,0,0,0,0,3225,0,0,0,0,0,0,0,0,0,0,0,0,0,0,0,0,0,0,0,0,0,0,0,0,0,0,0,0,0,0,0,0,0,0,0,0,0,0,0,0,0,0,0,0,0,0,0,0,0,0,0,0,0,0,0,0,0,0,0,0,0,0,0,0,0,0,0,0,0,0,0,0,0,0,0,0,0,0,0,0,0,0,0,0,0,0,0,0,0,0,0,0,0,0,0,0,0,0,0,0,0,0,0,0,0,0,0,0,0,0,0,0,0,0,0,0,0,0,0,0,0,0,0,0,0,0,0,0,0,0,0,0,0,0,0,3223,3223,0,0,0,0,0,0,0,0,0,0,3220,0,0,0,0,0,0,0,0,0,0,0,0,0,0,0,0,3220,0,0,0,0,0,0,0,0,0,0,0,0,0,0,0,0,0,0,0,0,0,0,0,0,0,0,0,0,0,3222,0,0,0,0,0,0,0,0,0,0,0,0,0,0,0,0,0,0,0,0,0,0,0,0,0,3222,0,0,0,0,0,0,0,0,0,0,0,0,0,0,0,0,0,0,0,0,0,0,0,0,0,0,0,0,0,0,0,0,0,0,0,0,0,0,0,0,0,0,0,0,0,0,0,0,0,0,0,0,0,0,0,0,0,0,0,0,0,0,0,0,0,0,0,0,0,0,0,0,0,0,0,0,0,0,0,0,0,0,0,0,0,0,0,0,0,0,0,0,0,0,0,0,0,0,0,0,0,0,0,0,0,0,0,0,0,0,0,0,0,0,0,0,0,0,0,0,0,0,0,0,0,0,0,0,0,0,0,0,0,0,0,0,0,0,0,0,0,0,0,0,0,0,0,0,0,0,0,0,0,0,0,0,0,0,0,0,0,0,0,0,0,0,0,3221,0,0,0,0,0,0,0,3220,0,0,0,0,0,0,0,0,0,0,0,0,0,3224,0,0,0,0,0,0,0,0,0,0,3222,0,0,0,0,0,0,0,0,0,0,0,0,0,0,0,0,0,0,0,0,0,0,0,0,0,0,0,0,0,0,0,0,0,3222,0,0,0,0,0,0,0,3224,0,0,0,0,0,0,3223,0,0,0,0,0,3225,0,0,0,0,0,0,0,0,0,0,3222,0,0,0,0,0,0,0,0,0,0,0,0,0,3221,0,3224,0,0,0,0,0,0,0,0,0,0,0,0,0,0,0,0,0,0,0,0,0,0,0,0,0,0,0,0,0,0,0,0,0,0,0,0,0,0,0,0,0,0,0,0,0,0,0,0,0,0,0,0,0,0,0,0,0,0,0,0,0,0,0,0,0,0,0,0,0,0,0,0,0,0,0,0,0,0,0,0,0,0,0,0,0,0,0,0,0,0,0,0,0,0,0,0,0,0,0,0,0,0,0,0,0,0,0,0,0,0,0,0,0,0,0,0,0,0,0,0,0,0,0,0,0,0,0,0,0,0,0,0,0,0,0,0,0,0,0,0,0,0,0,0,0,0,0,0,0,0,0,0,0,0,0,0,3224,0,0,0,0,0,0,0,0,0,0,0,0,0,0,0,0,0,0,0,0,0,0,0,0,0,0,0,0,0,0,0,3220,0,0,0,0,0,0,3222,0,0,0,0,0,0,0,0,0,0,0,0,0,0,0,0,0,0,0,3221,0,0,0,0,0,0,0,0,0,0,0,0,0,0,0,0,0,0,0,0,0,0,0,0,0,0,0,0,0,0,0,0,0,0,0,0,0,0,0,0,0,0,0,0,0,0,0,0,0,0,0,0,0,0,0,0,0,0,0,0,0,0,0,0,0,0,0,0,0,0,0,0,0,0,0,0,0,0,0,0,0,0,0,0,0,0,0,0,0,0,0,0,0,0,0,0,0,0,0,0,0,0,0,0,0,0,0,0,0,0,0,0,0,0,0,0,0,0,0,0,0,0,0,0,0,0,0,0,0,0,0,0,0,0,0,0,0,0,0,0,0,0,0,0,0,0,0,0,0,0,0,0,0,0,0,0,0,0,0,0,0,0,0,0,0,0,0,0,0,0,0,0,0,0,0,0,0,0,0,0,0,0,0,0,0,0,0,0,0,0,0,3224,0,0,0,0,0,0,0,0,0,0,0,0,0,0,0,0,0,0,3223,0,0,0,0,0,0,0,0,0,0,3220,0,0,0,0,0,3225,0,0,0,0,0,0,0,0,0,0,3222,3220,0,0,0,0,0,0,0,0,0,0,0,0,0,0,0,0,0,0,0,3225,0,0,0,0,0,0,0,0,0,0,0,0,0,0,0,0,0,0,0,0,0,0,0,0,0,0,0,0,0,0,0,0,0,0,0,0,0,3225,3224,3221,0,0,0,0,0,0,0,0,0,0,0,0,0,0,0,0,0,0,0,0,0,0,0,0,0,0,0,0,0,0,0,0,0,0,0,0,0,0,0,0,0,0,0,0,0,0,0,0,0,0,0,0,0,0,0,0,0,0,0,0,0,0,0,0,0,0,0,0,0,0,0,0,0,0,0,0,0,0,0,0,0,0,0,0,0,0,0,0,0,0,0,0,0,0,0,0,0,0,0,0,0,0,0,0,0,0,0,0,0,0,0,0,0,0,0,0,0,0,0,0,0,0,0,0,0,0,0,0,0,0,0,0,0,0,0,0,0,0,0,0,0,0,0,0,0,0,0,0,0,0,0,0,0,0,0,0,3221,0,0,0,0,0,0,0,0,0,0,0,0,0,0,0,0,0,0,0,0,0,0,0,0,0,0,0,0,0,0,0,0,0,0,0,0,0,0,3225,0,0,0,3224,0,0,0,3223,0,0,0,0,0,3221,0,0,0,0,0,0,0,0,0,3224,3222,0,0,0,0,0,0,0,0,0,0,0,0,0,0,0,0,0,0,0,0,0,0,0,3222,0,0,0,0,0,0,0,0,0,0,0,0,0,0,0,0,0,0,0,0,0,0,0,0,0,0,0,0,0,0,0,0,0,0,0,0,0,0,0,0,0,0,0,0,0,0,0,0,0,0,0,0,0,0,0,0,0,0,0,0,0,0,0,0,0,0,0,0,0,0,0,0,0,0,0,0,0,0,0,0,0,0,0,0,0,0,0,0,0,0,0,0,0,0,0,0,0,0,0,0,0,0,0,0,0,0,0,0,0,0,0,0,0,0,0,0,0,0,0,0,0,0,0,0,0,0,0,0,0,0,0,0,0,0,0,0,0,0,0,0,0,0,0,0,0,0,0,0,0,0,0,0,0,0,0,0,0,0,0,0,0,0,0,0,0,0,0,0,0,0,0,0,0,0,0,0,0,0,0,0,0,0,0,0,0,0,0,0,0,0,0,0,0,0,0,0,0,0,0,3222,0,0,0,0,0,0,0,0,0,0,0,3224,0,0,0,0,0,0,0,0,0,0,0,0,0,0,0,0,0,0,0,0,0,0,0,0,0,0,3221,0,0,0,0,0,0,0,0,0,0,3223,0,3225,0,0,0,0,0,0,0,0,0,0,0,0,3220,0,0,0,0,0,0,3225,0,0,0,0,0,0,0,0,0,0,0,0,0,0,0,0,0,0,0,0,0,0,0,0,0,0,0,0,0,0,0,0,0,0,0,0,0,0,0,0,0,0,0,0,0,0,0,0,0,0,0,0,0,0,0,0,0,0,0,0,0,0,0,0,0,0,0,0,0,0,0,0,0,0,0,0,0,0,0,0,0,0,0,0,0,0,0,0,0,0,0,0,0,0,0,0,0,0,0,0,0,0,0,0,0,0,0,0,0,0,0,0,0,0,0,0,0,0,0,0,0,0,0,0,0,0,0,0,0,0,0,0,0,3222,0,0,0,0,0,0,0,0,0,0,0,0,0,0,0,0,0,0,0,0,0,0,0,0,0,0,0,3221,0,3222,0,0,0,0,0,0,0,0,0,0,3221,0,0,3225,0,0,0,0,0,0,0,0,3225,0,0,0,0,0,0,0,0,0,0,0,0,0,0,0,0,0,0,0,0,0,0,3223,0,0,0,0,0,0,0,0,0,0,0,0,0,0,0,0,0,0,0,0,0,0,0,0,0,0,3224,0,0,0,0,3223,3220,0,0,0,0,0,0,3221,0,0,0,0,0,0,0,0,0,0,0,0,0,0,0,0,0,0,0,0,0,0,0,0,0,0,0,0,0,0,0,0,0,0,0,0,0,0,0,0,0,0,0,0,0,0,0,0,0,0,0,0,0,0,0,0,0,0,0,0,0,0,0,0,0,0,0,0,0,0,0,0,0,0,0,0,0,0,0,0,0,0,0,0,0,0,0,0,0,0,0,0,0,0,0,0,0,0,0,0,0,0,0,0,0,0,0,0,0,0,0,0,0,0,0,0,0,0,0,0,0,0,0,0,0,0,0,0,0,0,0,0,0,0,0,0,0,0,0,0,0,0,0,0,0,0,0,0,0,0,3222,0,0,0,0,0,0,0,0,0,0,0,0,0,0,0,0,0,0,0,0,0,0,0,0,0,0,0,0,0,0,0,0,0,0,0,0,0,0,0,0,0,0,0,0,0,0,0,0,0,0,0,0,0,0,0,0,0,0,0,0,0,0,0,0,0,0,0,0,0,0,0,3225,0,0,0,0,0,0,0,0,0,0,0,0,0,0,0,0,0,3222,0,0,0,0,0,0,0,0,0,0,0,0,0,0,0,3224,3224,0,0,0,0,0,0,0,0,0,0,0,0,0,0,0,0,0,0,0,0,0,0,0,0,0,0,0,0,0,0,0,0,0,0,0,0,0,0,0,0,0,0,0,0,0,0,0,0,0,0,0,0,0,0,0,0,0,0,0,0,0,0,0,0,0,0,0,0,0,0,0,0,0,0,0,0,0,0,0,0,0,0,0,0,0,0,0,0,0,0,0,0,0,0,0,0,0,0,0,0,0,0,0,0,0,0,0,0,0,0,0,0,0,0,0,0,0,0,0,0,0,0,0,0,0,0,0,0,0,0,0,3225,0,0,0,0,0,0,0,0,0,0,0,0,0,0,0,3222,3224,0,0,0,0,0,0,0,0,3220,0,0,0,0,0,0,0,0,0,0,0,0,0,0,0,0,0,0,0,0,0,0,0,0,0,0,0,0,0,0,0,0,0,0,0,0,0,0,0,0,0,0,0,0,0,0,0,0,0,0,0,0,0,0,0,0,0,3223,0,0,0,0,0,0,0,0,0,0,0,0,0,0,0,0,0,0,0,3220,0,0,0,0,0,3224,0,0,0,0,0,0,0,0,0,0,0,0,0,0,0,0,0,0,0,0,0,0,0,0,0,0,0,0,0,0,0,0,0,0,0,0,0,0,0,0,0,0,0,0,0,0,0,0,0,0,0,0,0,0,0,0,0,0,0,0,0,0,0,0,0,0,0,0,0,0,0,0,0,0,0,0,0,0,0,0,0,0,0,0,0,0,0,0,0,0,0,0,0,0,0,0,0,0,0,0,0,0,0,0,0,0,0,0,0,0,0,0,0,0,0,0,0,0,0,0,0,0,0,0,0,0,0,0,0,0,0,0,0,0,0,0,0,0,0,0,0,0,0,0,0,0,0,0,0,3224,0,0,0,0,0,0,0,0,0,0,0,0,0,0,0,0,0,0,0,0,0,0,0,0,0,0,0,0,0,0,0,0,0,0,0,0,0,0,0,0,0,0,0,0,0,0,0,0,0,0,3220,0,0,0,0,0,0,0,0,0,0,0,0,0,3221,0,0,0,0,0,0,0,0,3225,0,0,0,0,0,0,0,0,0,0,0,0,0,0,0,0,0,0,0,0,0,0,0,0,0,3220,0,0,0,0,0,0,0,0,0,0,0,0,0,0,0,0,0,0,0,0,0,0,0,0,0,3225,0,0,0,0,0,0,0,0,0,0,0,0,0,0,0,3223,0,0,0,0,0,0,0,0,0,0,0,0,0,0,0,0,0,0,0,0,0,0,0,0,0,0,0,0,0,0,0,0,0,0,0,0,0,0,0,0,0,0,0,0,0,0,0,0,0,0,0,0,0,0,0,0,0,0,0,0,0,0,0,0,0,0,0,0,0,0,0,0,0,0,0,0,0,0,0,0,0,0,0,0,0,0,0,0,0,0,0,0,0,0,0,0,0,0,0,0,0,0,0,0,0,0,0,0,0,0,0,0,0,0,0,0,0,0,0,0,0,0,0,3223,0,0,0,0,0,0,0,0,0,0,0,0,0,0,0,3225,0,0,0,0,0,0,0,0,0,0,0,0,0,0,0,0,0,0,3225,0,0,3221,0,3224,0,0,0,0,0,0,0,0,0,0,0,0,0,0,3225,0,0,0,0,0,0,0,0,0,0,0,0,0,0,3221,0,0,3222,0,0,0,0,0,0,0,0,0,0,0,0,0,0,0,0,3223,0,0,3225,0,0,0,0,0,0,0,0,0,0,0,3222,0,0,0,0,3224,0,0,0,0,0,0,0,0,0,0,0,0,0,0,0,0,0,0,0,0,0,0,0,0,0,0,0,0,0,0,0,0,0,0,0,0,0,0,0,0,0,0,0,0,0,0,0,0,0,0,0,0,0,0,0,0,0,0,0,0,0,0,0,0,0,0,0,0,0,0,0,0,0,0,0,0,0,0,0,0,0,0,0,0,0,0,0,0,0,0,0,0,0,0,0,0,0,0,0,0,0,0,0,0,0,0,0,0,0,0,0,0,0,0,0,0,0,0,0,0,0,0,0,0,0,0,0,0,0,0,0,0,0,0,0,0,0,0,0,0,0,0,0,0,0,0,0,0,0,0,0,0,0,0,0,0,0,0,0,0,0,0,0,0,0,0,0,0,0,0,0,0,0,0,0,0,0,3224,0,0,0,0,0,0,0,0,3220,0,0,0,3223,0,0,0,0,3225,0,0,0,0,0,0,0,0,0,0,0,3220,0,0,0,0,0,3221,0,0,0,0,0,0,0,0,0,0,0,0,0,0,0,0,0,0,0,0,0,0,0,0,0,0,0,0,0,0,0,0,0,0,0,0,0,0,0,0,0,0,0,0,0,0,0,0,0,0,0,0,0,0,0,0,0,0,0,0,0,0,0,0,0,0,0,0,0,0,0,0,0,0,0,0,0,0,0,0,0,0,0,0,0,0,0,0,0,0,0,0,0,0,0,0,0,0,0,0,0,0,0,0,0,0,0,0,0,0,0,0,0,0,0,0,0,0,0,0,0,0,0,0,0,0,0,0,0,0,0,0,0,0,0,0,0,0,0,0,0,0,0,0,0,0,0,0,0,0,0,0,0,0,0,0,0,0,0,0,0,0,0,0,0,0,0,0,0,0,0,0,0,0,0,0,0,0,0,0,0,0,0,3221,0,0,0,0,0,0,0,0,0,0,0,0,0,0,0,0,0,0,3225,0,3224,0,0,0,0,0,0,0,0,0,0,0,0,0,0,0,0,0,0,0,0,0,0,0,0,0,0,0,3223,0,0,0,0,0,0,0,0,0,3225,0,0,0,0,0,0,0,0,0,0,0,0,0,0,0,0,0,0,0,0,0,0,0,0,0,0,0,0,0,0,0,0,0,0,0,0,0,0,0,0,0,0,0,0,0,0,0,0,0,0,0,0,0,0,0,0,0,0,0,3220,3221,0,3225,0,0,0,0,0,0,0,0,0,0,0,0,0,0,0,0,0,0,0,0,0,0,0,0,0,0,0,0,0,0,0,0,0,0,0,0,0,0,0,0,0,0,0,0,0,0,0,0,0,0,0,0,0,0,0,0,0,0,0,0,0,0,0,0,0,0,0,0,0,0,0,0,0,0,0,0,0,0,0,0,0,0,0,0,0,0,0,0,0,0,0,0,0,0,0,0,0,0,0,0,0,0,0,0,0,0,0,0,0,0,0,0,0,0,0,0,0,0,0,0,0,0,0,0,0,0,0,0,0,3220,0,0,0,0,0,0,3222,0,0,0,0,0,0,0,0,0,0,0,0,0,0,0,0,0,0,0,0,0,0,0,0,0,0,0,0,0,0,0,0,0,0,0,0,0,0,0,0,0,0,0,0,0,0,0,0,0,0,0,0,0,0,0,0,0,0,0,0,0,0,3223,0,0,0,0,0,0,0,0,0,0,0,0,0,0,0,0,0,0,0,0,0,0,0,0,0,0,0,0,0,0,0,0,0,0,0,0,0,0,0,0,0,0,0,0,0,0,0,0,0,0,0,0,0,0,0,0,0,0,0,0,0,0,0,0,0,0,0,0,0,0,0,0,0,0,0,0,0,0,0,0,0,0,0,0,0,0,0,0,0,0,0,0,0,0,0,0,0,0,0,0,0,0,0,0,0,0,0,0,0,0,0,0,0,0,0,0,0,0,0,0,0,0,0,0,0,0,0,0,0,0,0,0,0,0,0,0,0,0,0,0,0,0,0,0,0,0,0,0,0,0,0,0,0,0,0,0,0,0,0,0,0,0,0,0,0,0,0,0,0,0,0,0,0,0,0,0,0,0,0,0,0,0,0,0,0,0,0,0,0,0,0,3223,0,0,0,0,0,0,0,0,0,3220,0,0,0,0,0,0,0,0,0,0,0,0,0,0,0,0,0,0,0,0,0,0,0,0,0,0,0,0,0,0,0,0,0,0,0,0,0,0,0,0,0,0,0,0,0,0,0,0,0,0,0,0,0,0,0,0,0,0,0,0,0,0,0,0,0,0,0,0,0,0,0,0,0,0,0,0,0,0,0,0,0,0,0,0,0,0,0,0,0,0,0,0,0,0,0,0,0,0,0,0,0,0,0,0,0,0,0,0,0,0,0,0,0,0,0,0,0,0,0,0,0,0,0,0,0,0,0,0,0,0,0,0,0,0,0,0,0,0,0,0,0,0,0,0,0,0,0,0,0,0,0,0,0,0,0,0,0,0,0,0,0,0,0,0,0,0,0,0,0,0,0,0,0,0,0,0,0,0,0,0,0,0,0,0,0,0,0,0,0,0,0,0,0,0,0,0,0,0,0,0,0,0,0,0,0,0,0,0,0,0,0,0,0,0,0,0,0,0,0,0,0,0,0,0,0,0,0,0,0,0,0,0,0,0,0,0,3225,0,0,0,0,3222,0,0,0,0,0,0,0,0,0,0,0,0,0,0,0,0,0,0,0,3222,0,0,0,0,0,0,0,0,3222,0,0,0,0,0,0,0,0,0,0,0,0,0,0,0,0,0,0,0,3224,0,0,0,0,0,0,0,0,0,0,0,0,0,0,0,0,0,0,0,0,0,0,0,0,0,0,0,0,0,0,0,0,0,0,0,0,0,0,0,0,0,0,0,0,0,0,0,0,0,0,0,0,0,0,0,0,0,0,0,0,0,0,0,0,0,0,0,0,0,0,0,0,0,0,0,0,0,0,0,0,0,0,0,0,0,0,0,0,0,0,0,0,0,0,0,0,0,0,0,0,0,0,0,0,0,0,0,0,0,0,0,0,0,0,0,0,0,0,0,0,0,0,0,0,0,0,0,0,0,0,0,0,0,0,0,0,0,0,0,0,0,0,0,0,0,0,0,0,0,0,0,0,0,0,0,0,0,0,0,0,0,0,0,0,0,0,0,0,0,0,0,0,0,0,0,0,0,0,0,0,0,0,0,0,0,0,0,0,0,0,0,0,0,0,0,0,0,0,3221,0,0,0,0,0,0,0,0,0,0,0,0,0,0,0,0,0,0,0,0,0,0,0,0,0,0,0,0,0,0,0,0,0,0,0,0,0,0,0,3224,0,0,0,0,0,0,0,0,0,0,0,0,0,0,0,0,0,0,0,0,0,0,0,0,0,0,0,0,0,0,0,0,0,0,0,0,0,0,3222,0,0,0,0,0,0,0,0,0,0,0,0,0,0,0,0,0,0,0,0,0,0,0,0,0,0,0,0,0,0,0,0,0,0,0,0,0,0,0,0,0,0,0,0,0,0,0,0,0,0,0,0,0,0,0,0,0,0,0,0,0,0,0,0,0,0,0,0,0,0,0,0,0,0,0,0,0,0,0,0,0,0,0,0,0,0,0,0,0,0,0,0,0,0,0,0,0,0,0,0,0,0,0,0,0,0,0,0,0,0,0,0,0,0,0,0,0,0,0,0,0,0,0,0,0,0,0,0,0,0,0,0,0,0,0,0,0,0,0,0,0,0,0,0,0,0,0,0,0,0,0,0,0,0,0,0,0,0,0,0,0,0,0,0,0,0,0,0,0,0,0,0,0,0,0,0,0,0,0,0,0,3223,0,0,0,0,0,0,0,0,0,0,0,0,0,0,0,0,0,0,3221,0,0,0,3220,0,0,0,3223,0,0,0,0,0,0,0,0,0,0,0,3221,0,0,0,0,0,0,0,0,0,0,0,0,0,0,0,0,0,0,3220,0,0,0,0,0,0,0,0,3225,0,0,0,0,0,0,0,0,0,0,0,0,0,0,0,0,0,0,0,0,0,0,0,0,0,0,0,0,0,0,0,0,0,0,0,0,0,0,0,0,0,0,0,0,0,0,0,0,0,0,0,0,0,0,0,0,0,0,0,0,0,0,0,0,0,0,0,0,0,0,0,0,0,0,0,0,0,0,0,0,0,0,0,0,0,0,0,0,0,0,0,0,0,0,0,0,0,0,0,0,0,0,0,0,0,0,0,0,0,0,0,0,0,0,0,0,0,0,0,0,0,0,0,0,0,0,0,0,0,0,0,0,0,0,0,0,0,0,0,0,0,0,0,0,0,0,0,0,0,0,0,0,0,0,0,0,0,0,0,0,0,0,0,0,0,0,0,0,0,0,0,0,0,0,0,0,0,0,0,0,0,0,0,0,0,0,0,0,0,0,0,0,0,0,0,0,0,0,0,0,0,0,0,0,0,0,0,0,0,0,0,0,0,3225,0,0,0,0,0,0,0,0,0,0,0,0,0,0,0,0,0,0,0,0,0,0,0,0,0,0,0,0,0,0,0,0,0,0,0,3224,0,0,0,0,0,0,0,0,3223,0,0,0,0,0,0,0,0,0,0,0,0,0,0,0,0,0,0,0,3222,0,0,0,0,0,0,0,0,0,0,0,0,0,0,0,0,0,0,0,0,0,0,0,0,0,0,0,0,0,0,0,3223,0,3225,0,0,0,0,0,0,0,0,0,0,0,0,0,0,0,0,0,0,0,0,0,0,0,0,0,0,0,0,0,0,0,0,0,0,0,0,0,0,0,0,0,0,0,0,0,0,0,0,0,0,0,0,0,0,0,0,0,0,0,0,0,0,0,0,0,0,0,0,0,0,0,0,0,0,0,0,0,0,0,0,0,0,0,0,0,0,0,0,0,0,0,0,0,0,0,0,0,0,0,0,0,0,0,0,0,0,0,0,0,0,0,0,0,0,0,0,0,0,0,0,0,0,0,0,0,0,0,0,0,0,3225,0,0,0,0,0,0,0,0,0,3225,0,0,0,0,0,0,0,0,3225,0,0,0,0,0,0,0,0,0,0,0,0,0,0,0,0,0,0,0,3225,0,0,0,0,0,0,0,0,0,0,0,0,0,0,0,0,0,3225,0,0,0,0,0,0,0,0,0,0,0,0,0,3221,0,0,0,0,0,0,0,0,0,0,0,0,0,0,0,0,0,0,0,0,0,0,0,0,0,0,0,3222,0,0,0,0,0,0,0,0,0,0,0,0,0,0,0,0,0,0,0,0,0,0,0,0,0,0,0,0,0,0,0,0,0,0,0,0,0,0,0,3222,0,0,0,0,0,0,0,0,0,0,0,0,0,0,0,0,0,0,0,0,0,0,0,0,0,0,0,0,0,0,0,0,0,0,0,0,0,0,0,0,0,0,0,0,0,0,0,0,0,0,0,0,0,0,0,0,0,0,0,0,0,0,0,0,0,0,0,0,0,0,0,0,0,0,0,0,0,0,0,0,0,0,0,0,0,0,0,0,0,0,0,0,0,0,0,0,0,0,0,0,0,0,0,0,0,0,0,0,0,0,0,0,0,0,0,0,0,0,0,0,0,0,0,0,0,0,0,0,0,0,0,0,0,0,0,0,0,0,0,0,0,0,0,0,0,3222,0,3221,0,0,0,0,0,0,0,0,0,0,0,0,0,0,0,3220,0,0,0,0,0,0,0,0,0,0,0,0,0,0,0,0,0,0,0,0,0,0,0,0,0,0,0,0,0,0,0,0,0,3225,0,0,0,0,0,0,0,0,0,0,0,0,0,0,0,0,0,0,0,0,0,0,0,0,0,0,0,0,0,3223,0,0,0,0,0,0,0,0,0,0,0,0,0,0,0,0,0,0,0,0,0,0,0,0,0,0,0,0,0,3225,0,0,0,0,0,0,0,0,0,0,0,0,0,0,0,0,0,0,0,0,0,0,0,0,0,0,0,0,0,0,0,0,0,0,0,0,0,0,0,0,0,0,0,0,0,0,0,0,0,0,0,0,0,0,0,0,0,0,0,0,0,0,0,0,0,0,0,0,0,0,0,0,0,0,0,0,0,0,0,0,0,0,0,0,0,0,0,0,0,0,0,0,0,0,0,0,0,0,0,0,0,0,0,0,0,0,0,0,0,0,0,0,0,0,0,0,0,0,0,0,0,0,3222,0,0,0,0,3222,0,0,0,0,0,0,0,0,0,0,0,0,0,3224,0,0,0,0,0,0,3225,0,0,3222,0,0,0,0,3223,0,0,0,0,0,0,0,0,0,0,0,0,0,0,0,0,0,0,0,0,0,0,0,0,0,3223,0,0,0,0,0,3225,0,0,0,0,0,0,0,0,0,0,0,0,0,0,0,0,0,0,3223,0,0,0,0,3222,0,0,0,0,0,0,0,0,0,3221,0,0,0,0,0,0,0,0,0,0,0,0,0,0,0,0,0,0,0,0,3225,0,0,3222,0,0,0,0,0,0,0,0,0,0,0,0,0,0,0,0,0,0,0,0,0,0,0,0,0,0,0,0,0,0,0,0,0,0,0,0,0,0,0,0,0,0,0,0,0,0,0,0,0,0,0,0,0,0,0,0,0,0,0,0,0,0,0,0,0,0,0,0,0,0,0,0,0,0,0,0,0,0,0,0,0,0,0,0,0,0,0,0,0,0,0,0,0,0,0,0,0,0,0,0,0,0,0,0,0,0,0,0,0,0,0,0,0,0,0,0,0,0,0,0,0,0,0,0,0,0,0,0,0,0,0,0,0,3222,0,0,0,0,0,0,0,0,0,0,0,0,0,0,0,0,0,0,0,0,0,0,3220,0,0,0,0,0,0,0,0,0,0,0,0,0,0,0,0,0,0,0,0,0,0,0,0,0,0,0,0,0,0,0,0,0,0,0,0,0,0,0,0,0,0,0,0,0,3223,0,0,0,0,0,3220,0,0,0,0,0,0,0,0,0,0,0,3223,0,0,0,0,3220,0,0,0,0,0,0,0,0,0,0,0,3220,0,0,0,0,0,0,0,0,0,0,0,0,0,0,0,0,0,0,0,0,0,0,0,0,0,0,0,0,0,0,0,0,0,0,0,0,0,0,0,0,0,0,0,0,0,0,0,0,0,0,0,0,0,0,0,0,0,0,0,0,0,0,0,0,0,0,0,0,0,0,0,0,0,0,0,0,0,0,0,0,0,0,0,0,0,0,0,0,0,0,0,0,0,0,0,0,0,0,0,0,0,0,0,0,0,0,0,0,0,0,0,0,0,0,0,0,0,0,0,0,0,0,0,0,0,0,0,0,0,0,0,0,0,0,0,0,0,0,0,0,0,0,0,0,0,0,0,0,0,3220,0,0,0,0,0,0,0,0,0,0,0,3225,0,0,0,0,0,0,0,3225,3220,0,0,0,0,0,0,0,0,0,0,0,0,0,0,0,3224,0,0,0,0,0,0,0,0,0,0,0,0,0,0,0,3225,0,0,0,0,0,0,0,0,0,0,0,0,3222,0,0,3223,0,0,0,0,0,0,0,0,0,0,0,0,0,0,0,0,0,0,0,0,0,0,0,0,0,0,0,0,0,0,0,0,0,0,0,0,0,0,0,0,0,0,0,0,0,0,0,0,3225,0,0,0,0,0,0,0,0,0,0,0,0,3225,0,0,0,0,0,0,0,0,0,0,0,0,0,0,0,0,0,0,0,0,0,0,0,0,0,0,0,0,0,0,0,0,0,0,0,0,0,0,0,0,0,0,0,0,0,0,0,0,0,0,0,0,0,0,0,0,0,0,0,0,0,0,0,0,0,0,0,0,0,0,0,0,0,0,0,0,0,0,0,0,0,0,0,0,0,0,0,0,0,0,0,0,0,0,0,0,0,0,0,0,0,0,0,0,0,0,0,0,0,0,0,3222,0,3225,0,0,0,0,0,0,0,0,0,0,0,0,0,0,0,0,0,0,0,0,0,0,0,0,0,0,0,0,0,0,3223,0,0,0,0,0,0,0,0,0,0,0,0,0,0,0,0,0,0,0,0,0,0,3223,0,0,0,0,0,0,0,0,0,0,0,0,0,0,0,0,0,0,0,0,0,0,0,0,0,0,0,0,0,0,0,0,0,0,0,0,0,0,0,0,0,0,0,0,0,0,0,0,0,0,0,0,0,0,0,0,0,0,0,3223,0,3224,0,0,0,0,0,3225,0,3225,0,0,0,0,0,0,0,0,0,0,0,0,0,0,0,0,0,0,0,0,0,0,0,0,0,0,0,0,0,0,0,0,0,0,0,0,0,0,0,0,0,0,0,0,0,0,0,0,0,0,0,0,0,0,0,0,0,0,0,0,0,0,0,0,0,0,0,0,0,0,0,0,0,0,0,0,0,0,0,0,0,0,0,0,0,0,0,0,0,0,0,0,0,0,0,0,0,0,0,0,0,0,0,0,0,0,0,0,0,0,0,0,0,0,0,0,0,0,0,0,0,0,0,0,0,0,0,0,0,0,0,0,0,0,0,0,0,0,0,0,0,0,0,0,0,0,3220,0,0,0,0,0,0,0,0,0,0,0,0,0,0,3221,0,0,0,0,0,0,0,0,0,0,0,0,0,0,0,0,0,0,0,0,0,0,0,0,3220,0,0,0,0,0,0,0,0,0,0,0,0,0,0,0,0,0,0,0,0,0,0,0,0,0,0,0,0,0,0,0,0,0,0,0,0,0,0,0,3224,0,0,0,0,0,0,0,0,0,0,0,0,0,0,0,0,0,0,0,0,0,0,0,0,0,3221,3223,0,0,0,0,3221,0,0,0,0,0,0,0,0,0,0,0,0,0,0,0,0,0,0,0,0,0,0,0,0,0,0,0,0,0,0,0,0,0,0,0,0,0,0,0,0,0,0,0,0,0,0,0,0,0,0,0,0,0,0,0,0,0,0,0,0,0,0,0,0,0,0,0,0,0,0,0,0,0,0,0,0,0,0,0,0,0,0,0,0,0,0,0,0,0,0,0,0,0,0,0,0,0,0,0,0,0,0,0,0,0,0,0,0,0,0,0,0,0,0,0,0,0,0,0,0,0,0,0,0,0,0,0,3223,0,3223,0,0,0,0,0,0,0,0,0,0,0,0,0,0,0,0,0,0,0,0,0,0,0,0,0,0,3222,0,0,0,0,0,0,0,0,0,0,0,0,0,0,0,0,0,0,0,0,0,3221,0,0,3222,0,0,0,0,0,0,0,0,0,0,0,0,0,0,3221,0,0,0,0,0,0,0,0,0,0,0,0,0,0,0,0,0,0,0,0,0,0,0,0,0,0,0,0,0,0,0,0,0,0,0,0,0,0,0,0,0,0,0,0,0,0,0,0,0,0,0,0,0,0,0,0,0,0,0,0,0,0,0,0,3225,0,0,0,0,0,0,0,0,0,0,0,0,0,0,0,0,0,0,0,0,0,0,0,0,0,0,0,0,0,0,0,0,0,0,0,0,0,0,0,0,0,0,0,0,0,0,0,0,0,0,0,0,0,0,0,0,0,0,0,0,0,0,0,0,0,0,0,0,0,0,0,0,0,0,0,0,0,0,0,0,0,0,0,0,0,0,0,0,0,0,0,0,0,0,0,0,0,0,0,0,0,0,0,0,0,0,0,0,0,0,0,0,0,0,0,0,0,0,0,0,0,0,0,0,0,0,0,0,0,0,0,0,0,0,0,0,0,0,3225,0,0,0,0,0,0,0,0,0,0,0,0,0,0,0,0,3220,0,0,0,0,0,0,0,3225,0,0,0,0,0,0,0,0,0,0,0,0,0,0,0,0,0,0,3220,0,0,0,0,0,0,3220,0,0,0,0,0,0,0,0,0,0,0,0,0,0,0,0,0,0,0,0,0,0,0,0,0,0,0,0,0,0,3222,0,0,0,0,3225,0,0,0,0,0,0,0,0,0,3221,0,0,0,0,0,0,0,0,0,0,0,0,0,0,0,0,0,0,0,3225,0,0,0,0,0,0,0,0,3220,0,0,0,0,0,0,0,0,0,0,0,0,0,0,0,0,0,0,0,0,0,0,0,0,0,0,0,0,0,0,0,0,0,0,0,0,0,0,0,0,0,0,0,0,0,0,0,0,0,0,0,0,0,0,0,0,0,0,0,0,0,0,0,0,0,0,0,0,0,0,0,0,0,0,0,0,0,0,0,0,0,0,0,0,0,0,0,0,0,0,0,0,0,0,0,0,0,0,0,0,0,0,0,0,0,0,0,0,0,0,0,0,0,0,0,0,0,0,0,0,0,0,0,0,3223,0,0,0,0,0,0,0,0,0,0,3221,0,0,0,0,0,0,0,0,0,0,0,0,0,0,0,0,0,0,0,0,3222,0,0,0,0,0,0,0,0,0,0,0,0,0,0,0,0,0,0,0,0,0,0,0,0,0,0,0,0,0,0,0,0,0,0,0,0,0,0,0,0,0,0,0,0,0,3221,0,0,0,0,0,0,0,0,0,0,0,0,0,0,0,0,0,0,0,0,0,3224,3220,0,0,0,0,0,0,0,0,0,0,0,0,0,0,0,0,0,0,0,0,0,0,0,0,0,0,0,0,0,0,0,0,0,0,0,0,0,0,0,0,0,0,0,0,0,0,0,0,0,0,0,0,0,0,0,0,0,0,0,0,0,0,0,0,0,0,0,0,0,0,0,0,0,0,0,0,0,0,0,0,0,0,0,0,0,0,0,0,0,0,0,0,0,0,0,0,0,0,0,0,0,0,0,0,0,0,0,0,0,0,0,0,0,0,0,0,0,0,0,0,0,0,0,0,0,0,0,0,0,0,0,0,0,0,0,0,0,0,0,0,0,0,0,0,0,3222,0,0,0,0,0,0,0,0,0,0,0,0,0,0,0,0,0,0,0,0,0,0,0,0,0,0,0,0,0,0,0,0,0,0,0,0,0,3224,0,0,0,0,0,0,0,0,0,0,0,0,0,0,0,0,0,0,0,3220,0,0,0,0,0,0,0,0,0,0,0,0,0,3221,0,0,0,0,0,0,0,0,0,0,0,0,0,0,0,0,0,0,0,0,0,3222,0,0,0,0,0,3224,0,0,0,0,0,0,0,0,0,0,0,0,0,0,0,0,0,0,0,0,0,3224,0,0,0,0,0,0,0,0,0,0,0,0,0,0,0,0,0,0,0,0,0,0,0,0,0,0,0,0,0,0,0,0,0,0,0,0,0,0,0,0,0,0,0,0,0,0,0,0,0,0,0,0,0,0,0,0,0,0,0,0,0,0,0,0,0,0,0,0,0,0,0,0,0,0,0,0,0,0,0,0,0,0,0,0,0,0,0,0,0,0,0,0,0,0,0,0,0,0,0,0,0,0,0,0,0,0,0,0,0,0,0,0,0,0,0,0,0,0,0,0,0,0,0,0,0,0,0,0,0,0,0,0,0,0,0,0,0,3223,0,0,0,0,0,0,0,0,3225,0,0,0,0,3222,0,0,0,0,3221,0,0,0,0,0,0,0,0,0,0,0,0,3222,0,0,0,0,0,0,0,0,0,0,0,0,0,0,0,0,0,0,0,0,0,0,0,0,0,0,0,0,0,0,0,0,0,0,0,0,0,0,0,0,0,0,0,0,0,0,0,0,0,0,0,0,0,0,0,0,0,0,0,0,0,0,0,0,0,0,0,0,0,3223,0,0,0,0,0,0,0,0,0,3224,0,3225,0,0,0,0,0,0,0,0,0,0,0,3223,0,0,0,0,3222,0,0,0,0,0,0,0,0,3225,0,0,0,0,0,0,0,0,0,0,0,0,0,0,0,0,0,0,0,0,0,0,0,0,0,0,0,0,0,0,0,0,0,0,0,0,0,0,0,0,0,0,0,0,0,0,0,0,0,0,0,0,0,0,0,0,0,0,0,0,0,0,0,0,0,0,0,0,0,0,0,0,0,0,0,0,0,0,0,0,0,0,0,0,0,0,0,0,0,0,0,0,0,0,0,0,0,0,0,0,0,0,0,0,0,0,0,0,0,0,0,0,0,0,0,0,0,3221,0,0,0,0,0,0,0,0,0,3224,0,0,0,0,0,0,0,0,0,0,0,0,0,0,0,0,0,0,0,0,0,0,0,0,0,0,0,0,0,0,0,0,0,0,0,0,0,0,0,0,0,0,0,0,0,0,0,0,0,0,0,0,0,0,0,0,0,0,0,0,0,0,0,0,0,0,0,0,3221,0,0,0,0,0,0,0,0,0,3222,0,0,0,0,0,0,0,0,0,0,0,0,0,0,0,0,0,0,0,0,0,0,0,0,0,0,0,0,0,0,0,0,0,0,0,0,0,0,0,0,0,0,0,0,0,0,0,3225,0,3222,0,0,0,0,0,0,0,0,0,0,0,0,0,0,0,0,0,0,0,0,0,0,0,0,0,0,0,0,0,0,0,0,0,0,0,0,0,0,0,0,0,0,0,0,0,0,0,0,0,0,0,0,0,0,0,0,0,0,0,0,0,0,0,0,0,0,0,0,0,0,0,0,0,0,0,0,0,0,0,0,0,0,0,0,0,0,0,0,0,0,0,0,0,0,0,0,0,0,0,0,0,0,0,0,0,0,0,0,0,0,0,0,0,0,0,0,0,0,0,0,0,0,0,0,0,0,0,0,0,0,0,0,0,0,0,0,0,0,0,0,0,0,0,0,0,0,0,0,0,0,0,3222,0,0,0,0,0,0,0,0,0,0,0,0,0,0,0,0,0,0,0,0,0,0,0,0,0,0,0,0,0,0,0,0,0,0,0,0,0,0,0,0,0,0,0,0,0,0,0,0,0,0,0,0,0,0,0,3223,0,0,0,0,0,0,0,0,0,0,0,3221,0,0,0,0,0,0,0,0,0,3220,0,0,0,0,0,0,3221,0,0,0,0,0,0,0,0,0,0,0,0,0,0,0,0,0,0,0,0,0,0,0,0,0,0,0,0,0,0,0,0,0,0,0,0,0,0,0,0,0,0,0,0,0,0,0,0,0,0,0,0,0,0,0,0,0,0,0,0,0,0,0,0,0,0,0,0,0,0,0,0,0,0,0,0,0,0,0,0,0,0,0,0,0,0,0,0,0,0,0,0,0,0,0,0,0,0,0,0,0,0,0,0,0,0,0,0,0,0,0,0,0,0,0,0,0,0,0,0,0,0,0,0,0,0,0,0,0,0,0,0,0,0,0,0,0,0,0,0,0,3223,0,0,0,0,0,0,0,0,0,0,0,0,0,0,0,0,0,0,0,0,0,0,0,0,0,3223,0,0,0,0,0,0,0,0,0,0,0,0,0,3221,0,0,0,0,0,3222,0,0,0,0,0,0,0,0,0,0,0,0,0,0,0,0,0,0,0,0,0,0,0,0,0,0,0,0,0,0,0,0,0,0,0,0,0,0,0,0,0,0,0,0,0,0,0,0,0,0,0,0,0,0,0,0,0,0,0,0,0,0,0,0,0,0,0,0,0,0,0,0,0,0,0,0,0,0,0,0,0,0,0,0,0,0,0,0,0,0,0,0,0,0,0,0,0,0,0,0,0,0,0,0,0,0,0,0,0,0,0,0,0,0,0,0,0,0,0,0,0,0,0,0,0,0,0,0,0,0,0,0,0,0,0,0,0,0,0,0,0,0,0,0,0,0,0,0,0,0,0,0,0,0,0,0,0,0,0,0,0,0,0,0,0,0,0,0,0,0,0,0,0,0,0,0,0,0,0,0,0,0,0,0,0,0,0,0,0,0,0,0,0,0,0,0,0,0,0,0,0,0,0,0,0,0,0,0,0,0,0,0,0,0,0,0,0,0,0,0,0,0,0,0,0,0,0,0,0,0,0,0,0,0,0,0,0,0,0,0,0,0,0,0,0,0,0,0,0,0,0,0,0,0,0,0,0,0,0,0,0,0,0,0,0,0,0,0,0,0,0,0,0,0,0,0,0,3225,0,0,0,0,0,0,0,0,0,0,0,0,0,0,0,0,0,0,0,0,0,0,0,0,0,0,0,0,0,0,0,0,0,0,0,0,0,0,0,0,0,0,0,0,0,0,0,0,0,3221,0,0,0,0,0,0,0,0,0,0,0,0,0,0,0,0,0,0,0,0,0,0,0,0,0,0,0,0,0,0,0,0,0,0,0,0,0,0,0,0,0,0,0,0,0,0,0,0,0,0,0,0,0,0,0,0,0,0,0,0,0,0,0,0,0,0,0,0,0,0,0,0,0,0,0,0,0,0,0,0,0,0,0,0,0,0,0,0,0,0,0,0,0,0,0,0,0,0,0,0,0,0,0,0,0,0,0,0,0,0,0,0,0,0,0,0,0,0,0,0,0,0,0,0,0,0,0,0,0,3220,0,0,0,0,0,0,0,0,0,0,0,0,0,0,0,0,0,0,0,0,0,0,0,0,0,0,3223,0,0,0,0,0,0,0,0,0,0,0,0,3223,0,0,0,0,0,0,3222,0,0,0,0,0,3225,0,0,0,3222,0,3222,0,3224,0,0,0,0,0,0,0,0,0,0,0,0,0,0,0,0,3223,0,0,0,0,0,0,0,0,0,0,0,0,0,0,0,0,0,0,3221,0,0,0,0,0,0,0,0,0,0,0,0,0,0,0,0,0,0,0,0,0,0,0,0,0,0,0,0,0,0,0,0,0,0,0,0,0,0,0,0,0,0,0,0,0,0,0,0,0,0,0,0,0,0,0,0,0,0,0,0,0,0,0,0,0,0,0,0,0,0,0,0,0,0,0,0,0,0,0,0,0,0,0,0,0,0,0,0,0,0,0,0,0,0,0,0,0,0,0,0,0,0,0,0,0,0,0,0,0,0,0,0,0,0,0,0,0,0,0,0,0,0,0,0,0,0,0,0,0,0,0,0,0,0,0,0,0,0,0,0,0,0,0,0,0,0,0,0,0,0,0,0,0,0,0,0,0,0,0,0,0,0,0,0,0,0,0,0,3224,0,0,0,0,0,0,0,0,0,0,0,0,0,3222,0,0,0,0,0,0,0,0,0,0,0,0,0,0,0,0,0,0,0,0,0,0,3224,0,0,0,0,0,0,0,0,0,0,0,0,0,0,0,0,0,3221,0,0,0,0,0,0,0,0,0,3223,0,0,0,0,0,0,0,0,0,0,0,0,0,0,0,0,0,3220,0,0,0,0,0,0,0,0,0,0,3220,3225,0,0,0,0,3224,0,0,0,0,3224,0,0,0,0,0,0,3225,3223,0,0,0,0,0,0,0,0,0,0,0,0,0,0,0,0,0,0,0,0,0,0,0,0,0,0,0,0,0,0,0,0,0,0,0,0,0,0,0,0,0,0,0,0,0,0,0,0,0,0,0,0,0,0,0,0,0,0,0,0,0,0,0,0,0,0,0,0,0,0,0,0,0,0,0,0,0,0,0,0,0,0,0,0,0,0,0,0,0,0,0,0,0,0,0,0,0,0,0,0,0,0,0,0,0,0,0,0,0,0,0,0,0,0,0,0,0,0,0,0,0,0,0,0,0,0,0,0,0,0,0,0,0,0,0,0,0,0,0,0,0,0,0,0,0,0,0,0,0,0,3223,0,0,0,0,0,0,0,0,3224,0,0,0,0,0,0,0,0,0,0,0,0,0,0,0,0,0,0,0,0,0,0,0,0,0,0,0,0,0,0,0,0,0,0,0,0,0,0,3221,0,0,0,0,0,0,0,0,0,0,0,0,0,0,0,0,0,0,0,0,0,0,0,0,0,3222,0,0,0,0,0,0,0,0,0,0,0,0,0,0,0,0,0,0,0,0,0,0,3223,0,0,0,0,0,0,0,3224,0,0,0,0,0,0,0,3223,0,0,0,0,0,0,0,0,0,0,0,0,0,0,0,0,0,0,0,0,0,0,0,0,0,0,0,0,0,0,0,0,0,0,0,0,0,0,0,0,0,0,0,0,0,0,0,0,0,0,0,0,0,0,0,0,0,0,0,0,0,0,0,0,0,0,0,0,0,0,0,0,0,0,0,0,0,0,0,0,0,0,0,0,0,0,0,0,0,0,0,0,0,0,0,0,0,0,0,0,0,0,0,0,0,0,0,0,0,0,0,0,0,0,0,0,0,0,0,0,0,3220,0,0,3224,0,0,0,0,0,0,0,0,0,0,0,0,0,0,0,0,0,0,0,0,0,0,0,0,0,0,0,0,0,0,0,0,0,0,0,0,0,0,0,0,0,0,0,0,0,0,3223,0,0,0,0,0,0,0,0,0,0,0,0,0,0,3223,0,0,0,0,0,0,0,0,0,0,0,0,0,0,0,0,0,0,3225,0,0,0,0,0,0,0,0,0,0,0,0,0,0,0,0,0,0,0,0,0,0,0,0,0,0,0,0,0,0,0,0,0,0,0,0,0,0,0,0,0,0,0,0,0,0,0,0,0,0,0,0,0,0,0,0,0,0,0,0,0,0,0,0,0,0,0,0,0,0,0,0,0,0,0,0,0,0,0,0,0,0,0,0,0,0,0,0,0,0,0,0,0,0,0,0,0,0,0,0,0,0,0,0,0,0,0,0,0,0,0,0,0,0,0,0,0,0,0,0,0,0,0,0,0,0,0,0,0,0,0,0,0,0,0,0,0,0,0,0,0,0,0,0,0,0,0,0,0,0,0,0,0,0,0,0,0,0,0,0,0,0,0,0,0,0,0,0,0,0,0,0,0,3223,0,0,0,0,0,0,0,0,0,0,0,0,0,0,0,0,0,0,0,0,0,0,0,0,0,0,0,0,0,0,0,0,0,0,0,0,0,0,0,0,0,0,0,0,0,0,0,0,0,0,0,0,0,0,0,3221,3220,0,0,0,0,0,0,0,0,0,0,0,0,0,0,0,0,0,0,0,0,0,0,0,0,0,0,0,0,0,0,0,0,0,0,3224,0,0,0,0,0,0,0,0,0,0,0,0,0,0,0,3221,0,0,0,0,0,0,0,3225,0,0,0,0,0,0,0,0,0,0,0,0,0,0,0,0,0,0,0,0,0,0,0,0,0,0,0,0,0,0,0,0,0,0,0,0,0,0,0,0,0,0,0,0,0,0,0,0,0,0,0,0,0,0,0,0,0,0,0,0,0,0,0,0,0,0,0,0,0,0,0,0,0,0,0,0,0,0,0,0,0,0,0,0,0,0,0,0,0,0,0,0,0,0,0,0,0,0,0,0,0,0,0,0,0,0,0,0,0,0,0,0,0,0,0,0,0,0,0,0,0,0,0,0,0,0,0,0,0,0,0,0,0,0,0,0,0,0,0,0,0,0,0,0,0,0,3225,0,0,0,0,0,0,0,0,0,0,0,0,0,0,0,0,0,0,0,0,0,0,3220,0,0,0,0,0,0,0,0,0,0,0,0,0,0,0,0,0,0,0,0,0,0,0,0,0,0,0,0,0,0,0,0,0,3224,0,0,0,0,0,0,0,0,0,0,0,0,0,0,0,0,0,0,3220,0,0,0,0,0,0,0,0,0,0,0,0,0,0,0,0,0,0,0,0,0,0,0,0,0,0,0,0,0,0,0,0,0,0,0,0,0,0,0,0,0,0,0,0,0,0,0,0,0,0,0,0,0,0,0,0,0,0,0,0,0,0,0,0,0,0,0,0,0,0,0,0,0,0,0,0,0,0,0,0,0,0,0,0,0,0,0,0,0,0,0,0,0,0,0,0,0,0,0,0,0,0,0,0,0,0,0,0,0,0,0,0,0,0,0,0,0,0,0,0,0,0,0,0,0,0,0,0,0,0,0,0,0,0,0,0,0,0,0,0,0,0,0,0,0,0,0,0,0,0,0,0,0,0,0,0,0,0,0,0,0,0,0,0,0,0,0,0,0,0,0,0,0,0,0,0,0,0,0,0,0,0,0,0,3225,0,0,0,0,0,0,0,0,0,0,0,0,0,0,0,3223,0,0,0,0,0,0,0,0,0,0,0,0,0,0,0,0,0,0,0,0,0,0,0,0,0,0,0,0,0,0,0,0,0,0,0,0,0,0,0,0,0,0,0,0,0,0,0,0,0,0,0,0,3223,0,0,0,0,0,0,0,0,0,0,0,0,0,0,0,0,0,3221,0,0,0,0,0,0,0,0,0,0,0,0,0,0,0,3225,0,3225,0,0,0,0,3221,0,0,0,0,0,0,0,0,0,3224,3225,0,0,0,0,0,0,0,0,0,0,0,0,0,0,0,0,0,0,0,0,0,0,0,0,0,0,0,0,0,0,0,0,0,0,0,0,0,0,0,0,0,0,0,0,0,0,0,0,0,0,0,0,0,0,0,0,0,0,0,0,0,0,0,0,0,0,0,0,0,0,0,0,0,0,0,0,0,0,0,0,0,0,0,0,0,0,0,0,0,0,0,0,0,0,0,0,0,0,0,0,0,0,0,0,0,0,0,0,0,0,0,0,0,0,0,0,0,0,0,0,0,0,0,0,0,0,0,0,0,0,0,0,0,0,0,0,0,0,0,3225,0,0,0,0,0,0,0,0,0,0,0,0,0,0,0,0,0,0,0,0,0,0,0,0,0,0,0,0,0,0,0,0,0,0,0,0,0,0,0,3220,0,0,0,0,0,0,0,0,0,0,0,0,0,3222,0,0,0,0,0,0,0,0,0,0,0,0,0,0,0,0,0,0,0,3224,0,0,0,0,0,0,0,0,0,0,3225,0,0,0,0,0,0,0,0,0,0,0,0,0,0,0,0,0,0,0,3223,0,3222,0,0,0,0,0,0,0,0,0,3221,0,0,0,0,0,0,0,0,0,0,0,0,0,0,0,0,0,0,0,0,0,0,0,0,0,0,0,0,0,0,0,0,0,0,0,0,0,0,0,0,0,0,0,0,0,0,0,0,0,0,0,0,0,0,0,0,0,0,0,0,0,0,0,0,0,0,0,0,0,0,0,0,0,0,0,0,0,0,0,0,0,0,0,0,0,0,0,0,0,0,0,0,0,0,0,0,0,0,0,0,0,0,0,0,0,0,0,0,0,0,0,0,0,0,0,0,0,0,0,0,0,0,3223,0,0,0,0,0,0,0,3220,0,3223,0,0,0,0,0,0,0,0,0,0,0,0,0,0,0,0,0,0,0,0,0,0,0,0,3221,0,0,0,0,0,0,0,0,0,0,0,0,0,0,0,0,0,0,0,0,0,0,0,0,0,0,3222,0,0,0,0,0,3222,0,0,0,0,0,0,0,0,0,0,0,0,0,0,0,0,0,0,0,0,0,0,0,0,0,3220,0,0,0,0,0,0,0,0,0,0,0,0,0,0,0,0,0,0,0,0,0,0,0,0,0,0,0,0,3220,0,0,0,0,0,0,0,0,0,0,0,0,0,0,0,0,0,0,0,0,0,0,0,0,0,0,0,0,0,0,0,0,0,0,0,0,0,0,0,0,0,0,0,0,0,0,0,0,0,0,0,0,0,0,0,0,0,0,0,0,0,0,0,0,0,0,0,0,0,0,0,0,0,0,0,0,0,0,0,0,0,0,0,0,0,0,0,0,0,0,0,0,0,0,0,0,0,0,0,0,0,0,0,0,0,0,0,0,0,0,0,0,0,0,0,0,0,0,0,0,0,0,0,0,0,0,0,0,0,0,0,0,0,0,0,0,0,0,0,0,0,3223,0,0,0,0,0,0,3225,0,0,0,0,0,0,0,3221,0,0,0,0,0,0,0,0,0,3223,0,0,0,0,0,0,0,0,0,0,0,0,0,0,0,0,0,0,0,0,0,0,3225,0,0,0,0,0,0,0,0,0,0,0,0,0,0,0,0,0,0,0,0,0,0,0,0,0,0,0,0,0,0,0,0,0,0,0,0,0,0,0,0,0,3224,0,0,0,0,0,0,0,3221,0,0,0,0,0,0,0,0,0,0,0,0,0,0,0,0,0,0,0,0,0,0,0,3224,0,0,0,0,0,0,0,0,0,0,0,0,0,0,0,0,0,0,0,0,0,0,0,0,0,0,0,0,0,0,0,0,0,0,0,0,0,0,0,0,0,0,0,0,0,0,0,0,0,0,0,0,0,0,0,0,0,0,0,0,0,0,0,0,0,0,0,0,0,0,0,0,0,0,0,0,0,0,0,0,0,0,0,0,0,0,0,0,0,0,0,0,0,0,0,0,0,0,0,0,0,0,0,0,0,0,0,0,0,0,0,0,0,0,0,0,0,0,0,0,0,0,0,0,0,0,0,0,0,0,0,0,0,0,0,0,0,0,0,0,0,0,0,0,0,0,3224,0,0,0,0,0,0,0,0,0,0,0,0,0,0,0,0,3220,0,0,0,0,0,0,0,0,0,0,3222,0,0,0,0,0,0,0,0,0,0,0,0,0,0,0,0,3221,0,0,0,0,0,0,0,0,0,0,0,0,0,0,0,0,0,0,0,3225,0,0,0,0,0,0,0,0,0,0,0,0,0,0,0,0,0,0,0,0,0,0,0,0,0,0,0,0,0,0,0,0,0,0,0,0,0,0,0,0,0,0,0,0,0,0,0,0,3222,0,0,0,0,0,0,0,0,0,0,0,0,0,0,0,0,0,0,0,0,0,0,0,0,0,0,0,0,0,0,0,0,0,0,0,0,0,0,0,0,0,0,0,0,0,0,0,0,0,0,0,0,0,0,0,0,0,0,0,0,0,0,0,0,0,0,0,0,0,0,0,0,0,0,0,0,0,0,0,0,0,0,0,0,0,0,0,0,0,0,0,0,0,0,0,0,0,0,0,0,0,0,0,0,0,0,0,0,0,0,0,0,0,0,0,0,0,0,0,0,0,0,0,0,0,0,0,0,0,0,0,0,0,0,0,0,0,0,0,0,0,0,0,0,0,0,0,0,0,0,0,0,0,0,0,0,0,0,0,0,0,0,0,0,0,0,0,0,0,0,0,0,0,0,0,0,0,0,0,0,0,0,0,0,0,0,0,0,0,3223,0,0,0,0,0,0,3225,0,0,0,0,0,0,0,0,0,0,0,0,0,0,3220,0,0,0,0,0,0,0,0,0,0,0,0,0,0,0,0,0,0,0,0,0,0,0,0,0,0,0,0,0,0,0,0,0,0,0,0,0,0,0,0,0,0,0,0,0,0,0,0,0,0,0,0,0,0,0,0,0,0,0,0,0,0,0,0,0,0,0,0,0,0,0,0,0,0,0,0,0,0,0,0,0,0,0,0,0,0,0,0,0,0,0,0,0,0,0,0,0,0,0,0,0,0,0,0,0,0,0,0,0,0,0,0,0,0,0,0,0,0,0,0,0,0,0,0,0,0,0,0,0,0,0,0,0,0,0,0,0,0,0,0,0,0,0,0,0,0,0,0,0,0,0,0,0,0,0,0,0,0,0,0,0,0,0,0,0,0,0,0,0,0,0,0,0,0,0,0,0,0,0,0,0,0,0,0,0,0,0,0,0,0,0,0,0,0,0,3222,0,0,0,0,0,0,0,0,0,0,0,0,0,0,0,0,0,0,0,0,0,0,0,0,0,0,0,0,3222,3225,0,0,0,0,0,0,0,0,3225,0,0,3222,0,0,0,0,0,0,0,0,0,0,0,0,0,0,0,0,0,0,0,0,0,0,0,0,0,0,0,0,0,0,0,0,0,0,0,0,0,0,0,0,0,0,0,0,0,0,3223,0,0,0,0,0,0,0,0,0,0,0,0,0,0,0,0,0,0,0,0,0,0,0,0,0,0,0,0,0,0,0,0,0,0,0,0,0,0,0,0,0,0,0,0,0,0,0,0,0,0,0,0,0,0,0,0,0,0,0,0,0,0,0,0,0,0,0,0,0,0,0,0,0,0,0,0,0,0,0,0,0,0,0,0,0,0,0,0,0,0,0,0,0,0,0,0,0,0,0,0,0,0,0,0,0,0,0,0,0,0,0,0,0,0,0,0,0,0,0,0,0,0,0,0,0,0,0,0,0,0,0,0,0,0,0,0,0,0,0,0,0,0,3223,0,0,0,0,0,0,0,0,0,0,0,0,0,0,0,0,0,0,0,0,0,0,0,0,0,0,0,0,0,0,0,0,0,0,0,0,0,0,0,0,0,0,0,0,0,3222,0,0,3220,0,0,0,0,0,0,0,0,0,0,0,0,0,0,0,0,3221,0,3224,0,0,0,0,0,0,0,0,0,0,0,0,0,0,0,0,0,0,0,0,0,0,0,0,0,0,0,0,0,0,0,0,0,0,0,3225,0,3222,0,0,0,0,0,0,0,0,0,0,0,0,0,0,0,0,0,0,0,0,0,0,3224,0,0,0,0,0,0,0,0,0,0,0,0,0,0,0,0,0,0,0,0,0,0,0,0,0,0,0,0,0,0,0,0,0,0,0,0,0,0,0,0,0,0,0,0,0,0,0,0,0,0,0,0,0,0,0,0,0,0,0,0,0,0,0,0,0,0,0,0,0,0,0,0,0,0,0,0,0,0,0,0,0,0,0,0,0,0,0,0,0,0,0,0,0,0,0,0,0,0,0,0,0,0,0,0,0,0,0,0,0,0,0,0,0,0,0,0,0,0,0,0,0,0,0,0,0,0,0,0,0,0,0,0,0,0,0,0,0,0,0,0,0,0,0,0,0,0,0,0,0,0,0,0,0,0,0,0,0,0,0,0,0,0,0,0,0,0,0,0,0,0,0,0,0,0,0,0,0,0,0,0,0,0,0,0,0,0,0,0,0,0,0,0,0,0,0,0,0,0,0,0,0,0,0,0,0,0,3223,0,0,0,0,0,3220,0,0,0,0,0,0,0,0,0,0,0,0,0,3223,0,0,0,0,0,0,0,0,3223,0,0,0,0,0,0,0,0,0,0,0,0,0,0,0,0,0,0,0,0,0,0,0,0,0,0,0,0,0,0,0,0,0,0,0,0,0,0,0,0,0,0,0,0,0,0,0,0,0,0,0,0,0,0,0,0,0,0,0,0,0,0,0,0,0,0,0,0,0,0,0,0,0,0,0,0,0,0,0,0,0,0,0,0,0,0,0,0,0,0,0,0,0,0,0,0,0,0,0,0,0,0,0,0,0,0,0,0,0,0,0,0,0,0,0,0,0,0,0,0,0,0,0,0,0,0,0,0,0,0,0,0,0,0,0,0,0,0,0,0,0,0,0,0,0,0,0,3220,0,0,0,0,0,0,3223,3220,0,3225,0,3224,0,3225,0,0,0,0,0,0,0,0,0,0,0,0,0,0,0,0,0,0,0,0,0,0,0,0,0,0,0,0,0,0,0,0,0,0,0,0,0,0,0,0,0,0,3220,0,0,3224,0,0,0,0,3223,0,0,0,3222,0,0,0,0,0,0,0,0,0,0,0,0,0,0,0,0,0,0,0,0,0,0,0,0,0,0,0,0,0,0,0,0,0,0,0,0,0,0,0,0,0,0,0,0,0,0,0,0,0,0,0,0,0,0,0,0,0,0,0,0,0,0,0,0,0,0,0,0,0,0,0,0,0,0,0,0,0,0,0,0,0,0,0,0,0,0,0,0,0,0,0,0,0,0,0,0,0,0,0,0,0,0,0,0,0,0,0,0,0,0,0,0,0,0,0,0,0,0,0,0,0,0,0,0,0,0,0,0,0,0,0,0,0,0,0,0,0,0,0,0,0,0,0,0,0,0,0,0,0,0,0,0,0,0,0,0,0,0,0,0,0,0,0,0,0,0,0,0,0,0,0,0,0,0,0,0,0,0,0,0,0,0,0,0,0,0,0,0,0,0,0,0,0,0,0,0,0,0,0,0,0,0,0,0,0,0,0,0,0,0,0,0,0,0,0,0,0,0,0,0,0,0,0,3222,0,0,0,0,0,0,0,0,0,0,0,0,3222,0,0,0,0,0,0,0,0,0,0,0,0,0,0,0,0,0,0,0,0,0,0,0,0,0,0,0,0,0,0,0,0,0,0,0,0,3223,0,0,0,0,3224,0,0,0,0,0,0,0,0,0,0,0,0,3225,0,0,0,0,0,0,0,0,0,0,0,0,0,0,0,0,3225,0,0,0,0,0,0,0,0,0,0,0,0,0,0,0,0,0,0,0,0,0,0,0,0,0,0,0,0,0,0,0,0,0,0,0,0,0,0,0,0,0,0,0,0,0,0,0,0,0,0,0,0,0,0,0,0,0,0,0,0,0,0,0,0,0,0,0,0,0,0,0,0,0,0,0,0,0,0,0,0,0,0,0,0,0,0,0,0,0,0,0,0,0,0,0,0,0,0,0,0,0,0,0,0,0,0,0,0,0,0,0,0,0,0,0,0,0,0,0,0,0,0,0,0,0,0,0,0,0,0,0,0,0,0,0,0,0,0,0,0,0,0,0,0,0,0,0,0,0,0,0,0,0,0,0,0,0,0,3222,0,0,0,0,0,0,0,0,0,0,0,0,0,0,0,0,0,0,0,0,0,0,0,0,0,0,0,0,3221,0,0,0,0,0,0,0,0,0,0,0,0,0,0,0,0,0,3221,0,0,0,0,0,3223,0,0,0,0,0,0,0,0,0,0,0,0,0,0,0,0,0,0,0,0,0,0,0,0,0,0,0,0,0,3224,0,0,0,0,0,0,0,0,0,0,0,0,0,0,0,0,0,0,0,0,0,0,0,0,0,0,0,0,0,0,0,0,0,0,0,0,0,0,0,0,0,0,0,0,0,0,0,0,0,0,0,0,0,0,0,0,0,0,0,0,0,0,0,0,0,0,0,0,0,0,0,0,0,0,0,0,0,0,0,0,0,0,0,0,0,0,0,0,0,0,0,0,0,0,0,0,0,0,0,0,0,0,0,0,0,0,0,0,0,0,0,0,0,0,0,0,0,0,0,0,0,0,0,0,0,0,0,0,0,0,0,0,0,0,0,0,0,0,0,0,0,0,0,0,0,0,0,0,0,0,0,0,0,0,0,0,0,0,0,0,0,0,0,0,0,0,0,0,0,0,0,0,0,0,0,0,0,0,0,0,0,0,0,0,0,0,0,0,0,0,0,3224,0,3220,0,0,0,0,0,0,0,0,0,0,0,0,3222,0,0,0,0,0,0,0,0,0,0,0,0,0,0,0,0,0,0,0,0,0,0,0,0,0,0,0,0,0,0,0,0,0,0,0,0,0,0,0,0,0,0,0,0,0,0,0,0,0,0,0,0,0,0,0,0,0,0,0,0,0,0,0,3224,0,0,0,0,0,0,0,0,0,0,0,0,0,0,0,0,0,0,0,0,0,0,0,0,0,0,0,0,0,0,0,0,0,0,0,0,0,0,0,0,0,0,0,0,0,0,0,0,0,0,0,0,0,0,0,0,0,0,0,0,0,0,0,0,0,0,0,0,0,0,0,0,0,0,0,0,0,0,0,0,0,0,0,0,0,0,0,0,0,0,0,0,0,0,0,0,0,0,0,0,0,0,0,0,0,0,0,0,0,0,0,0,0,0,0,0,0,0,0,0,0,0,0,0,0,0,0,0,0,0,0,0,0,0,0,0,0,0,0,0,0,0,0,0,0,0,0,0,0,0,0,0,0,0,0,0,0,0,0,0,0,0,0,0,0,0,0,0,0,0,0,0,0,0,0,0,0,0,0,0,0,0,0,0,0,0,0,0,3223,0,0,0,0,0,0,0,0,0,0,0,0,0,0,0,0,0,0,0,0,0,3220,0,0,0,0,0,0,0,0,0,0,0,0,0,0,0,0,0,0,0,0,0,0,0,0,3222,0,0,0,0,0,0,0,0,3223,0,0,0,0,0,0,0,0,0,0,0,0,0,0,0,0,0,0,0,0,0,0,0,0,0,0,0,0,0,0,0,0,0,0,0,0,0,0,0,0,0,0,0,0,0,0,0,0,0,0,0,0,0,0,0,0,0,0,0,0,0,0,0,0,0,0,0,0,0,0,0,0,0,0,0,0,0,0,0,0,0,0,0,0,0,0,0,0,0,0,0,0,0,0,0,0,0,0,0,0,0,0,0,0,0,0,0,0,0,0,0,0,0,0,0,0,0,0,0,0,0,0,0,0,0,0,0,0,0,0,0,0,0,0,0,0,0,0,0,0,0,0,0,0,0,0,0,0,0,0,0,0,0,0,0,0,0,0,0,0,0,0,0,0,3223,0,0,0,0,3225,0,0,3222,0,0,0,0,0,0,0,0,0,0,0,0,0,0,0,0,0,0,0,0,0,0,0,0,0,0,0,3224,0,0,0,0,0,0,0,0,0,0,3221,0,0,0,0,0,0,0,0,0,0,0,0,0,0,0,0,0,0,3225,0,0,0,0,0,0,3224,0,0,0,0,0,0,0,0,0,0,0,0,0,0,0,0,0,0,0,0,0,0,0,0,0,0,0,0,0,0,0,0,0,0,0,0,0,3223,0,3224,0,0,0,0,0,0,0,0,0,0,0,0,0,0,0,0,0,0,0,0,0,0,0,0,0,0,0,0,0,0,0,0,0,0,0,0,0,0,0,0,0,0,0,0,0,0,0,0,0,0,0,0,0,0,0,0,0,0,0,0,0,0,0,0,0,0,0,0,0,0,0,0,0,0,0,0,0,0,0,0,0,0,0,0,0,0,0,0,0,0,0,0,0,0,0,0,0,0,0,0,0,0,0,0,0,0,0,0,0,0,0,0,0,0,0,0,0,0,0,0,0,0,0,0,0,0,0,0,0,0,0,0,0,0,0,0,3221,0,0,0,0,0,0,0,0,0,3222,0,0,3225,0,0,0,3224,3225,0,0,0,0,0,0,0,0,0,0,0,0,0,0,0,0,0,0,0,3223,0,0,0,0,0,0,0,0,0,0,0,0,0,0,0,0,0,0,0,0,0,0,0,0,0,0,0,0,0,0,0,0,0,0,0,0,0,0,0,0,0,0,0,0,0,0,3222,0,0,3224,0,0,0,0,0,0,0,0,0,0,0,0,0,0,0,0,0,0,0,0,0,0,0,0,0,0,0,0,0,0,0,0,0,0,0,0,0,0,0,0,0,0,0,0,0,0,0,0,0,0,0,0,0,0,0,0,0,0,0,0,0,0,0,0,0,0,0,0,0,0,0,0,0,0,0,0,0,0,0,0,0,0,0,0,0,0,0,0,0,0,0,0,0,0,0,0,0,0,0,0,0,0,0,0,0,0,0,0,0,0,0,0,0,0,0,0,0,0,0,0,0,0,0,0,0,0,0,0,0,0,0,0,0,0,0,0,0,0,0,0,0,0,0,0,0,0,0,0,0,0,0,0,0,0,0,0,0,0,0,0,0,0,0,0,0,0,0,0,0,0,0,0,0,0,0,0,0,0,0,0,0,0,0,0,0,0,0,0,0,0,0,0,0,0,0,0,0,0,0,0,0,0,0,0,0,0,0,0,0,0,0,0,0,0,3221,0,0,0,0,0,0,0,0,0,0,0,0,0,0,0,0,0,0,0,0,0,0,3222,0,0,0,0,0,0,3223,0,0,0,0,0,0,0,0,0,0,0,0,0,0,0,0,0,0,0,0,0,3221,0,0,0,0,0,0,0,0,0,0,0,0,0,0,0,0,0,0,0,0,0,0,0,0,0,0,0,0,0,0,0,0,0,0,0,0,0,0,0,0,0,0,0,0,0,0,0,0,0,0,0,0,0,0,0,0,0,0,0,0,0,0,0,0,0,0,0,0,0,0,0,0,0,0,0,0,0,0,0,0,0,0,0,0,0,0,0,0,0,0,0,0,0,0,0,0,0,0,0,0,0,0,0,0,0,0,0,0,0,0,0,0,0,0,0,0,0,0,0,0,0,0,0,0,0,0,0,0,0,0,0,0,0,0,0,0,0,0,0,0,0,0,0,0,0,0,0,0,0,0,0,0,0,0,0,0,0,3222,0,0,0,0,0,0,0,0,0,0,0,0,0,0,0,0,0,0,0,0,0,0,0,0,0,0,0,0,0,0,0,0,0,0,0,0,0,0,0,0,3224,0,0,0,0,0,0,0,0,0,0,0,0,0,0,0,3221,0,0,0,0,0,0,0,0,0,0,0,0,0,0,0,0,0,0,0,0,0,3220,0,0,0,0,0,0,0,0,0,0,0,0,0,0,0,0,0,0,0,0,0,0,0,0,0,0,0,0,0,0,0,0,0,0,0,0,0,0,0,0,0,0,0,0,0,0,0,0,0,0,0,0,0,0,0,0,0,0,0,0,0,0,0,0,0,0,0,0,0,0,0,0,0,0,0,0,0,0,0,0,0,0,0,0,0,0,0,0,0,0,0,0,0,0,0,0,0,0,0,0,0,0,0,0,0,0,0,0,0,0,0,0,0,0,0,0,0,0,0,0,0,0,0,0,0,0,0,0,0,0,0,0,0,0,0,0,0,0,0,0,0,0,0,0,0,0,0,0,0,0,0,0,0,0,0,0,0,0,0,0,0,0,0,0,0,0,0,0,0,0,0,3222,0,0,0,0,0,0,0,3224,0,0,0,0,0,0,0,0,0,0,0,0,0,3220,0,0,0,0,0,0,0,0,0,0,0,0,3220,0,0,0,0,0,0,0,0,0,0,0,3222,0,0,0,0,0,0,0,0,0,0,0,0,0,0,0,0,0,0,0,0,0,0,0,0,0,0,0,0,0,0,0,0,0,0,0,0,0,0,0,0,0,0,0,0,0,0,0,0,0,0,0,0,0,0,0,0,0,0,0,0,0,0,0,0,0,0,0,0,0,0,0,0,0,0,0,0,0,0,0,0,0,0,0,0,0,0,0,0,0,0,0,0,0,0,0,0,0,0,0,0,0,0,0,0,0,0,0,0,0,0,0,0,0,0,0,0,0,0,0,0,0,0,0,0,0,0,0,0,0,0,0,0,0,0,0,0,0,0,0,0,0,0,0,0,0,0,0,0,0,0,0,0,0,0,0,0,0,0,0,0,0,0,0,0,0,0,0,0,0,0,0,0,0,0,0,0,0,0,0,0,0,0,0,0,0,0,0,0,0,0,0,0,0,0,0,0,0,0,0,0,0,0,0,0,0,0,0,0,0,0,0,0,0,0,3223,0,0,0,0,0,0,0,0,0,0,0,0,0,0,0,0,0,0,0,0,0,0,0,0,0,0,0,0,0,0,0,0,0,0,0,0,0,0,3224,0,0,0,0,0,0,0,0,0,0,0,0,0,0,0,0,0,0,0,3225,0,0,0,0,0,0,0,0,0,0,3225,0,0,0,0,0,3224,0,0,0,0,0,0,0,0,0,0,0,0,0,0,0,0,0,0,0,0,0,0,0,0,0,0,0,0,0,0,0,0,0,0,0,0,0,0,0,0,0,0,0,0,0,0,0,0,0,0,0,0,0,0,0,0,0,0,0,0,0,0,0,0,0,0,0,0,0,0,0,0,0,0,0,0,0,0,0,0,0,0,0,0,0,0,0,0,0,0,0,0,0,0,0,0,0,0,0,0,0,0,0,0,0,0,0,0,0,0,0,0,0,0,0,0,0,0,0,0,0,0,0,0,0,0,0,0,0,0,0,0,0,0,0,0,0,0,0,0,0,0,0,0,0,0,0,0,0,0,0,0,0,0,0,0,0,0,0,0,0,0,0,0,0,0,0,0,0,0,0,0,0,0,0,0,0,0,0,0,0,0,0,0,0,0,0,0,0,0,0,0,0,0,0,0,0,0,0,0,3225,0,0,0,0,0,0,0,0,0,0,0,0,0,0,0,0,0,0,0,0,0,0,0,0,0,0,0,3222,0,0,0,0,0,0,0,0,0,0,0,0,0,0,0,0,0,0,0,0,0,0,0,0,0,0,0,0,0,0,0,0,0,0,0,0,0,0,0,0,0,0,0,0,0,0,0,0,0,0,0,0,0,0,0,0,0,0,0,0,0,0,0,0,0,0,0,0,0,0,0,0,0,0,0,0,0,0,0,0,0,0,0,0,0,0,0,0,0,0,0,0,0,0,0,0,0,0,0,0,0,0,0,0,0,0,0,0,0,0,0,0,0,0,0,0,0,0,0,0,0,0,0,0,0,0,0,0,0,0,0,0,0,0,0,0,0,0,0,0,0,0,0,0,0,0,0,0,0,0,0,0,0,0,0,0,0,0,0,0,0,0,0,0,0,0,0,0,0,0,0,0,0,0,0,0,0,0,0,0,0,0,0,0,0,0,0,0,0,0,0,0,0,0,0,0,0,0,0,0,0,0,0,0,0,0,0,0,0,0,0,0,0,0,0,0,0,0,0,0,0,0,0,0,0,0,0,0,0,0,0,0,3220,0,0,0,0,0,0,0,3225,0,0,0,0,0,0,0,0,0,0,0,0,0,0,0,0,0,0,3224,0,0,0,0,0,0,0,0,0,0,0,0,0,0,0,0,0,0,0,0,0,3225,0,0,0,0,0,0,0,0,0,0,0,0,0,0,0,0,0,0,0,0,0,0,0,0,0,0,0,0,0,0,0,0,0,0,0,0,0,0,0,0,0,0,0,0,0,0,0,0,0,0,0,0,0,0,0,0,0,0,0,0,0,0,0,0,0,0,0,0,0,0,0,0,0,0,0,0,0,0,0,0,0,0,0,0,0,0,0,0,0,0,0,0,0,0,0,0,0,0,0,0,0,0,0,0,0,0,0,0,0,0,0,0,0,0,0,0,0,0,0,0,0,0,0,0,0,0,0,0,0,0,0,0,0,0,0,0,0,0,0,0,0,0,0,0,0,0,0,0,0,0,0,0,0,0,0,0,0,0,0,0,0,0,0,0,0,0,0,0,0,0,0,0,0,0,0,0,0,0,0,0,0,0,0,0,0,0,0,0,0,0,0,0,0,0,0,0,0,0,0,0,0,0,0,0,0,0,0,0,3223,0,0,0,0,0,0,0,0,0,0,3225,0,0,0,0,0,0,0,0,0,0,0,0,0,0,0,0,0,0,0,0,0,0,0,0,0,0,0,0,0,0,0,0,0,0,0,0,0,0,0,0,0,0,0,0,0,0,0,0,0,0,0,0,0,0,0,0,0,0,0,0,0,0,0,0,0,0,0,0,0,0,0,0,0,0,0,0,0,0,0,0,0,0,0,0,0,0,0,0,0,0,0,0,0,0,0,0,0,0,0,0,0,0,0,0,0,0,0,0,0,0,0,0,0,0,0,0,0,0,0,0,0,0,0,0,0,0,0,0,0,0,0,0,0,0,0,0,0,0,0,0,0,0,0,0,0,0,0,0,0,0,0,0,0,0,0,0,0,0,0,0,0,0,0,0,0,0,0,0,0,0,0,0,0,0,0,0,0,0,0,0,0,0,0,0,0,0,0,0,0,0,0,0,0,0,0,0,0,0,0,0,0,0,0,0,0,0,0,0,0,0,0,0,0,0,0,0,0,0,0,0,0,0,0,0,0,0,0,0,0,0,0,0,0,0,0,0,0,0,0,0,0,0,0,0,0,0,0,0,0,0,0,0,0,0,0,0,0,0,0,0,0,0,0,0,0,3223,0,0,0,3224,0,0,3224,0,0,0,0,0,0,0,0,0,0,0,0,0,0,0,0,0,0,3222,0,0,0,0,0,0,0,0,0,0,0,0,0,0,0,0,0,0,0,0,0,0,0,0,0,0,0,0,0,0,0,0,0,0,0,0,0,0,0,0,0,0,0,0,0,0,0,0,0,0,0,0,0,0,0,0,0,0,0,0,0,0,0,0,0,0,0,0,0,0,0,0,0,0,0,0,0,0,0,0,0,0,0,0,0,0,0,0,0,0,0,0,0,0,0,0,0,0,0,0,0,0,0,0,0,0,0,0,0,0,0,0,0,0,0,0,0,0,0,0,0,0,0,0,0,0,0,0,0,0,0,0,0,0,0,0,0,0,0,0,0,0,0,0,0,0,0,0,0,0,0,0,0,0,0,0,0,0,0,0,0,0,0,0,0,0,0,0,0,0,0,0,0,0,0,0,0,0,3221,0,0,0,0,0,0,0,0,0,0,0,0,0,0,0,0,0,0,0,0,0,0,0,0,0,0,0,0,0,0,0,0,0,0,0,0,0,0,0,0,0,0,0,0,3223,0,0,0,0,0,0,0,0,0,0,0,0,0,0,0,0,0,0,0,0,0,0,0,0,0,0,0,0,0,0,0,0,0,0,0,0,0,0,0,0,0,0,0,0,0,0,0,0,0,0,0,0,0,0,0,0,0,0,0,0,0,0,0,0,0,0,0,0,0,0,0,0,0,0,0,0,0,0,0,0,0,0,0,0,0,0,0,0,0,0,0,0,0,0,0,0,0,0,0,0,0,0,0,0,0,0,0,0,0,0,0,0,0,0,0,0,0,0,0,0,0,0,0,0,0,0,0,0,0,0,0,0,0,0,0,0,0,0,0,0,0,0,0,0,0,0,0,0,0,0,0,0,0,0,0,0,0,0,0,0,0,0,0,0,0,0,0,0,0,0,0,0,0,0,0,0,0,0,0,0,0,0,0,0,0,0,0,0,0,0,0,0,0,0,0,0,0,0,0,0,0,0,0,0,0,0,0,0,0,0,0,0,0,0,0,0,0,0,0,0,0,0,0,0,0,3220,0,0,0,0,0,0,0,0,0,0,0,0,0,0,0,0,0,0,0,0,0,0,0,0,0,0,0,0,0,0,0,0,0,0,0,0,0,0,0,0,0,0,0,0,0,0,3223,0,0,0,0,0,0,0,0,0,0,0,0,0,0,0,0,0,0,0,0,0,3224,0,0,0,0,0,0,0,0,0,0,0,0,0,0,0,0,0,0,0,0,0,0,0,0,0,0,0,0,0,0,0,0,0,0,0,0,0,0,0,0,0,0,0,0,0,0,0,0,0,0,0,0,0,0,0,0,0,0,0,0,0,0,0,0,0,0,0,0,0,0,0,0,0,0,0,0,0,0,0,0,0,0,0,0,0,0,0,0,0,0,0,0,0,0,0,0,0,0,0,0,0,0,0,0,0,0,0,0,0,0,0,0,0,0,0,0,0,0,0,0,0,0,0,0,0,0,0,0,0,0,0,0,0,0,0,0,0,0,0,0,0,0,0,0,0,0,0,0,0,0,0,0,0,0,0,0,0,0,0,0,0,0,0,0,0,0,0,0,0,0,0,0,0,0,0,0,0,0,0,0,0,0,0,3221,0,0,3223,0,0,0,0,0,0,0,0,0,0,0,0,0,0,0,0,0,0,0,0,0,0,0,0,0,0,0,0,0,0,0,0,0,0,0,0,0,0,0,0,3223,0,0,0,0,0,0,0,0,0,0,0,0,0,0,0,0,0,0,0,0,0,0,0,0,0,0,3221,0,0,0,0,0,0,0,0,0,0,0,0,0,0,0,0,0,0,0,0,0,0,0,0,0,0,0,0,0,0,0,0,0,0,0,0,0,0,0,0,0,0,0,0,0,0,0,0,0,0,0,0,0,0,0,0,0,0,0,0,0,0,0,0,0,0,0,0,0,0,0,0,0,0,0,0,0,0,0,0,0,0,0,0,0,0,0,0,0,0,0,0,0,0,0,0,0,0,0,0,0,0,0,0,0,0,0,0,0,0,0,0,0,0,0,0,0,0,0,0,0,0,0,0,0,0,0,0,0,0,0,0,0,0,0,0,0,0,0,0,0,0,0,0,0,0,0,0,0,0,0,0,0,0,0,0,0,0,0,0,0,0,0,0,0,0,0,0,0,0,0,0,0,0,0,0,0,0,0,0,0,0,0,0,0,0,0,0,0,0,0,0,0,0,0,0,0,0,0,0,0,0,0,0,0,0,0,0,0,0,0,0,3220,0,0,0,0,0,0,0,0,0,0,0,0,0,0,0,0,0,0,0,0,0,0,0,0,0,0,0,0,0,0,0,0,0,0,0,0,0,0,0,0,0,0,0,0,0,0,0,0,0,0,0,0,0,0,0,0,0,0,0,0,0,0,0,0,0,0,0,0,0,0,0,0,0,0,0,0,0,0,0,0,0,0,0,0,0,0,0,0,0,0,0,0,0,0,0,0,0,0,0,0,0,0,0,0,0,0,0,0,0,0,0,0,0,0,0,0,0,0,0,0,0,0,0,0,0,0,0,0,0,0,0,0,0,0,0,0,0,0,0,0,0,0,0,0,0,0,0,0,0,0,0,0,0,0,0,0,0,0,0,0,0,0,0,0,0,0,0,0,0,0,0,0,0,0,0,0,0,0,0,0,0,0,0,0,0,0,0,0,0,0,0,0,0,0,0,0,0,0,0,0,0,0,0,0,0,0,0,0,0,0,0,0,0,0,0,0,0,0,0,0,0,0,0,0,0,0,0,0,0,0,0,0,3222,0,0,0,0,0,0,0,0,0,0,0,0,0,0,0,0,0,0,0,0,0,0,0,0,0,0,0,0,0,0,0,0,0,0,0,0,0,0,0,0,0,0,0,0,0,0,0,0,0,0,0,0,0,0,0,0,0,0,0,0,0,0,0,0,0,0,0,0,0,0,0,0,0,0,0,0,0,0,0,0,0,0,0,0,0,0,0,0,0,0,0,0,0,0,0,0,0,0,0,0,0,0,0,0,0,0,0,0,0,0,0,0,0,0,0,0,0,0,0,0,0,0,0,0,0,0,0,0,0,0,0,0,0,0,0,0,0,0,0,0,0,0,0,0,0,0,0,0,0,0,0,0,0,0,0,0,0,0,0,0,0,0,0,0,0,0,0,0,0,0,0,0,0,0,0,0,0,0,0,0,0,0,0,0,0,0,0,0,0,0,0,0,0,0,0,0,0,0,0,0,0,0,0,0,0,0,0,0,0,0,0,0,0,0,0,0,0,0,0,0,0,0,0,0,0,0,0,0,0,0,0,0,0,0,0,0,0,0,0,0,0,0,0,0,0,0,0,0,0,0,0,0,0,0,0,0,0,0,0,0,0,0,0,0,0,0,0,0,0,0,0,0,0,0,0,0,0,0,0,0,3223,0,0,0,0,0,0,0,0,0,0,0,0,0,0,0,0,0,0,0,0,0,0,0,0,0,0,0,0,0,0,0,0,0,0,0,0,0,0,0,0,0,0,0,0,0,0,0,0,0,0,0,0,0,0,0,0,0,0,0,0,0,0,0,0,0,0,0,0,0,0,0,0,0,0,0,0,0,0,0,0,0,0,0,0,0,0,0,0,0,0,0,0,0,0,0,0,0,0,0,0,0,0,0,0,0,0,0,0,0,0,0,0,0,0,0,0,0,0,0,0,0,0,0,0,0,0,0,0,0,0,0,0,0,0,0,0,0,0,0,0,0,0,0,0,0,0,0,0,0,0,0,0,0,0,0,0,0,0,0,0,0,0,0,0,0,0,0,0,0,0,0,0,0,0,0,0,0,0,0,0,0,0,0,0,0,0,0,0,0,0,0,0,0,0,0,0,0,0,0,0,0,0,0,0,0,0,0,0,0,0,0,0,0,0,0,0,0,0,0,0,0,0,0,0,0,0,0,0,0,0,0,0,0,0,0,0,0,0,0,3221,0,0,0,0,3223,0,0,0,0,0,0,0,0,0,0,0,0,0,0,0,0,0,0,0,0,0,0,0,0,0,0,0,0,0,0,0,0,0,0,0,0,0,0,0,0,0,0,0,0,0,0,0,0,0,0,0,0,0,0,0,0,0,0,0,0,0,0,0,0,0,0,0,0,0,0,0,0,0,0,0,0,0,0,0,0,0,0,0,0,0,0,0,0,0,0,0,0,0,0,0,0,0,0,0,0,0,0,0,0,0,0,0,0,0,0,0,0,0,0,0,0,0,0,0,0,0,0,0,0,0,0,0,0,0,0,0,0,0,0,0,0,0,0,0,0,0,0,0,0,0,0,0,0,0,0,0,0,0,0,0,0,0,0,0,0,0,0,0,0,0,0,0,0,0,0,0,0,0,0,0,0,0,0,0,0,0,0,0,0,0,0,0,0,0,0,0,0,0,0,0,0,0,0,0,0,0,0,0,0,0,0,0,0,0,0,0,0,0,0,0,0,0,0,0,0,0,0,0,0,0,0,0,0,0,0,0,0,0,0,0,0,0,0,0,0,0,0,0,0,0,0,0,0,0,0,0,0,0,0,0,0,0,0,0,0,0,0,0,0,0,0,0,0,0,0,0,0,0,0,0,0,0,0,0,0,0,0,0,0,0,0,0,0,0,0,0,0,0,0,0,0,0,0,0,0,0,0,0,0,0,0,0,0,0,0,0,0,0,0,0,0,0,0,0,0,0,0,0,0,0,0,0,0,0,0,0,0,0,0,0,0,0,0,0,0,0,0,0,0,0,0,0,0,0,0,0,0,0,0,0,0,0,0,0,0,0,0,0,0,0,0,0,0,0,0,0,0,0,0,0,0,0,0,0,0,0,0,0,0,0,0,0,0,0,0,0,0,0,0,0,0,0,0,0,0,0,0,0,0,0,0,0,0,0,0,0,0,0,0,0,0,0,0,0,0,0,0,0,0,0,0,0,0,0,0,0,0,0,0,0,0,0,0,0,0,0,0,0,0,0,0,0,0,0,0,0,0,0,0,0,0,0,0,0,0,0,0,0,0,0,0,0,0,0,0,0,0,0,0,0,0,0,0,0,0,0,0,0,0,0,0,0,0,0,0,0,0,0,0,0,0,0,3222,0,0,0,0,0,0,0,0,0,0,0,0,0,0,0,0,0,0,0,0,0,0,0,0,0,0,0,0,0,0,0,0,0,0,3224,0,0,0,0,0,0,0,0,0,0,0,0,0,0,0,0,0,0,0,0,0,0,0,0,0,0,0,0,0,0,0,0,0,0,0,0,0,0,0,0,0,0,0,0,0,0,0,0,0,0,0,0,0,0,0,0,0,0,0,0,0,0,0,0,0,0,0,0,0,0,0,0,0,0,0,0,0,0,0,0,0,0,0,0,0,0,0,0,0,0,0,0,0,0,0,0,0,0,0,0,0,0,0,0,0,0,0,0,0,0,0,0,0,0,0,0,0,0,0,0,0,0,0,0,0,0,0,0,0,0,0,0,0,0,0,0,0,0,0,0,0,0,0,0,0,0,0,0,0,0,0,0,0,0,0,0,0,0,0,0,0,0,0,0,0,0,0,0,0,0,0,0,0,0,0,0,0,0,0,0,0,0,0,0,0,0,0,0,0,0,0,0,0,0,0,0,0,0,0,0,0,0,0,0,0,0,0,0,0,0,0,0,0,0,0,0,0,0,0,0,0,0,0,0,0,0,0,0,0,0,0,0,0,0,0,0,0,0,0,0,0,0,0,0,0,0,0,0,0,0,0,0,0,0,0,0,0,0,0,0,0,0,0,0,0,0,0,0,0,0,0,0,0,0,0,0,0,0,0,0,0,0,0,0,0,0,0,0,0,0,0,0,0,0,0,0,0,0,0,0,0,0,0,0,0,0,0,0,0,0,0,0,0,0,0,0,0,0,0,0,0,0,0,0,0,0,0,0,0,0,0,0,0,0,0,0,0,0,0,0,0,0,0,0,0,0,0,0,0,0,0,0,0,0,0,0,0,0,0,0,0,0,0,0,0,0,0,0,0,0,0,0,0,0,0,0,0,0,0,0,0,0,0,0,0,0,0,0,0,0,0,0,0,0,0,0,0,0,0,0,0,0,0,0,0,0,0,0,0,0,0,0,0,0,0,0,0,0,0,0,0,0,0,0,0,0,0,0,0,0,0,0,0,0,0,0,0,0,0,0,0,0,0,0,0,0,0,0,0,0,0,0,0,0,0,0,0,0,0,0,0,0,0,0,0,0,0,0,0,0,0,0,0,0,0,0,0,0,0,0,0,0,0,0,0,0,0,0,0,0,0,0,0,0,0,0,0,0,0,0,0,0,0,0,0,0,0,0,0,0,0,0,0,0,0,0,0,0,0,0,0,0,0,0,0,0,0,0,0,0,0,0,0,0,0,0,0,0,0,0,0,0,0,0,0,0,0,0,0,0,0,0,0,0,0,0,0,0,0,0,0,0,0,0,0,0,0,0,0,0,0,0,0,0,0,0,0,0,0,0,0,0,0,0,0,0,0,0,0,0,0,0,0,0,0,0,0,0,0,0,0,0,0,0,0,0,0,0,0,0,0,0,0,0,0,0,0,0,0,0,0,0,0,0,0,0,0,0,0,0,0,0,0,0,0,0,0,0,0,0,0,0,0,0,0,0,0,0,0,0,0,0,0,0,0,0,0,0,0,0,0,0,0,0,0,0,0,0,0,0,0,0,0,0,0,0,0,0,0,0,0,0,0,0,0,0,0,0,0,0,0,0,0,0,0,0,0,0,0,0,0,0,0,0,0,0,0,0,0,0,0,0,0,0,0,0,0,0,0,0,0,0,0,0,0,0,0,0,0,0,0,0,0,0,0,0,0,0,0,0,0,0,0,0,0,0,0,0,0,0,0,0,0,0,0,0,0,0,0,0,0,0,0,3223,0,0,0,0,0,0,0,0,0,0,0,0,0,0,0,0,0,0,0,0,0,0,0,0,0,0,0,0,0,0,0,0,0,0,0,0,0,0,0,0,0,0,0,0,0,0,0,0,0,0,0,0,0,0,0,0,0,0,0,0,0,0,0,0,0,0,0,0,0,0,0,0,0,0,0,0,0,0,0,0,0,0,0,0,0,0,0,0,0,0,0,0,0,0,0,0,0,0,0,0,0,0,0,0,0,0,0,0,0,0,0,0,0,0,0,0,0,0,0,0,0,0,0,0,0,0,0,0,0,0,0,0,0,0,0,0,0,0,0,0,0,0,0,0,0,0,0,0,0,0,0,0,0,0,0,0,0,0,0,0,0,0,0,0,0,0,0,0,0,0,0,0,0,0,0,0,0,0,0,0,0,0,0,0,0,0,0,0,0,0,0,0,0,0,0,0,0,0,0,0,0,0,0,0,0,0,0,0,0,0,0,0,0,0,0,0,0,0,0,0,0,0,0,0,0,0,0,0,0,0,0,0,0,0,0,0,0,0,0,0,0,0,0,0,0,0,0,0,0,0,0,0,0,0,0,0,0,0,0,0,0,0,0,0,0,0,0,0,0,0,0,0,0,0,0,0,0,0,0,0,0,0,0,0,0,0,0,0,0,0,0,0,0,0,0,0,0,0,0,0,0,0,0,0,0,0,0,0,0,0,0,0,0,0,0,0,0,0,0,0,0,0,0,0,0,0,0,0,0,0,0,0,0,0,0,0,0,0,0,0,0,0,0,0,0,0,0,0,0,0,0,0,0,0,0,0,0,0,0,0,0,0,0,0,0,0,0,0,0,0,0,0,0,0,0,0,0,0,0,0,0,0,0,0,0,0,0,0,0,0,0,0,0,0,0,0,0,0,0,0,0,0,0,0,0,0,0,0,0,0,0,0,0,0,0,0,0,0,0,0,0,0,0,0,0,0,0,0,0,0,0,0,0,0,0,0,0,0,0,0,0,0,0,0,0,0,0,0,0,0,0,0,0,0,0,0,0,0,0,0,0,0,0,0,0,0,0,0,0,0,0,0,0,0,0,0,0,0,0,0,0,0,0,0,0,0,0,0,0,0,0,0,0,0,0,0,0,0,0,0,0,0,0,0,0,0,0,0,0,0,0,0,0,0,0,0,0,0,0,0,0,0,0,0,0,0,0,0,0,0,0,0,0,0,0,0,0,0,0,0,0,0,0,0,0,0,0,0,0,0,0,0,0,0,0,0,0,0,0,0,0,0,0,0,0,0,0,0,0,0,0,0,0,0,0,0,0,0,0,0,0,0,0,0,0,0,0,0,0,0,0,0,0,0,0,0,0,0,0,0,0,0,0,0,0,0,0,0,0,0,0,0,0,0,0,0,0,0,0,0,0,0,0,0,0,0,0,0,0,0,0,0,0,0,0,0,0,0,0,0,0,0,0,0,0,0,0,0,0,0,0,0,0,0,0,0,0,0,0,0,0,0,0,0,0,0,0,0,0,0,0,0,0,0,0,0,0,0,0,0,0,0,0,0,0,0,0,0,0,0,0,0,0,0,0,0,0,0,0,0,0,0,0,0,0,0,0,0,0,0,0,0,0,0,0,0,0,0,0,0,0,0,0,0,0,0,0,0,0,0,0,0,0,0,0,0,0,0,0,0,0,0,0,0,0,0,0,0,0,0,0,0,0,0,0,0,0,0,0,0,0,0,0,0,0,0,0,0,0,0,0,0,0,0,0,0,0,0,0,0,0,0,0,0,0,0,0,0,0,0,0,0,0,0,0,0,0,0,0,0,0,0,0,0,0,0,0,0,0,0,0,0,0,0,0,0,0,0,0,0,0,0,0,0,0,0,0,0,0,0,0,0,0,0,0,0,0,0,0,0,0,0,0,0,0,0,0,0,0,0,0,0,0,0,0,0,0,0,0,0,0,0,0,0,0,0,0,0,0,0,0,0,0,0,0,0,0,0,0,0,0,0,0,0,0,0,0,0,0,0,0,0,0,0,0,0,0,0,0,0,0,0,0,0,0,0,0,0,0,0,0,0,0,0,0,0,0,0,0,0,0,0,0,0,0,0,0,0,0,0,0,0,0,0,0,0,0,0,0,0,0,0,0,0,0,0,0,0,0,0,0,0,0,0,0,0,0,0,0,0,0,0,0,0,0,0,0,0,0,0,0,0,0,0,0,0,0,0,0,0,0,0,0,0,0,0,0,0,0,0,0,0,0,0,0,0,0,0,0,0,0,0,0,0,0,0,0,0,0,0,0,0,0,0,0,0,0,0,0,0,0,0,0,0,0,0,0,0,0,0,0,0,0,0,0,0,0,0,0,0,0,0,0,0,0,0,0,0,0,0,0,0,0,0,0,0,0,0,0,0,0,0,0,0,0,0,0,0,0,0,0,0,0,0,0,0,0,0,0,0,0,0,0,0,0,0,0,0,0,0,0,0,0,0,0,0,0,0,0,0,0,0,0,0,0,0,0,0,0,0,0,0,0,0,0,0,0,0,0,0,0,0,0,0,0,0,0,0,0,0,0,0,0,0,0,0,0,0,0,0,0,0,0,0,0,0,0,0,0,0,0,0,0,0,0,0,0,0,0,0,0,0,0,0,0,0,0,0,0,0,0,0,0,0,0,0,0,0,0,0,0,0,0,0,0,0,0,0,0,0,0,0,0,0,0,0,0,0,0,0,0,0,0,0,0,0,0,0,0,0,0,0,0,0,0,0,0,0,0,0,0,0,0,0,0,0,0,0,0,0,0,0,0,0,0,0,0,0,0,0,0,0,0,0,0,0,0,0,0,0,0,0,0,0,0,0,0,0,0,0,0,0,0,0,0,0,0,0,0,0,0,0,0,0,0,0,0,0,0,3224,0,0,0,0,0,0,0,0,0,0,0,0,0,0,0,0,0,0,0,0,0,0,0,0,0,0,0,0,0,0,0,0,0,0,0,0,0,0,0,0,0,0,0,0,0,0,0,0,0,0,0,0,0,0,0,0,0,0,0,0,0,0,0,0,0,0,0,0,0,0,0,0,0,0,0,0,0,0,0,0,0,0,0,0,0,0,0,0,0,0,0,0,0,0,0,0,0,0,0,0,0,0,0,0,0,0,0,0,0,0,0,0,0,0,0,0,0,0,0,0,0,0,0,0,0,0,0,0,0,0,0,0,0,0,0,0,0,0,0,0,0,0,0,0,0,0,0,0,0,0,0,0,0,0,0,0,0,0,0,0,0,0,0,0,0,0,0,0,0,0,0,0,0,0,0,0,0,0,0,0,0,0,0,0,0,0,0,0,0,0,0,0,0,0,0,0,0,0,0,0,0,0,0,0,0,0,0,0,0,0,0,0,0,0,0,0,0,0,0,0,0,0,0,0,0,0,0,0,0,0,0,0,0,0,0,0,0,0,0,0,0,0,0,0,0,0,0,0,0,0,0,0,0,0,0,0,0,0,0,0,0,0,0,0,0,0,0,0,0,0,0,0,0,0,0,0,0,0,0,0,0,0,0,0,0,0,0,0,0,0,0,0,0,0,0,0,0,0,0,0,0,0,0,0,0,0,0,0,0,0,0,0,0,0,0,0,0,0,0,0,0,0,0,0,0,0,0,0,0,0,0,0,0,0,0,0,0,0,0,0,0,0,0,0,0,0,0,0,0,0,0,0,0,0,0,0,0,0,0,0,0,0,0,0,0,0,0,0,0,0,0,0,0,0,0,0,0,0,0,0,0,0,0,0,0,0,0,0,0,0,0,0,0,0,0,0,0,0,0,0,0,0,0,0,0,0,0,0,0,0,0,0,0,0,0,0,0,0,0,0,0,0,0,0,0,0,0,0,0,0,0,0,0,0,0,0,0,0,0,0,0,0,0,0,0,0,0,0,0,0,0,0,0,0,0,0,0,0,0,0,0,0,0,0,0,0,0,0,0,0,0,0,0,0,0,0,0,0,0,0,0,0,0,0,0,0,0,0,0,0,0,0,0,0,0,0,0,0,0,0,0,0,0,0,0,0,0,0,0,0,0,0,0,0,0,0,0,0,0,0,0,0,0,0,0,0,0,0,0,0,0,0,0,0,0,0,0,0,0,0,0,0,0,0,0,0,0,0,0,0,0,0,0,0,0,0,0,0,0,0,0,0,0,0,0,0,0,0,0,0,0,0,0,0,0,0,0,0,0,0,0,0,0,0,0,0,0,0,0,0,0,0,0,0,0,0,0,0,0,0,0,0,0,0,0,0,0,0,0,0,0,0,0,0,0,0,0,0,0,0,0,0,0,0,0,0,0,0,0,0,0,0,0,0,0,0,0,0,0,0,0,0,0,0,0,0,0,0,0,0,0,0,0,0,0,0,0,0,0,0,0,0,0,0,0,0,0,0,0,0,0,0,0,0,0,0,0,0,0,0,0,0,0,0,0,0,0,0,0,0,0,0,0,0,0,0,0,0,0,0,0,0,0,0,0,0,0,0,0,0,0,0,0,0,0,0,0,0,0,0,0,0,0,0,0,0,0,0,0,0,0,0,0,0,0,0,0,0,0,0,0,0,0,0,0,0,0,0,0,0,0,0,0,0,0,0,0,0,0,0,0,0,0,0,0,0,0,0,0,0,0,0,0,0,0,0,0,0,0,0,0,0,0,0,0,0,0,0,0,0,0,0,0,0,0,0,0,0,0,0,0,0,0,0,0,0,0,0,0,0,0,0,0,0,0,0,0,0,0,0,0,0,0,0,0,0,0,0,0,0,0,0,0,0,0,0,0,0,0,0,0,0,0,0,0,0,0,0,0,0,0,0,0,0,0,0,0,0,0,0,0,0,0,0,0,0,0,0,0,0,0,0,0,0,0,0,0,0,0,0,0,0,0,0,0,0,0,0,0,0,0,0,0,0,0,0,0,0,0,0,0,0,0,0,0,0,0,0,0,0,0,0,0,0,0,0,0,0,0,0,0,0,0,0,0,0,0,0,0,0,0,0,0,0,0,0,0,0,0,0,0,0,0,0,0,0,0,0,0,0,0,0,0,0,0,0,0,0,0,0,0,0,0,0,0,0,0,0,0,0,0,0,0,0,0,0,0,0,0,0,0,0,0,0,0,0,0,0,0,0,0,0,0,0,0,0,0,0,0,0,0,0,0,0,0,0,0,0,0,0,0,0,0,0,0,0,0,0,0,0,0,0,0,0,0,0,0,0,0,0,0,0,0,0,0,0,0,0,0,0,0,0,0,0,0,0,0,0,0,0,0,0,0,0,0,0,0,0,0,0,0,0,0,0,0,0,0,0,0,0,0,0,0,0,0,0,0,0,0,0,0,0,0,0,0,0,0,0,0,0,0,0,0,0,0,0,0,0,0,0,0,0,0,0,0,0,0,0,0,0,0,0,0,0,0,0,0,0,0,0,0,0,0,0,0,0,0,0,0,0,0,0,0,0,0,0,0,0,0,0,0,0,0,0,0,0,0,0,0,0,0,0,0,0,0,0,0,0,0,0,0,0,0,0,0,0,0,0,0,0,0,0,0,0,0,0,0,0,0,0,0,0,0,0,0,0,0,0,0,0,0,0,0,0,0,0,0,0,0,0,0,0,0,0,0,0,0,0,0,0,0,0,0,0,0,0,0,0,0,0,0,0,0,0,0,0,0,0,0,0,0,0,0,0,0,0,0,0,0,0,0,0,0,0,0,0,0,0,0,0,0,0,0,0,0,0,0,0,0,0,0,0,0,0,0,0,0,0,0,0,0,0,0,0,0,0,0,0,0,0,0,0,0,0,0,0,0,0,0,0,0,0,0,0,0,0,0,0,0,0,0,0,0,0,0,0,0,0,0,0,0,0,0,0,0,0,0,0,0,0,0,0,0,0,0,0,0,0,0,0,0,0,0,0,0,0,0,0,0,0,0,0,0,0,0,0,0,0,0,0,0,0,0,0,0,0,0,0,0,0,0,0,0,0,0,0,0,0,0,0,0,0,0,0,0,0,0,0,0,0,0,0,0,0,0,0,0,0,0,0,0,0,0,0,0,0,0,0,0,0,0,0,0,0,0,0,0,0,0,0,0,0,0,0,0,0,0,0,0,0,0,0,0,0,0,0,0,0,0,0,0,0,0,0,0,0,0,0,0,0,0,0,0,0,0,0,0,0,0,0,0,0,0,0,0,0,0,0,0,0,0,0,0,0,0,0,0,0,0,0,0,0,0,0,0,0,0,0,0,0,0,0,0,0,0,0,0,0,0,0,0,0,0,0,0,0,0,0,0,0,0,0,0,0,0,0,0,0,0,0,0,0,0,0,0,0,0,0,0,0,0,0,0,0,0,0,0,0,0,0,0,0,0,0,0,0,0,0,0,0,0,0,0,0,0,0,0,0,0,0,0,0,0,0,0,0,0,0,0,0,0,0,0,0,0,0,0,0,0,0,0,0,0,0,0,0,0,0,0,0,0,0,0,0,0,0,0,0,0,0,0,0,0,0,0,0,0,0,0,0,0,0,0,0,0,0,0,0,0,0,0,0,0,0,0,0,0,0,0,0,0,0,0,0,0,0,0,0,0,0,0,0,0,0,0,0,0,0,0,0,0,0,0,0,0,0,0,0,0,0,0,0,0,0,0,0,0,0,0,0,0,0,0,0,0,0,0,0,0,0,0,0,0,0,0,0,0,0,0,0,0,0,0,0,0,0,0,0,0,0,0,0,0,0,0,0,0,0,0,0,0,0,0,0,0,0,0,0,0,0,0,0,0,0,0,0,0,0,0,0,0,0,0,0,0,0,0,0,0,0,0,0,0,0,0,0,0,0,0,0,0,0,0,0,0,0,0,0,0,0,0,0,0,0,0,0,0,0,0,0,0,0,0,0,0,0,0,0,0,0,0,0,0,0,0,0,0,0,0,0,0,0,0,0,0,0,0,0,0,0,0,0,0,0,0,0,0,0,0,0,0,0,0,0,0,0,0,0,0,0,0,0,0,0,0,0,0,0,0,0,0,0,0,0,0,0,0,0,0,0,0,0,0,0,0,0,0,0,0,0,0,0,0,0,0,0,0,0,0,0,0,0,0,0,0,0,0,0,0,0,0,0,0,0,0,0,0,0,0,0,0,0,0,0,0,0,0,0,0,0,0,0,0,0,0,0,0,0,0,0,0,0,0,0,0,0,0,0,0,0,0,0,0,0,0,0,0,0,0,0,0,0,0,0,0,0,0,0,0,0,0,0,0,0,0,0,0,0,0,0,0,0,0,0,0,0,0,0,0,0,0,0,0,0,0,0,0,0,0,0,0,0,0,0,0,0,0,0,0,0,0,0,0,0,0,0,0,0,0,0,0,0,0,0,0,0,0,0,0,0,0,0,0,0,0,0,0,0,0,0,0,0,0,0,0,0,0,0,0,0,0,0,0,0,0,0,0,0,0,0,0,0,0,0,0,0,0,0,0,0,0,0,0,0,0,0,0,0,0,0,0,0,0,0,0,0,0,0,0,0,0,0,0,0,0,0,0,0,0,0,0,0,0,0,0,0,0,0,0,0,0,0,0,0,0,0,0,0,0,0,0,0,0,0,0,0,0,0,0,0,0,0,0,0,0,0,0,0,0,0,0,0,0,0,0,0,0,0,0,0,0,0,0,0,0,0,0,0,0,0,0,0,0,0,0,0,0,0,0,0,0,0,0,0,0,0,0,0,0,0,0,0,0,0,0,0,0,0,0,0,0,0,0,0,0,0,0,0,0,0,0,0,0,0,0,0,0,0,0,0,0,0,0,0,0,0,0,0,0,0,0,0,0,0,0,0,0,0,0,0,0,0,0,0,0,0,0,0,0,0,0,0,0,0,0,0,0,0,0,0,0,0,0,0,0,0,0,0,0,0,0,0,0,0,0,0,0,0,0,0,0,0,0,0,0,0,0,0,0,0,0,0,0,0,0,0,0,0,0,0,0,0,0,0,0,0,0,0,0,0,0,0,0,0,0,0,0,0,0,0,0,0,0,0,0,0,0,0,0,0,0,0,0,0,0,0,0,0,0,0,0,0,0,0,0,0,0,0,0,0,0,0,0,0,0,0,0,0,0,0,0,0,0,0,0,0,0,0,0,0,0,0,0,0,0,0,0,0,0,0,0,0,0,0,0,0,0,0,0,0,0,0,0,0,0,0,0,0,0,0,0,0,0,0,0,0,0,0,0,0,0,0,0,0,0,0,0,0,0,0,0,0,0,0,0,0,0,0,0,0,0,0,0,0,0,0,0,0,0,0,0,0,0,0,0,0,0,0,0,0,0,0,0,0,0,0,0,0,0,0,0,0,0,0,0,0,0,0,0,0,0,0,0,0,0,0,0,0,0,0,0,0,0,0,0,0,0,0,0,0,0,0,0,0,0,0,0,0,0,0,0,0,0,0,0,0,0,0,0,0,0,0,0,0,0,0,0,0,0,0,0,0,0,0,0,0,0,0,0,0,0,0,0,0,0,0,0,0,0,0,0,0,0,0,0,0,0,0,0,0,0,0,0,0,0,0,0,0,0,0,0,0,0,0,0,0,0,0,0,0,0,0,0,0,0,0,0,0,0,0,0,0,0,0,0,0,0,0,0,0,0,0,0,0,0,0,0,0,0,0,0,0,0,0,0,0,0,0,0,0,0,0,0,0,0,0,0,0,0,0,0,0,0,0,0,0,0,0,0,0,0,0,0,0,0,0,0,0,0,0,0,0,0,0,0,0,0,0,0,0,0,0,0,0,0,0,0,0,0,0,0,0,0,0,0,0,0,0,0,0,0,0,0,0,0,0,0,0,0,0,0,0,0,0,0,0,0,0,0,0,0,0,0,0,0,0,0,0,0,0,0,0,0,0,0,0,0,0,0,0,0,0,0,0,0,0,0,0,0,0,0,0,0,0,0,0,0,0,0,0,0,0,0,0,0,0,0,0,0,0,0,0,0,0,0,0,0,0,0,0,0,0,0,0,0,0,0,0,0,0,0,0,0,0,0,0,0,0,0,0,0,0,0,0,0,0,0,0,0,0,0,0,0,0,0,0,0,0,0,0,0,0,0,0,0,0,0,0,0,0,0,0,0,0,0,0,0,0,0,0,0,0,0,0,0,0,0,0,0,0,0,0,0,0,0,0,0,0,0,0,0,0,0,0,0,0,0,0,0,0,0,0,0,0,0,0,0,0,0,0,0,0,0,0,0,0,0,0,0,0,0,0,0,0,0,0,0,0,0,0,0,0,0,0,0,0,0,0,0,0,0,0,0,0,0,0,0,0,0,0,0,0,0,0,0,0,0,0,0,0,0,0,0,0,0,0,0,0,0,0,0,0,0,0,0,0,0,0,0,0,0,0,0,0,0,0,0,0,0,0,0,0,0,0,0,0,0,0,0,0,0,0,0,0,0,0,0,0,0,0,0,0,0,0,0,0,0,0,0,0,0,0,0,0,0,0,0,0,0,0,0,0,0,0,0,0,0,0,0,0,0,0,0,0,0,0,0,0,0,0,0,0,0,0,0,0,0,0,0,0,0,0,0,0,0,0,0,0,0,0,0,0,0,0,0,0,0,0,0,0,0,0,0,0,0,0,0,0,0,0,0,0,0,0,0,0,0,0,0,0,0,0,0,0,0,0,0,0,0,0,0,0,0,0,0,0,0,0,0,0,0,0,0,0,0,0,0,0,0,0,0,0,0,0,0,0,0,0,0,0,0,0,0,0,0,0,0,0,0,0,0,0,0,0,0,0,0,0,0,0,0,0,0,0,0,0,0,0,0,0,0,0,0,0,0,0,0,0,0,0,0,0,0,0,0,0,0,0,0,0,0,0,0,0,0,0,0,0,0,0,0,0,0,0,0,0,0,0,0,0,0,0,0,0,0,0,0,0,0,0,0,0,0,0,0,0,0,0,0,0,0,0,0,0,0,0,0,0,0,0,0,0,0,0,0,0,0,0,0,0,0,0,0,0,0,0,0,0,0,0,0,0,0,0,0,0,0,0,0,0,0,0,0,0,0,0,0,0,0,0,0,0,0,0,0,0,0,0,0,0,0,0,0,0,0,0,0,0,0,0,0,0,0,0,0,0,0,0,0,0,0,0,0,0,0,0,0,0,0,0,0,0,0,0,0,0,0,0,0,0,0,0,0,0,0,0,0,0,0,0,0,0,0,0,0,0,0,0,0,0,0,0,0,0,0,0,0,0,0,0,0,0,0,0,0,0,0,0,0,0,0,0,0,0,0,0,0,0,0,0,0,0,0,0,0,0,0,0,0,0,0,0,0,0,0,0,0,0,0,0,0,0,0,0,0,0,0,0,0,0,0,0,0,0,0,0,0,0,0,0,0,0,0,0,0,0,0,0,0,0,0,0,0,0,0,0,0,0,0,0,0,0,0,0,0,0,0,0,0,0,0,0,0,0,0,0,0,0,0,0,0,0,0,0,0,0,0,0,0,0,0,0,0,0,0,0,0,0,0,0,0,0,0,0,0,0,0,0,0,0,0,0,0,0,0,0,0,0,0,0,0,0,0,0,0,0,0,0,0,0,0,0,0,0,0,0,0,0,0,0,0,0,0,0,0,0,0,0,0,0,0,0,0,0,0,0,0,0,0,0,0,0,0,0,0,0,0,0,0,0,0,0,0,0,0,0,0,0,0,0,0,0,0,0,0,0,0,0,0,0,0,0,0,0,0,0,0,0,0,0,0,0,0,0,0,0,0,0,0,0,0,0,0,0,0,0,0,0,0,0,0,0,0,0,0,0,0,0,0,0,0,0,0,0,0,0,0,0,0,0,0,0,0,0,0,0,0,0,0,0,0,0,0,0,0,0,0,0,0,0,0,0,0,0,0,0,0,0,0,0,0,0,0,0,0,0,0,0,0,0,0,0,0,0,0,0,0,0,0,0,0,0,0,0,0,0,0,0,0,0,0,0,0,0,0,0,0,0,0,0,0,0,0,0,0,0,0,0,0,0,0,0,0,0,0,0,0,0,0,0,0,0,0,0,0,0,0,0,0,0,0,0,0,0,0,0,0,0,0,0,0,0,0,0,0,0,0,0,0,0,0,0,0,0,0,0,0,0,0,0,0,0,0,0,0,0,0,0,0,0,0,0,0,0,0,0,0,0,0,0,0,0,0,0,0,0,0,0,0,0,0,0,0,0,0,0,0,0,0,0,0,0,0,0,0,0,0,0,0,0,0,0,0,0,0,0,0,0,0,0,0,0,0,0,0,0,0,0,0,0,0,0,0,0,0,0,0,0,0,0,0,0,0,0,0,0,0,0,0,0,0,0,0,0,0,0,0,0,0,0,0,0,0,0,0,0,0,0,0,0,0,0,0,0,0,0,0,0,0,0,0,0,0,0,0,0,0,0,0,0,0,0,0,0,0,0,0,0,0,0,0,0,0,0,0,0,0,0,0,0,0,0,0,0,0,0,0,0,0,0,0,0,0,0,0,0,0,0,0,0,0,0,0,0,0,0,0,0,0,0,0,0,0,0,0,0,0,0,0,0,0,0,0,0,0,0,0,0,0,0,0,0,0,0,0,0,0,0,0,0,0,0,0,0,0,0,0,0,0,0,0,0,0,0,0,0,0,0,0,0,0,0,0,0,0,0,0,0,0,0,0,0,0,0,0,0,0,0,0,0,0,0,0,0,0,0,0,0,0,0,0,0,0,0,0,0,0,0,0,0,0,0,0,0,0,0,0,0,0,0,0,0,0,0,0,0,0,0,0,0,0,0,0,0,0,0,0,0,0,0,0,0,0,0,0,0,0,0,0,0,0,0,0,0,0,0,0,0,0,0,0,0,0,0,0,0,0,0,0,0,0,0,0,0,0,0,0,0,0,0,0,0,0,0,0,0,0,0,0,0,0,0,0,0,0,0,0,0,0,0,0,0,0,0,0,0,0,0,0,0,0,0,0,0,0,0,0,0,0,0,0,0,0,0,0,0,0,0,0,0,0,0,0,0,0,0,0,0,0,0,0,0,0,0,0,0,0,0,0,0,0,0,0,0,0,0,0,0,0,0,0,0,0,0,0,0,0,0,0,0,0,0,0,0,0,0,0,0,0,0,0,0,0,0,0,0,0,0,0,0,0,0,0,0,0,0,0,0,0,0,0,0,0,0,0,0,0,0,0,0,0,0,0,0,0,0,0,0,0,0,0,0,0,0,0,0,0,0,0,0,0,0,0,0,0,0,0,0,0,0,0,0,0,0,0,0,0,0,0,0,0,0,0,0,0,0,0,0,0,0,0,0,0,0,0,0,0,0,0,0,0,0,0,0,0,0,0,0,0,0,0,0,0,0,0,0,0,0,0,0,0,0,0,0,0,0,0,0,0,0,0,0,0,0,0,0,0,0,0,0,0,0,0,0,0,0,0,0,0,0,0,0,0,0,0,0,0,0,0,0,0,0,0,0,0,0,0,0,0,0,0,0,0,0,0,0,0,0,0,0,0,0,0,0,0,0,0,0,0,0,0,0,0,0,0,0,0,0,0,0,0,0,0,0,0,0,0,0,0,0,0,0,0,0,0,0,0,0,0,0,0,0,0,0,0,0,0,0,0,0,0,0,0,0,0,0,0,0,0,0,0,0,0,0,0,0,0,0,0,0,0,0,0,0,0,0,0,0,0,0,0,0,0,0,0,0,0,0,0,0,0,0,0,0,0,0,0,0,0,0,0,0,0,0,0,0,0,0,0,0,0,0,0,0,0,0,0,0,0,0,0,0,0,0,0,0,0,0,0,0,0,0,0,0,0,0,0,0,0,0,0,0,0,0,0,0,0,0,0,0,0,0,0,0,0,0,0,0,0,0,0,0,0,0,0,0,0,0,0,0,0,0,0,0,0,0,0,0,0,0,0,0,0,0,0,0,0,0,0,0,0,0,0,0,0,0,0,0,0,0,0,0,0,0,0,0,0,0,0,0,0,0,0,0,0,0,0,0,0,0,0,0,0,0,0,0,0,0,0,0,0,0,0,0,0,0,0,0,0,0,0,0,0,0,0,0,0,0,0,0,0,0,0,0,0,0,0,0,0,0,0,0,0,0,0,0,0,0,0,0,0,0,0,0,0,0,0,0,0,0,0,0,0,0,0,0,0,0,0,0,0,0,0,0,0,0,0,0,0,0,0,0,0,0,0,0,0,0,0,0,0,0,0,0,0,0,0,0,0,0,0,0,0,0,0,0,0,0,0,0,0,0,0,0,0,0,0,0,0,0,0,0,0,0,0,0,0,0,0,0,0,0,0,0,0,0,0,0,0,0,0,0,0,0,0,0,0,0,0,0,0,0,0,0,0,0,0,0,0,0,0,0,0,0,0,0,0,0,0,0,0,0,0,0,0,0,0,0,0,0,0,0,0,0,0,0,0,0,0,0,0,0,0,0,0,0,0,0,0,0,0,0,0,0,0,0,0,0,0,0,0,0,0,0,0,0,0,0,0,0,0,0,0,0,0,0,0,0,0,0,0,0,0,0,0,0,0,0,0,0,0,0,0,0,0,0,0,0,0,0,0,0,0,0,0,0,0,0,0,0,0,0,0,0,0,0,0,0,0,0,0,0,0,0,0,0,0,0,0,0,0,0,0,0,0,0,0,0,0,0,0,0,0,0,0,0,0,0,0,0,0,0,0,0,0,0,0,0,0,0,0,0,0,0,0,0,0,0,0,0,0,0,0,0,0,0,0,0,0,0,0,0,0,0,0,0,0,0,0,0,0,0,0,0,0,0,0,0,0,0,0,0,0,0,0,0,0,0,0,0,0,0,0,0,0,0,0,0,0,0,0,0,0,0,0,0,0,0,0,0,0,0,0,0,0,0,0,0,0,0,0,0,0,0,0,0,0,0,0,0,0,0,0,0,0,0,0,0,0,0,0,0,0,0,0,0,0,0,0,0,0,0,0,0,0,0,0,0,0,0,0,0,0,0,0,0,0,0,0,0,0,0,0,0,0,0,0,0,0,0,0,0,0,0,0,0,0,0,0,0,0,0,0,0,0,0,0,0,0,0,0,0,0,0,0,0,0,0,0,0,0,0,0,0,0,0,0,0,0,0,0,0,0,0,0,0,0,0,0,0,0,0,0,0,0,0,0,0,0,0,0,0,0,0,0,0,0,0,0,0,0,0,0,0,0,0,0,0,0,0,0,0,0,0,0,0,0,0,0,0,0,0,0,0,0,0,0,0,0,0,0,0,0,0,0,0,0,0,0,0,0,0,0,0,0,0,0,0,0,0,0,0,0,0,0,0,0,0,0,0,0,0,0,0,0,0,0,0,0,0,0,0,0,0,0,0,0,0,0,0,0,0,0,0,0,0,0,0,0,0,0,0,0,0,0,0,0,0,0,0,0,0,0,0,0,0,0,0,0,0,0,0,0,0,0,0,0,0,0,0,0,0,0,0,0,0,0,0,0,0,0,0,0,0,0,0,0,0,0,0,0,0,0,0,0,0,0,0,0,0,0,0,0,0,0,0,0,0,0,0,0,0,0,0,0,0,0,0,0,0,0,0,0,0,0,0,0,0,0,0,0,0,0,0,0,0,0,0,0,0,0,0,0,0,0,0,0,0,0,0,0,0,0,0,0,0,0,0,0,0,0,0,0,0,0,0,0,0,0,0,0,0,0,0,0,0,0,0,0,0,0,0,0,0,0,0,0,0,0,0,0,0,0,0,0,0,0,0,0,0,0,0,0,0,0,0,0,0,0,0,0,0,0,0,0,0,0,0,0,0,0,0,0,0,0,0,0,0,0,0,0,0,0,0,0,0,0,0,0,0,0,0,0,0,0,0,0,0,0,0,0,0,0,0,0,0,0,0,0,0,0,0,0,0,0,0,0,0,0,0,0,0,0,0,0,0,0,0,0,0,0,0,0,0,0,0,0,0,0,0,0,0,0,0,0,0,0,0,0,0,0,0,0,0,0,0,0,0,0,0,0,0,0,0,0,0,0,0,0,0,0,0,0,0,0,0,0,0,0,0,0,0,0,0,0,0,0,0,0,0,0,0,0,0,0,0,0,0,0,0,0,0,0,0,0,0,0,0,0,0,0,0,0,0,0,0,0,0,0,0,0,0,0,0,0,0,0,0,0,0,0,0,0,0,0,0,0,0,0,0,0,0,0,0,0,0,0,0,0,0,0,0,0,0,0,0,0,0,0,0,0,0,0,0,0,0,0,0,0,0,0,0,0,0,0,0,0,0,0,0,0,0,0,0,0,0,0,0,0,0,0,0,0,0,0,0,0,0,0,0,0,0,0,0,0,0,0,0,0,0,0,0,0,0,0,0,0,0,0,0,0,0,0,0,0,0,0,0,0,0,0,0,0,0,0,0,0,0,0,0,0,0,0,0,0,0,0,0,0,0,0,0,0,0,0,0,0,0,0,0,0,0,0,0,0,0,0,0,0,0,0,0,0,0,0,0,0,0,0,0,0,0,0,0,0,0,0,0,0,0,0,0,0,0,0,0,0,0,0,0,0,0,0,0,0,0,0,0,0,0,0,0,0,0,0,0,0,0,0,0,0,0,0,0,0,0,0,0,0,0,0,0,0,0,0,0,0,0,0,0,0,0,0,0,0,0,0,0,0,0,0,0,0,0,0,0,0,0,0,0,0,0,0,0,0,0,0,0,0,0,0,0,0,0,0,0,0,0,0,0,0,0,0,0,0,0,0,0,0,0,0,0,0,0,0,0,0,0,0,0,0,0,0,0,0,0,0,0,0,0,0,0,0,0,0,0,0,0,0,0,0,0,0,0,0,0,0,0,0,0,0,0,0,0,0,0,0,0,0,0,0,0,0,0,0,0,0,0,0,0,0,0,0,0,0,0,0,0,0,0,0,0,0,0,0,0,0,0,0,0,0,0,0,0,0,0,0,0,0,0,0,0,0,0,0,0,0,0,0,0,0,0,0,0,0,0,0,0,0,0,0,0,0,0,0,0,0,0,0,0,0,0,0,0,0,0,0,0,0,0,0,0,0,0,0,0,0,0,0,0,0,0,0,0,0,0,0,0,0,0,0,0,0,0,0,0,0,0,0,0,0,0,0,0,0,0,0,0,0,0,0,0,0,0,0,0,0,0,0,0,0,0,0,0,0,0,0,0,0,0,0,0,0,0,0,0,0,0,0,0,0,0,0,0,0,0,0,0,0,0,0,0,0,0,0,0,0,0,0,0,0,0,0,0,0,0,0,0,0,0,0,0,0,0,0,0,0,0,0,0,0,0,0,0,0,0,0,0,0,0,0,0,0,0,0,0,0,0,0,0,0,0,0,0,0,0,0,0,0,0,0,0,0,0,0,0,0,0,0,0,0,0,0,0,0,0,0,0,0,0,0,0,0,0,0,0,0,0,0,0,0,0,0,0,0,0,0,0,0,0,0,0,0,0,0,0,0,0,0,0,0,0,0,0,0,0,0,0,0,0,0,0,0,0,0,0,0,0,0,0,0,0,0,0,0,0,0,0,0,0,0,0,0,0,0,0,0,0,0,0,0,0,0,0,0,0,0,0,0,0,0,0,0,0,0,0,0,0,0,0,0,0,0,0,0,0,0,0,0,0,0,0,0,0,0,0,0,0,0,0,0,0,0,0,0,0,0,0,0,0,0,0,0,0,0,0,0,0,0,0,0,0,0,0,0,0,0,0,0,0,0,0,0,0,0,0,0,0,0,0,0,0,0,0,0,0,0,0,0,0,0,0,0,0,0,0,0,0,0,0,0,0,0,0,0,0,0,0,0,0,0,0,0,0,0,0,0,0,0,0,0,0,0,0,0,0,0,0,0,0,0,0,0,0,0,0,0,0,0,0,0,0,0,0,0,0,0,0,0,0,0,0,0,0,0,0,0,0,0,0,0,0,0,0,0,0,0,0,0,0,0,0,0,0,0,0,0,0,0,0,0,0,0,0,0,0,0,0,0,0,0,0,0,0,0,0,0,0,0,0,0,0,0,0,0,0,0,0,0,0,0,0,0,0,0,0,0,0,0,0,0,0,0,0,0,0,0,0,0,0,0,0,0,0,0,0,0,0,0,0,0,0,0,0,0,0,0,0,0,0,0,0,0,0,0,0,0,0,0,0,0,0,0,0,0,0,0,0,0,0,0,0,0,0,0,0,0,0,0,0,0,0,0,0,0,0,0,0,0,0,0,0,0,0,0,0,0,0,0,0,0,0,0,0,0,0,0,0,0,0,0,0,0,0,0,0,0,0,0,0,0,0,0,0,0,0,0,0,0,0,0,0,0,0,0,0,0,0,0,0,0,0,0,0,0,0,0,0,0,0,0,0,0,0,0,0,0,0,0,0,0,0,0,0,0,0,0,0,0,0,0,0,0,0,0,0,0,0,0,0,0,0,0,0,0,0,0,0,0,0,0,0,0,0,0,0,0,0,0,0,0,0,0,0,0,0,0,0,0,0,0,0,0,0,0,0,0,0,0,0,0,0,0,0,0,0,0,0,0,0,0,0,0,0,0,0,0,0,0,0,0,0,0,0,0,0,0,0,0,0,0,0,0,0,0,0,0,0,0,0,0,0,0,0,0,0,0,0,0,0,0,0,0,0,0,0,0,0,0,0,0,0,0,0,0,0,0,0,0,0,0,0,0,0,0,0,0,0,0,0,0,0,0,0,0,0,0,0,0,0,0,0,0,0,0,0,0,0,0,0,0,0,0,0,0,0,0,0,0,0,0,0,0,0,0,0,0,0,0,0,0,0,0,0,0,0,0,0,0,0,0,0,0,0,0,0,0,0,0,0,0,0,0,0,0,0,0,0,0,0,0,0,0,0,0,0,0,0,0,0,0,0,0,0,0,0,0,0,0,0,0,0,0,0,0,0,0,0,0,0,0,0,0,0,0,0,0,0,0,0,0,0,0,0,0,0,0,0,0,0,0,0,0,0,0,0,0,0,0,0,0,0,0,0,0,0,0,0,0,0,0,0,0,0,0,0,0,0,0,0,0,0,0,0,0,0,0,0,0,0,0,0,0,0,0,0,0,0,0,0,0,0,0,0,0,0,0,0,0,0,0,0,0,0,0,0,0,0,0,0,0,0,0,0,0,0,0,0,0,0,0,0,0,0,0,0,0,0,0,0,0,0,0,0,0,0,0,0,0,0,0,0,0,0,0,0,0,0,0,0,0,0,0,0,0,0,0,0,0,0,0,0,0,0,0,0,0,0,0,0,0,0,0,0,0,0,0,0,0,0,0,0,0,0,0,0,0,0,0,0,0,0,0,0,0,0,0,0,0,0,0,0,0,0,0,0,0,0,0,0,0,0,0,0,0,0,0,0,0,0,0,0,0,0,0,0,0,0,0,0,0,0,0,0,0,0,0,0,0,0,0,0,0,0,0,0,0,0,0,0,0,0,0,0,0,0,0,0,0,0,0,0,0,0,0,0,0,0,0,0,0,0,0,0,0,0,0,0,0,0,0,0,0,0,0,0,0,0,0,0,0,0,0,0,0,0,0,0,0,0,0,0,0,0,0,0,0,0,0,0,0,0,0,0,0,0,0,0,0,0,0,0,0,0,0,0,0,0,0,0,0,0,0,0,0,0,0,0,0,0,0,0,0,0,0,0,0,0,0,0,0,0,0,0,0,0,0,0,0,0,0,0,0,0,0,0,0,0,0,0,0,0,0,0,0,0,0,0,0,0,0,0,0,0,0,0,0,0,0,0,0,0,0,0,0,0,0,0,0,0,0,0,0,0,0,0,0,0,0,0,0,0,0,0,0,0,0,0,0,0,0,0,0,0,0,0,0,0,0,0,0,0,0,0,0,0,0,0,0,0,0,0,0,0,0,0,0,0,0,0,0,0,0,0,0,0,0,0,0,0,0,0,0,0,0,0,0,0,0,0,0,0,0,0,0,0,0,0,0,0,0,0,0,0,0,0,0,0,0,0,0,0,0,0,0,0,0,0,0,0,0,0,0,0,0,0,0,0,0,0,0,0,0,0,0,0,0,0,0,0,0,0,0,0,0,0,0,0,0,0,0,0,0,0,0,0,0,0,0,0,0,0,0,0,0,0,0,0,0,0,0,0,0,0,0,0,0,0,0,0,0,0,0,0,0,0,0,0,0,0,0,0,0,0,0,0,0,0,0,0,0,0,0,0,0,0,0,0,0,0,0,0,0,0,0,0,0,0,0,0,0,0,0,0,0,0,0,0,0,0,0,0,0,0,0,0,0,0,0,0,0,0,0,0,0,0,0,0,0,0,0,0,0,0,0,0,0,0,0,0,0,0,0,0,0,0,0,0,0,0,0,0,0,0,0,0,0,0,0,0,0,0,0,0,0,0,0,0,0,0,0,0,0,0,0,0,0,0,0,0,0,0,0,0,0,0,0,0,0,0,0,0,0,0,0,0,0,0,0,0,0,0,0,0,0,0,0,0,0,0,0,0,0,0,0,0,0,0,0,0,0,0,0,0,0,0,0,0,0,0,0,0,0,0,0,0,0,0,0,0,0,0,0,0,0,0,0,0,0,0,0,0,0,0,0,0,0,0,0,0,0,0,0,0,0,0,0,0,0,0,0,0,0,0,0,0,0,0,0,0,0,0,0,0,0,0,0,0,0,0,0,0,0,0,0,0,0,0,0,0,0,0,0,0,0,0,0,0,0,0,0,0,0,0,0,0,0,0,0,0,0,0,0,0,0,0,0,0,0,0,0,0,0,0,0,0,0,0,0,0,0,0,0,0,0,0,0,0,0,0,0,0,0,0,0,0,0,0,0,0,0,0,0,0,0,0,0,0,0,0,0,0,0,0,0,0,0,0,0,0,0,0,0,0,0,0,0,0,0,0,0,0,0,0,0,0,0,0,0,0,0,0,0,0,0,0,0,0,0,0,0,0,0,0,0,0,0,0,0,0,0,0,0,0,0,0,0,0,0,0,0,0,0,0,0,0,0,0,0,0,0,0,0,0,0,0,0,0,0,0,0,0,0,0,0,0,0,0,0,0,0,0,0,0,0,0,0,0,0,0,0,0,0,0,0,0,0,0,0,0,0,0,0,0,0,0,0,0,0,0,0,0,0,0,0,0,0,0,0,0,0,0,0,0,0,0,0,0,0,0,0,0,0,0,0,0,0,0,0,0,0,0,0,0,0,0,0,0,0,0,0,0,0,0,0,0,0,0,0,0,0,0,0,0,0,0,0,0,0,0,0,0,0,0,0,0,0,0,0,0,0,0,0,0,0,0,0,0,0,0,0,0,0,0,0,0,0,0,0,0,0,0,0,0,0,0,0,0,0,0,0,0,0,0,0,0,0,0,0,0,0,0,0,0,0,0,0,0,0,0,0,0,0,0,0,0,0,0,0,0,0,0,0,0,0,0,0,0,0,0,0,0,0,0,0,0,0,0,0,0,0,0,0,0,0,0,0,0,0,0,0,0,0,0,0,0,0,0,0,0,0,0,0,0,0,0,0,0,0,0,0,0,0,0,0,0,0,0,0,0,0,0,0,0,0,0,0,0,0,0,0,0,0,0,0,0,0,0,0,0,0,0,0,0,0,0,0,0,0,0,0,0,0,0,0,0,0,0,0,0,0,0,0,0,0,0,0,0,0,0,0,0,0,0,0,0,0,0,0,0,0,0,0,0,0,0,0,0,0,0,0,0,0,0,0,0,0,0,0,0,0,0,0,0,0,0,0,0,0,0,0,0,0,0,0,0,0,0,0,0,0,0,0,0,0,0,0,0,0,0,0,0,0,0,0,0,0,0,0,0,0,0,0,0,0,0,0,0,0,0,0,0,0,0,0,0,0,0,0,0,0,0,0,0,0,0,0,0,0,0,0,0,0,0,0,0,0,0,0,0,0,0,0,0,0,0,0,0,0,0,0,0,0,0,0,0,0,0,0,0,0,0,0,0,0,0,0,0,0,0,0,0,0,0,0,0,0,0,0,0,0,0,0,0,0,0,0,0,0,0,0,0,0,0,0,0,0,0,0,0,0,0,0,0,0,0,0,0,0,0,0,0,0,0,0,0,0,0,0,0,0,0,0,0,0,0,0,0,0,0,0,0,0,0,0,0,0,0,0,0,0,0,0,0,0,0,0,0,0,0,0,0,0,0,0,0,0,0,0,0,0,0,0,0,0,0,0,0,0,0,0,0,0,0,0,0,0,0,0,0,0,0,0,0,0,0,0,0,0,0,0,0,0,0,0,0,0,0,0,0,0,0,0,0,0,0,0,0,0,0,0,0,0,0,0,0,0,0,0,0,0,0,0,0,0,0,0,0,0,0,0,0,0,0,0,0,0,0,0,0,0,0,0,0,0,0,0,0,0,0,0,0,0,0,0,0,0,0,0,0,0,0,0,0,0,0,0,0,0,0,0,0,0,0,0,0,0,0,0,0,0,0,0,0,0,0,0,0,0,0,0,0,0,0,0,0,0,0,0,0,0,0,0,0,0,0,0,0,0,0,0,0,0,0,0,0,0,0,0,0,0,0,0,0,0,0,0,0,0,0,0,0,0,0,0,0,0,0,0,0,0,0,0,0,0,0,0,0,0,0,0,0,0,0,0,0,0,0,0,0,0,0,0,0,0,0,0,0,0,0,0,0,0,0,0,0,0,0,0,0,0,0,0,0,0,0,0,0,0,0,0,0,0,0,0,0,0,0,0,0,0,0,0,0,0,0,0,0,0,0,0,0,0,0,0,0,0,0,0,0,0,0,0,0,0,0,0,0,0,0,0,0,0,0,0,0,0,0,0,0,0,0,0,0,0,0,0,0,0,0,0,0,0,0,0,0,0,0,0,0,0,0,0,0,0,0,0,0,0,0,0,0,0,0,0,0,0,0,0,0,0,0,0,0,0,0,0,0,0,0,0,0,0,0,0,0,0,0,0,0,0,0,0,0,0,0,0,0,0,0,0,0,0,0,0,0,0,0,0,0,0,0,0,0,0,0,0,0,0,0,0,0,0,0,0,0,0,0,0,0,0,0,0,0,0,0,0,0,0,0,0,0,0,0,0,0,0,0,0,0,0,0,0,0,0,0,0,0,0,0,0,0,0,0,0,0,0,0,0,0,0,0,0,0,0,0,0,0,0,0,0,0,0,0,0,0,0,0,0,0,0,0,0,0,0,0,0,0,0,0,0,0,0,0,0,0,0,0,0,0,0,0,0,0,0,0,0,0,0,0,0,0,0,0,0,0,0,0,0,0,0,0,0,0,0,0,0,0,0,0,0,0,0,0,0,0,0,0,0,0,0,0,0,0,0,0,0,0,0,0,0,0,0,0,0,0,0,0,0,0,0,0,0,0,0,0,0,0,0,0,0,0,0,0,0,0,0,0,0,0,0,0,0,0,0,0,0,0,0,0,0,0,0,0,0,0,0,0,0,0,0,0,0,0,0,0,0,0,0,0,0,0,0,0,0,0,0,0,0,0,0,0,0,0,0,0,0,0,0,0,0,0,0,0,0,0,0,0,0,0,0,0,0,0,0,0,0,0,0,0,0,0,0,0,0,0,0,0,0,0,0,0,0,0,0,0,0,0,0,0,0,0,0,0,0,0,0,0,0,0,0,0,0,0,0,0,0,0,0,0,0,0,0,0,0,0,0,0,0,0,0,0,0,0,0,0,0,0,0,0,0,0,0,0,0,0,0,0,0,0,0,0,0,0,0,0,0,0,0,0,0,0,0,0,0,0,0,0,0,0,0,0,0,0,0,0,0,0,0,0,0,0,0,0,0,0,0,0,0,0,0,0,0,0,0,0,0,0,0,0,0,0,0,0,0,0,0,0,0,0,0,0,0,0,0,0,0,0,0,0,0,0,0,0,0,0,0,0,0,0,0,0,0,0,0,0,0,0,0,0,0,0,0,0,0,0,0,0,0,0,0,0,0,0,0,0,0,0,0,0,0,0,0,0,0,0,0,0,0,0,0,0,0,0,0,0,0,0,0,0,0,0,0,0,0,0,0,0,0,0,0,0,0,0,0,0,0,0,0,0,0,0,0,0,0,0,0,0,0,0,0,0,0,0,0,0,0,0,0,0,0,0,0,0,0,0,0,0,0,0,0,0,0,0,0,0,0,0,0,0,0,0,0,0,0,0,0,0,0,0,0,0,0,0,0,0,0,0,0,0,0,0,0,0,0,0,0,0,0,0,0,0,0,0,0,0,0,0,0,0,0,0,0,0,0,0,0,0,0,0,0,0,0,0,0,0,0,0,0,0,0,0,0,0,0,0,0,0,0,0,0,0,0,0,0,0,0,0,0,0,0,0,0,0,0,0,0,0,0,0,0,0,0,0,0,0,0,0,0,0,0,0,0,0,0,0,0,0,0,0,0,0,0,0,0,0,0,0,0,0,0,0,0,0,0,0,0,0,0,0,0,0,0,0,0,0,0,0,0,0,0,0,0,0,0,0,0,0,0,0,0,0,0,0,0,0,0,0,0,0,0,0,0,0,0,0,0,0,0,0,0,0,0,0,0,0,0,0,0,0,0,0,0,0,0,0,0,0,0,0,0,0,0,0,0,0,0,0,0,0,0,0,0,0,0,0,0,0,0,0,0,0,0,0,0,0,0,0,0,0,0,0,0,0,0,0,0,0,0,0,0,0,0,0,0,0,0,0,0,0,0,0,0,0,0,0,0,0,0,0,0,0,0,0,0,0,0,0,0,0,0,0,0,0,0,0,0,0,0,0,0,0,0,0,0,0,0,0,0,0,0,0,0,0,0,0,0,0,0,0,0,0,0,0,0,0,0,0,0,0,0,0,0,0,0,0,0,0,0,0,0,0,0,0,0,0,0,0,0,0,0,0,0,0,0,0,0,0,0,0,0,0,0,0,0,0,0,0,0,0,0,0,0,0,0,0,0,0,0,0,0,0,0,0,0,0,0,0,0,0,0,0,0,0,0,0,0,0,0,0,0,0,0,0,0,0,0,0,0,0,0,0,0,0,0,0,0,0,0,0,0,0,0,0,0,0,0,0,0,0,0,0,0,0,0,0,0,0,0,0,0,0,0,0,0,0,0,0,0,0,0,0,0,0,0,0,0,0,0,0,0,0,0,0,0,0,0,0,0,0,0,0,0,0,0,0,0,0,0,0,0,0,0,0,0,0,0,0,0,0,0,0,0,0,0,0,0,0,0,0,0,0,0,0,0,0,0,0,0,0,0,0,0,0,0,0,0,0,0,0,0,0,0,0,0,0,0,0,0,0,0,0,0,0,0,0,0,0,0,0,0,0,0,0,0,0,0,0,0,0,0,0,0,0,0,0,0,0,0,0,0,0,0,0,0,0,0,0,0,0,0,0,0,0,0,0,0,0,0,0,0,0,0,0,0,0,0,0,0,0,0,0,0,0,0,0,0,0,0,0,0,0,0,0,0,0,0,0,0,0,0,0,0,0,0,0,0,0,0,0,0,0,0,0,0,0,0,0,0,0,0,0,0,0,0,0,0,0,0,0,0,0,0,0,0,0,0,0,0,0,0,0,0,0,0,0,0,0,0,0,0,0,0,0,0,0,0,0,0,0,0,0,0,0,0,0,0,0,0,0,0,0,0,0,0,0,0,0,0,0,0,0,0,0,0,0,0,0,0,0,0,0,0,0,0,0,0,0,0,0,0,0,0,0,0,0,0,0,0,0,0,0,0,0,0,0,0,0,0,0,0,0,0,0,0,0,0,0,0,0,0,0,0,0,0,0,0,0,0,0,0,0,0,0,0,0,0,0,0,0,0,0,0,0,0,0,0,0,0,0,0,0,0,0,0,0,0,0,0,0,0,0,0,0,0,0,0,0,0,0,0,0,0,0,0,0,0,0,0,0,0,0,0,0,0,0,0,0,0,0,0,0,0,0,0,0,0,0,0,0,0,0,0,0,0,0,0,0,0,0,0,0,0,0,0,0,0,0,0,0,0,0,0,0,0,0,0,0,0,0,0,0,0,0,0,0,0,0,0,0,0,0,0,0,0,0,0,0,0,0,0,0,0,0,0,0,0,0,0,0,0,0,0,0,0,0,0,0,0,0,0,0,0,0,0,0,0,0,0,0,0,0,0,0,0,0,0,0,0,0,0,0,0,0,0,0,0,0,0,0,0,0,0,0,0,0,0,0,0,0,0,0,0,0,0,0,0,0,0,0,0,0,0,0,0,0,0,0,0,0,0,0,0,0,0,0,0,0,0,0,0,0,0,0,0,0,0,0,0,0,0,0,0,0,0,0,0,0,0,0,0,0,0,0,0,0,0,0,0,0,0,0,0,0,0,0,0,0,0,0,0,0,0,0,0,0,0,0,0,0,0,0,0,0,0,0,0,0,0,0,0,0,0,0,0,0,0,0,0,0,0,0,0,0,0,0,0,0,0,0,0,0,0,0,0,0,0,0,0,0,0,0,0,0,0,0,0,0,0,0,0,0,0,0,0,0,0,0,0,0,0,0,0,0,0,0,0,0,0,0,0,0,0,0,0,0,0,0,0,0,0,0,0,0,0,0,0,0,0,0,0,0,0,0,0,0,0,0,0,0,0,0,0,0,0,0,0,0,0,0,0,0,0,0,0,0,0,0,0,0,0,0,0,0,0,0,0,0,0,0,0,0,0,0,0,0,0,0,0,0,0,0,0,0,0,0,0,0,0,0,0,0,0,0,0,0,0,0,0,0,0,0,0,0,0,0,0,0,0,0,0,0,0,0,0,0,0,0,0,0,0,0,0]},{"id":3,"name":"GroundProps","type":"objectgroup","x":0,"y":0,"opacity":1,"visible":true,"objects":[{"id":4,"name":"wreckage_1","type":"wreckage","x":3744,"y":4608,"width":64,"height":40,"properties":[{"name":"searchable","type":"bool","value":true}]},{"id":5,"name":"wreckage_2","type":"wreckage","x":5536,"y":4384,"width":64,"height":40,"properties":[{"name":"searchable","type":"bool","value":true}]},{"id":6,"name":"wreckage_3","type":"wreckage","x":4448,"y":4608,"width":64,"height":40,"properties":[{"name":"searchable","type":"bool","value":true}]},{"id":32,"name":"berry_bush_1","type":"berry_bush","x":6240,"y":2592,"width":32,"height":28,"properties":[{"name":"resource","type":"string","value":"food"},{"name":"capacity","type":"int","value":8},{"name":"regenPerIslandHour","type":"int","value":0.8}]},{"id":33,"name":"berry_bush_2","type":"berry_bush","x":2400,"y":3008,"width":32,"height":28,"properties":[{"name":"resource","type":"string","value":"food"},{"name":"capacity","type":"int","value":8},{"name":"regenPerIslandHour","type":"int","value":0.8}]},{"id":34,"name":"berry_bush_3","type":"berry_bush","x":2592,"y":2912,"width":32,"height":28,"properties":[{"name":"resource","type":"string","value":"food"},{"name":"capacity","type":"int","value":8},{"name":"regenPerIslandHour","type":"int","value":0.8}]},{"id":35,"name":"berry_bush_4","type":"berry_bush","x":2688,"y":3328,"width":32,"height":28,"properties":[{"name":"resource","type":"string","value":"food"},{"name":"capacity","type":"int","value":8},{"name":"regenPerIslandHour","type":"int","value":0.8}]},{"id":36,"name":"berry_bush_5","type":"berry_bush","x":3584,"y":4480,"width":32,"height":28,"properties":[{"name":"resource","type":"string","value":"food"},{"name":"capacity","type":"int","value":8},{"name":"regenPerIslandHour","type":"int","value":0.8}]},{"id":37,"name":"berry_bush_6","type":"berry_bush","x":4736,"y":2624,"width":32,"height":28,"properties":[{"name":"resource","type":"string","value":"food"},{"name":"capacity","type":"int","value":8},{"name":"regenPerIslandHour","type":"int","value":0.8}]},{"id":38,"name":"berry_bush_7","type":"berry_bush","x":2208,"y":3424,"width":32,"height":28,"properties":[{"name":"resource","type":"string","value":"food"},{"name":"capacity","type":"int","value":8},{"name":"regenPerIslandHour","type":"int","value":0.8}]},{"id":39,"name":"wood_pile_1","type":"wood_pile","x":4640,"y":3488,"width":30,"height":16,"properties":[{"name":"resource","type":"string","value":"wood"},{"name":"capacity","type":"int","value":4},{"name":"regenPerIslandHour","type":"int","value":0.1}]},{"id":40,"name":"wood_pile_2","type":"wood_pile","x":4672,"y":1984,"width":30,"height":16,"properties":[{"name":"resource","type":"string","value":"wood"},{"name":"capacity","type":"int","value":4},{"name":"regenPerIslandHour","type":"int","value":0.1}]},{"id":41,"name":"wood_pile_3","type":"wood_pile","x":4032,"y":3648,"width":30,"height":16,"properties":[{"name":"resource","type":"string","value":"wood"},{"name":"capacity","type":"int","value":4},{"name":"regenPerIslandHour","type":"int","value":0.1}]},{"id":42,"name":"wood_pile_4","type":"wood_pile","x":3168,"y":3264,"width":30,"height":16,"properties":[{"name":"resource","type":"string","value":"wood"},{"name":"capacity","type":"int","value":4},{"name":"regenPerIslandHour","type":"int","value":0.1}]},{"id":43,"name":"wood_pile_5","type":"wood_pile","x":2816,"y":4320,"width":30,"height":16,"properties":[{"name":"resource","type":"string","value":"wood"},{"name":"capacity","type":"int","value":4},{"name":"regenPerIslandHour","type":"int","value":0.1}]},{"id":44,"name":"wood_pile_6","type":"wood_pile","x":4896,"y":2560,"width":30,"height":16,"properties":[{"name":"resource","type":"string","value":"wood"},{"name":"capacity","type":"int","value":4},{"name":"regenPerIslandHour","type":"int","value":0.1}]},{"id":45,"name":"wood_pile_7","type":"wood_pile","x":3456,"y":3264,"width":30,"height":16,"properties":[{"name":"resource","type":"string","value":"wood"},{"name":"capacity","type":"int","value":4},{"name":"regenPerIslandHour","type":"int","value":0.1}]},{"id":46,"name":"wood_pile_8","type":"wood_pile","x":5440,"y":3840,"width":30,"height":16,"properties":[{"name":"resource","type":"string","value":"wood"},{"name":"capacity","type":"int","value":4},{"name":"regenPerIslandHour","type":"int","value":0.1}]},{"id":47,"name":"wood_pile_9","type":"wood_pile","x":5056,"y":2080,"width":30,"height":16,"properties":[{"name":"resource","type":"string","value":"wood"},{"name":"capacity","type":"int","value":4},{"name":"regenPerIslandHour","type":"int","value":0.1}]},{"id":2305,"name":"rock_1","type":"rock","x":4416,"y":1408,"width":40,"height":28,"properties":[{"name":"blockMovement","type":"bool","value":true}]},{"id":2306,"name":"rock_2","type":"rock","x":4224,"y":1440,"width":40,"height":28,"properties":[{"name":"blockMovement","type":"bool","value":true}]},{"id":2307,"name":"rock_3","type":"rock","x":3424,"y":1568,"width":40,"height":28,"properties":[{"name":"blockMovement","type":"bool","value":true}]},{"id":2308,"name":"rock_4","type":"rock","x":3488,"y":1568,"width":40,"height":28,"properties":[{"name":"blockMovement","type":"bool","value":true}]},{"id":2309,"name":"rock_5","type":"rock","x":4064,"y":1568,"width":40,"height":28,"properties":[{"name":"blockMovement","type":"bool","value":true}]},{"id":2310,"name":"rock_6","type":"rock","x":3456,"y":1632,"width":40,"height":28,"properties":[{"name":"blockMovement","type":"bool","value":true}]},{"id":2311,"name":"rock_7","type":"rock","x":3744,"y":1632,"width":40,"height":28,"properties":[{"name":"blockMovement","type":"bool","value":true}]},{"id":2312,"name":"rock_8","type":"rock","x":4448,"y":1696,"width":40,"height":28,"properties":[{"name":"blockMovement","type":"bool","value":true}]},{"id":2313,"name":"rock_9","type":"rock","x":3296,"y":1856,"width":40,"height":28,"properties":[{"name":"blockMovement","type":"bool","value":true}]},{"id":2314,"name":"rock_10","type":"rock","x":2880,"y":1888,"width":40,"height":28,"properties":[{"name":"blockMovement","type":"bool","value":true}]},{"id":2315,"name":"rock_11","type":"rock","x":3008,"y":1888,"width":40,"height":28,"properties":[{"name":"blockMovement","type":"bool","value":true}]},{"id":2316,"name":"rock_12","type":"rock","x":3552,"y":1888,"width":40,"height":28,"properties":[{"name":"blockMovement","type":"bool","value":true}]},{"id":2317,"name":"rock_13","type":"rock","x":5216,"y":2048,"width":40,"height":28,"properties":[{"name":"blockMovement","type":"bool","value":true}]},{"id":2318,"name":"rock_14","type":"rock","x":5280,"y":2080,"width":40,"height":28,"properties":[{"name":"blockMovement","type":"bool","value":true}]},{"id":2319,"name":"rock_15","type":"rock","x":2624,"y":2144,"width":40,"height":28,"properties":[{"name":"blockMovement","type":"bool","value":true}]},{"id":2320,"name":"rock_16","type":"rock","x":5696,"y":2144,"width":40,"height":28,"properties":[{"name":"blockMovement","type":"bool","value":true}]},{"id":2321,"name":"rock_17","type":"rock","x":2560,"y":2176,"width":40,"height":28,"properties":[{"name":"blockMovement","type":"bool","value":true}]},{"id":2322,"name":"rock_18","type":"rock","x":2880,"y":2176,"width":40,"height":28,"properties":[{"name":"blockMovement","type":"bool","value":true}]},{"id":2323,"name":"rock_19","type":"rock","x":5664,"y":2176,"width":40,"height":28,"properties":[{"name":"blockMovement","type":"bool","value":true}]},{"id":2324,"name":"rock_20","type":"rock","x":2144,"y":2208,"width":40,"height":28,"properties":[{"name":"blockMovement","type":"bool","value":true}]},{"id":2325,"name":"rock_21","type":"rock","x":2528,"y":2240,"width":40,"height":28,"properties":[{"name":"blockMovement","type":"bool","value":true}]},{"id":2326,"name":"rock_22","type":"rock","x":2784,"y":2240,"width":40,"height":28,"properties":[{"name":"blockMovement","type":"bool","value":true}]},{"id":2327,"name":"rock_23","type":"rock","x":5248,"y":2240,"width":40,"height":28,"properties":[{"name":"blockMovement","type":"bool","value":true}]},{"id":2328,"name":"rock_24","type":"rock","x":5536,"y":2304,"width":40,"height":28,"properties":[{"name":"blockMovement","type":"bool","value":true}]},{"id":2329,"name":"rock_25","type":"rock","x":2752,"y":2336,"width":40,"height":28,"properties":[{"name":"blockMovement","type":"bool","value":true}]},{"id":2330,"name":"rock_26","type":"rock","x":2592,"y":2368,"width":40,"height":28,"properties":[{"name":"blockMovement","type":"bool","value":true}]},{"id":2331,"name":"rock_27","type":"rock","x":2240,"y":2400,"width":40,"height":28,"properties":[{"name":"blockMovement","type":"bool","value":true}]},{"id":2332,"name":"rock_28","type":"rock","x":5632,"y":2400,"width":40,"height":28,"properties":[{"name":"blockMovement","type":"bool","value":true}]},{"id":2333,"name":"rock_29","type":"rock","x":2400,"y":2432,"width":40,"height":28,"properties":[{"name":"blockMovement","type":"bool","value":true}]},{"id":2334,"name":"rock_30","type":"rock","x":4384,"y":2464,"width":40,"height":28,"properties":[{"name":"blockMovement","type":"bool","value":true}]},{"id":2335,"name":"rock_31","type":"rock","x":4448,"y":2464,"width":40,"height":28,"properties":[{"name":"blockMovement","type":"bool","value":true}]},{"id":2336,"name":"rock_32","type":"rock","x":5440,"y":2464,"width":40,"height":28,"properties":[{"name":"blockMovement","type":"bool","value":true}]},{"id":2337,"name":"rock_33","type":"rock","x":1952,"y":2496,"width":40,"height":28,"properties":[{"name":"blockMovement","type":"bool","value":true}]},{"id":2338,"name":"rock_34","type":"rock","x":2240,"y":2560,"width":40,"height":28,"properties":[{"name":"blockMovement","type":"bool","value":true}]},{"id":2339,"name":"rock_35","type":"rock","x":2304,"y":2560,"width":40,"height":28,"properties":[{"name":"blockMovement","type":"bool","value":true}]},{"id":2340,"name":"rock_36","type":"rock","x":2400,"y":2592,"width":40,"height":28,"properties":[{"name":"blockMovement","type":"bool","value":true}]},{"id":2341,"name":"rock_37","type":"rock","x":2464,"y":2624,"width":40,"height":28,"properties":[{"name":"blockMovement","type":"bool","value":true}]},{"id":2342,"name":"rock_38","type":"rock","x":2336,"y":2720,"width":40,"height":28,"properties":[{"name":"blockMovement","type":"bool","value":true}]},{"id":2343,"name":"rock_39","type":"rock","x":2528,"y":2880,"width":40,"height":28,"properties":[{"name":"blockMovement","type":"bool","value":true}]},{"id":2344,"name":"rock_40","type":"rock","x":4352,"y":2880,"width":40,"height":28,"properties":[{"name":"blockMovement","type":"bool","value":true}]},{"id":2345,"name":"rock_41","type":"rock","x":4160,"y":2944,"width":40,"height":28,"properties":[{"name":"blockMovement","type":"bool","value":true}]},{"id":2346,"name":"rock_42","type":"rock","x":4768,"y":3008,"width":40,"height":28,"properties":[{"name":"blockMovement","type":"bool","value":true}]},{"id":2347,"name":"rock_43","type":"rock","x":2496,"y":3040,"width":40,"height":28,"properties":[{"name":"blockMovement","type":"bool","value":true}]},{"id":2348,"name":"rock_44","type":"rock","x":2528,"y":3104,"width":40,"height":28,"properties":[{"name":"blockMovement","type":"bool","value":true}]},{"id":2349,"name":"rock_45","type":"rock","x":4672,"y":3200,"width":40,"height":28,"properties":[{"name":"blockMovement","type":"bool","value":true}]},{"id":2350,"name":"rock_46","type":"rock","x":4768,"y":3200,"width":40,"height":28,"properties":[{"name":"blockMovement","type":"bool","value":true}]},{"id":2351,"name":"rock_47","type":"rock","x":4384,"y":3232,"width":40,"height":28,"properties":[{"name":"blockMovement","type":"bool","value":true}]},{"id":2352,"name":"rock_48","type":"rock","x":4352,"y":3264,"width":40,"height":28,"properties":[{"name":"blockMovement","type":"bool","value":true}]},{"id":2353,"name":"rock_49","type":"rock","x":2272,"y":3296,"width":40,"height":28,"properties":[{"name":"blockMovement","type":"bool","value":true}]},{"id":2354,"name":"rock_50","type":"rock","x":4832,"y":3392,"width":40,"height":28,"properties":[{"name":"blockMovement","type":"bool","value":true}]},{"id":2355,"name":"rock_51","type":"rock","x":5984,"y":3424,"width":40,"height":28,"properties":[{"name":"blockMovement","type":"bool","value":true}]},{"id":2356,"name":"rock_52","type":"rock","x":2592,"y":3584,"width":40,"height":28,"properties":[{"name":"blockMovement","type":"bool","value":true}]},{"id":2357,"name":"rock_53","type":"rock","x":2912,"y":3744,"width":40,"height":28,"properties":[{"name":"blockMovement","type":"bool","value":true}]}]},{"id":4,"name":"TallProps","type":"objectgroup","x":0,"y":0,"opacity":1,"visible":true,"objects":[{"id":48,"name":"tree_1","type":"tree","x":4480,"y":1024,"width":48,"height":64,"properties":[{"name":"variant","type":"int","value":1}]},{"id":49,"name":"tree_2","type":"tree","x":4512,"y":1056,"width":48,"height":64,"properties":[{"name":"variant","type":"int","value":2}]},{"id":50,"name":"tree_3","type":"tree","x":4480,"y":1120,"width":48,"height":64,"properties":[{"name":"variant","type":"int","value":0}]},{"id":51,"name":"tree_4","type":"tree","x":4544,"y":1120,"width":48,"height":64,"properties":[{"name":"variant","type":"int","value":1}]},{"id":52,"name":"tree_5","type":"tree","x":4608,"y":1120,"width":48,"height":64,"properties":[{"name":"variant","type":"int","value":2}]},{"id":53,"name":"tree_6","type":"tree","x":4576,"y":1152,"width":48,"height":64,"properties":[{"name":"variant","type":"int","value":0}]},{"id":54,"name":"tree_7","type":"tree","x":4608,"y":1152,"width":48,"height":64,"properties":[{"name":"variant","type":"int","value":1}]},{"id":55,"name":"tree_8","type":"tree","x":4640,"y":1152,"width":48,"height":64,"properties":[{"name":"variant","type":"int","value":2}]},{"id":56,"name":"tree_9","type":"tree","x":4352,"y":1184,"width":48,"height":64,"properties":[{"name":"variant","type":"int","value":0}]},{"id":57,"name":"tree_10","type":"tree","x":4544,"y":1184,"width":48,"height":64,"properties":[{"name":"variant","type":"int","value":1}]},{"id":58,"name":"tree_11","type":"tree","x":4608,"y":1184,"width":48,"height":64,"properties":[{"name":"variant","type":"int","value":2}]},{"id":59,"name":"tree_12","type":"tree","x":4640,"y":1184,"width":48,"height":64,"properties":[{"name":"variant","type":"int","value":0}]},{"id":60,"name":"tree_13","type":"tree","x":4704,"y":1184,"width":48,"height":64,"properties":[{"name":"variant","type":"int","value":1}]},{"id":61,"name":"tree_14","type":"tree","x":4608,"y":1216,"width":48,"height":64,"properties":[{"name":"variant","type":"int","value":2}]},{"id":62,"name":"tree_15","type":"tree","x":4704,"y":1216,"width":48,"height":64,"properties":[{"name":"variant","type":"int","value":0}]},{"id":63,"name":"tree_16","type":"tree","x":4320,"y":1248,"width":48,"height":64,"properties":[{"name":"variant","type":"int","value":1}]},{"id":64,"name":"tree_17","type":"tree","x":4352,"y":1248,"width":48,"height":64,"properties":[{"name":"variant","type":"int","value":2}]},{"id":65,"name":"tree_18","type":"tree","x":4736,"y":1248,"width":48,"height":64,"properties":[{"name":"variant","type":"int","value":0}]},{"id":66,"name":"tree_19","type":"tree","x":4768,"y":1248,"width":48,"height":64,"properties":[{"name":"variant","type":"int","value":1}]},{"id":67,"name":"tree_20","type":"tree","x":4640,"y":1280,"width":48,"height":64,"properties":[{"name":"variant","type":"int","value":2}]},{"id":68,"name":"tree_21","type":"tree","x":4800,"y":1280,"width":48,"height":64,"properties":[{"name":"variant","type":"int","value":0}]},{"id":69,"name":"tree_22","type":"tree","x":4352,"y":1312,"width":48,"height":64,"properties":[{"name":"variant","type":"int","value":1}]},{"id":70,"name":"tree_23","type":"tree","x":4640,"y":1312,"width":48,"height":64,"properties":[{"name":"variant","type":"int","value":2}]},{"id":71,"name":"tree_24","type":"tree","x":4704,"y":1312,"width":48,"height":64,"properties":[{"name":"variant","type":"int","value":0}]},{"id":72,"name":"tree_25","type":"tree","x":4768,"y":1312,"width":48,"height":64,"properties":[{"name":"variant","type":"int","value":1}]},{"id":73,"name":"tree_26","type":"tree","x":4864,"y":1312,"width":48,"height":64,"properties":[{"name":"variant","type":"int","value":2}]},{"id":74,"name":"tree_27","type":"tree","x":4192,"y":1344,"width":48,"height":64,"properties":[{"name":"variant","type":"int","value":0}]},{"id":75,"name":"tree_28","type":"tree","x":4224,"y":1344,"width":48,"height":64,"properties":[{"name":"variant","type":"int","value":1}]},{"id":76,"name":"tree_29","type":"tree","x":4320,"y":1344,"width":48,"height":64,"properties":[{"name":"variant","type":"int","value":2}]},{"id":77,"name":"tree_30","type":"tree","x":4704,"y":1344,"width":48,"height":64,"properties":[{"name":"variant","type":"int","value":0}]},{"id":78,"name":"tree_31","type":"tree","x":4736,"y":1344,"width":48,"height":64,"properties":[{"name":"variant","type":"int","value":1}]},{"id":79,"name":"tree_32","type":"tree","x":4768,"y":1344,"width":48,"height":64,"properties":[{"name":"variant","type":"int","value":2}]},{"id":80,"name":"tree_33","type":"tree","x":4192,"y":1376,"width":48,"height":64,"properties":[{"name":"variant","type":"int","value":0}]},{"id":81,"name":"tree_34","type":"tree","x":4320,"y":1376,"width":48,"height":64,"properties":[{"name":"variant","type":"int","value":1}]},{"id":82,"name":"tree_35","type":"tree","x":4480,"y":1376,"width":48,"height":64,"properties":[{"name":"variant","type":"int","value":2}]},{"id":83,"name":"tree_36","type":"tree","x":4544,"y":1376,"width":48,"height":64,"properties":[{"name":"variant","type":"int","value":0}]},{"id":84,"name":"tree_37","type":"tree","x":4576,"y":1376,"width":48,"height":64,"properties":[{"name":"variant","type":"int","value":1}]},{"id":85,"name":"tree_38","type":"tree","x":4768,"y":1376,"width":48,"height":64,"properties":[{"name":"variant","type":"int","value":2}]},{"id":86,"name":"tree_39","type":"tree","x":4800,"y":1376,"width":48,"height":64,"properties":[{"name":"variant","type":"int","value":0}]},{"id":87,"name":"tree_40","type":"tree","x":4896,"y":1376,"width":48,"height":64,"properties":[{"name":"variant","type":"int","value":1}]},{"id":88,"name":"tree_41","type":"tree","x":4256,"y":1408,"width":48,"height":64,"properties":[{"name":"variant","type":"int","value":2}]},{"id":89,"name":"tree_42","type":"tree","x":4320,"y":1408,"width":48,"height":64,"properties":[{"name":"variant","type":"int","value":0}]},{"id":90,"name":"tree_43","type":"tree","x":4352,"y":1408,"width":48,"height":64,"properties":[{"name":"variant","type":"int","value":1}]},{"id":91,"name":"tree_44","type":"tree","x":4608,"y":1408,"width":48,"height":64,"properties":[{"name":"variant","type":"int","value":2}]},{"id":92,"name":"tree_45","type":"tree","x":4768,"y":1408,"width":48,"height":64,"properties":[{"name":"variant","type":"int","value":0}]},{"id":93,"name":"tree_46","type":"tree","x":4832,"y":1408,"width":48,"height":64,"properties":[{"name":"variant","type":"int","value":1}]},{"id":94,"name":"tree_47","type":"tree","x":4864,"y":1408,"width":48,"height":64,"properties":[{"name":"variant","type":"int","value":2}]},{"id":95,"name":"tree_48","type":"tree","x":4896,"y":1408,"width":48,"height":64,"properties":[{"name":"variant","type":"int","value":0}]},{"id":96,"name":"tree_49","type":"tree","x":5024,"y":1408,"width":48,"height":64,"properties":[{"name":"variant","type":"int","value":1}]},{"id":97,"name":"tree_50","type":"tree","x":5056,"y":1408,"width":48,"height":64,"properties":[{"name":"variant","type":"int","value":2}]},{"id":98,"name":"tree_51","type":"tree","x":4160,"y":1440,"width":48,"height":64,"properties":[{"name":"variant","type":"int","value":0}]},{"id":99,"name":"tree_52","type":"tree","x":4576,"y":1440,"width":48,"height":64,"properties":[{"name":"variant","type":"int","value":1}]},{"id":100,"name":"tree_53","type":"tree","x":4768,"y":1440,"width":48,"height":64,"properties":[{"name":"variant","type":"int","value":2}]},{"id":101,"name":"tree_54","type":"tree","x":4960,"y":1440,"width":48,"height":64,"properties":[{"name":"variant","type":"int","value":0}]},{"id":102,"name":"tree_55","type":"tree","x":4992,"y":1440,"width":48,"height":64,"properties":[{"name":"variant","type":"int","value":1}]},{"id":103,"name":"tree_56","type":"tree","x":4224,"y":1472,"width":48,"height":64,"properties":[{"name":"variant","type":"int","value":2}]},{"id":104,"name":"tree_57","type":"tree","x":4320,"y":1472,"width":48,"height":64,"properties":[{"name":"variant","type":"int","value":0}]},{"id":105,"name":"tree_58","type":"tree","x":4352,"y":1472,"width":48,"height":64,"properties":[{"name":"variant","type":"int","value":1}]},{"id":106,"name":"tree_59","type":"tree","x":4480,"y":1472,"width":48,"height":64,"properties":[{"name":"variant","type":"int","value":2}]},{"id":107,"name":"tree_60","type":"tree","x":4544,"y":1472,"width":48,"height":64,"properties":[{"name":"variant","type":"int","value":0}]},{"id":108,"name":"tree_61","type":"tree","x":4640,"y":1472,"width":48,"height":64,"properties":[{"name":"variant","type":"int","value":1}]},{"id":109,"name":"tree_62","type":"tree","x":4960,"y":1472,"width":48,"height":64,"properties":[{"name":"variant","type":"int","value":2}]},{"id":110,"name":"tree_63","type":"tree","x":4992,"y":1472,"width":48,"height":64,"properties":[{"name":"variant","type":"int","value":0}]},{"id":111,"name":"tree_64","type":"tree","x":5024,"y":1472,"width":48,"height":64,"properties":[{"name":"variant","type":"int","value":1}]},{"id":112,"name":"tree_65","type":"tree","x":5088,"y":1472,"width":48,"height":64,"properties":[{"name":"variant","type":"int","value":2}]},{"id":113,"name":"tree_66","type":"tree","x":4192,"y":1504,"width":48,"height":64,"properties":[{"name":"variant","type":"int","value":0}]},{"id":114,"name":"tree_67","type":"tree","x":4256,"y":1504,"width":48,"height":64,"properties":[{"name":"variant","type":"int","value":1}]},{"id":115,"name":"tree_68","type":"tree","x":4288,"y":1504,"width":48,"height":64,"properties":[{"name":"variant","type":"int","value":2}]},{"id":116,"name":"tree_69","type":"tree","x":4544,"y":1504,"width":48,"height":64,"properties":[{"name":"variant","type":"int","value":0}]},{"id":117,"name":"tree_70","type":"tree","x":4736,"y":1504,"width":48,"height":64,"properties":[{"name":"variant","type":"int","value":1}]},{"id":118,"name":"tree_71","type":"tree","x":4864,"y":1504,"width":48,"height":64,"properties":[{"name":"variant","type":"int","value":2}]},{"id":119,"name":"tree_72","type":"tree","x":4928,"y":1504,"width":48,"height":64,"properties":[{"name":"variant","type":"int","value":0}]},{"id":120,"name":"tree_73","type":"tree","x":4992,"y":1504,"width":48,"height":64,"properties":[{"name":"variant","type":"int","value":1}]},{"id":121,"name":"tree_74","type":"tree","x":5056,"y":1504,"width":48,"height":64,"properties":[{"name":"variant","type":"int","value":2}]},{"id":122,"name":"tree_75","type":"tree","x":4128,"y":1536,"width":48,"height":64,"properties":[{"name":"variant","type":"int","value":0}]},{"id":123,"name":"tree_76","type":"tree","x":4160,"y":1536,"width":48,"height":64,"properties":[{"name":"variant","type":"int","value":1}]},{"id":124,"name":"tree_77","type":"tree","x":4192,"y":1536,"width":48,"height":64,"properties":[{"name":"variant","type":"int","value":2}]},{"id":125,"name":"tree_78","type":"tree","x":4320,"y":1536,"width":48,"height":64,"properties":[{"name":"variant","type":"int","value":0}]},{"id":126,"name":"tree_79","type":"tree","x":4352,"y":1536,"width":48,"height":64,"properties":[{"name":"variant","type":"int","value":1}]},{"id":127,"name":"tree_80","type":"tree","x":4864,"y":1536,"width":48,"height":64,"properties":[{"name":"variant","type":"int","value":2}]},{"id":128,"name":"tree_81","type":"tree","x":4960,"y":1536,"width":48,"height":64,"properties":[{"name":"variant","type":"int","value":0}]},{"id":129,"name":"tree_82","type":"tree","x":5024,"y":1536,"width":48,"height":64,"properties":[{"name":"variant","type":"int","value":1}]},{"id":130,"name":"tree_83","type":"tree","x":4256,"y":1568,"width":48,"height":64,"properties":[{"name":"variant","type":"int","value":2}]},{"id":131,"name":"tree_84","type":"tree","x":4288,"y":1568,"width":48,"height":64,"properties":[{"name":"variant","type":"int","value":0}]},{"id":132,"name":"tree_85","type":"tree","x":4320,"y":1568,"width":48,"height":64,"properties":[{"name":"variant","type":"int","value":1}]},{"id":133,"name":"tree_86","type":"tree","x":4480,"y":1568,"width":48,"height":64,"properties":[{"name":"variant","type":"int","value":2}]},{"id":134,"name":"tree_87","type":"tree","x":4896,"y":1568,"width":48,"height":64,"properties":[{"name":"variant","type":"int","value":0}]},{"id":135,"name":"tree_88","type":"tree","x":5024,"y":1568,"width":48,"height":64,"properties":[{"name":"variant","type":"int","value":1}]},{"id":136,"name":"tree_89","type":"tree","x":5152,"y":1568,"width":48,"height":64,"properties":[{"name":"variant","type":"int","value":2}]},{"id":137,"name":"tree_90","type":"tree","x":5216,"y":1568,"width":48,"height":64,"properties":[{"name":"variant","type":"int","value":0}]},{"id":138,"name":"tree_91","type":"tree","x":4096,"y":1600,"width":48,"height":64,"properties":[{"name":"variant","type":"int","value":1}]},{"id":139,"name":"tree_92","type":"tree","x":4320,"y":1600,"width":48,"height":64,"properties":[{"name":"variant","type":"int","value":2}]},{"id":140,"name":"tree_93","type":"tree","x":4512,"y":1600,"width":48,"height":64,"properties":[{"name":"variant","type":"int","value":0}]},{"id":141,"name":"tree_94","type":"tree","x":4736,"y":1600,"width":48,"height":64,"properties":[{"name":"variant","type":"int","value":1}]},{"id":142,"name":"tree_95","type":"tree","x":4864,"y":1600,"width":48,"height":64,"properties":[{"name":"variant","type":"int","value":2}]},{"id":143,"name":"tree_96","type":"tree","x":4896,"y":1600,"width":48,"height":64,"properties":[{"name":"variant","type":"int","value":0}]},{"id":144,"name":"tree_97","type":"tree","x":4928,"y":1600,"width":48,"height":64,"properties":[{"name":"variant","type":"int","value":1}]},{"id":145,"name":"tree_98","type":"tree","x":4992,"y":1600,"width":48,"height":64,"properties":[{"name":"variant","type":"int","value":2}]},{"id":146,"name":"tree_99","type":"tree","x":5056,"y":1600,"width":48,"height":64,"properties":[{"name":"variant","type":"int","value":0}]},{"id":147,"name":"tree_100","type":"tree","x":5152,"y":1600,"width":48,"height":64,"properties":[{"name":"variant","type":"int","value":1}]},{"id":148,"name":"tree_101","type":"tree","x":4064,"y":1632,"width":48,"height":64,"properties":[{"name":"variant","type":"int","value":2}]},{"id":149,"name":"tree_102","type":"tree","x":4288,"y":1632,"width":48,"height":64,"properties":[{"name":"variant","type":"int","value":0}]},{"id":150,"name":"tree_103","type":"tree","x":4320,"y":1632,"width":48,"height":64,"properties":[{"name":"variant","type":"int","value":1}]},{"id":151,"name":"tree_104","type":"tree","x":4480,"y":1632,"width":48,"height":64,"properties":[{"name":"variant","type":"int","value":2}]},{"id":152,"name":"tree_105","type":"tree","x":4576,"y":1632,"width":48,"height":64,"properties":[{"name":"variant","type":"int","value":0}]},{"id":153,"name":"tree_106","type":"tree","x":4608,"y":1632,"width":48,"height":64,"properties":[{"name":"variant","type":"int","value":1}]},{"id":154,"name":"tree_107","type":"tree","x":4896,"y":1632,"width":48,"height":64,"properties":[{"name":"variant","type":"int","value":2}]},{"id":155,"name":"tree_108","type":"tree","x":4928,"y":1632,"width":48,"height":64,"properties":[{"name":"variant","type":"int","value":0}]},{"id":156,"name":"tree_109","type":"tree","x":4960,"y":1632,"width":48,"height":64,"properties":[{"name":"variant","type":"int","value":1}]},{"id":157,"name":"tree_110","type":"tree","x":4992,"y":1632,"width":48,"height":64,"properties":[{"name":"variant","type":"int","value":2}]},{"id":158,"name":"tree_111","type":"tree","x":5056,"y":1632,"width":48,"height":64,"properties":[{"name":"variant","type":"int","value":0}]},{"id":159,"name":"tree_112","type":"tree","x":5152,"y":1632,"width":48,"height":64,"properties":[{"name":"variant","type":"int","value":1}]},{"id":160,"name":"tree_113","type":"tree","x":4032,"y":1664,"width":48,"height":64,"properties":[{"name":"variant","type":"int","value":2}]},{"id":161,"name":"tree_114","type":"tree","x":4704,"y":1664,"width":48,"height":64,"properties":[{"name":"variant","type":"int","value":0}]},{"id":162,"name":"tree_115","type":"tree","x":4992,"y":1664,"width":48,"height":64,"properties":[{"name":"variant","type":"int","value":1}]},{"id":163,"name":"tree_116","type":"tree","x":5056,"y":1664,"width":48,"height":64,"properties":[{"name":"variant","type":"int","value":2}]},{"id":164,"name":"tree_117","type":"tree","x":5088,"y":1664,"width":48,"height":64,"properties":[{"name":"variant","type":"int","value":0}]},{"id":165,"name":"tree_118","type":"tree","x":5120,"y":1664,"width":48,"height":64,"properties":[{"name":"variant","type":"int","value":1}]},{"id":166,"name":"tree_119","type":"tree","x":4032,"y":1696,"width":48,"height":64,"properties":[{"name":"variant","type":"int","value":2}]},{"id":167,"name":"tree_120","type":"tree","x":4512,"y":1696,"width":48,"height":64,"properties":[{"name":"variant","type":"int","value":0}]},{"id":168,"name":"tree_121","type":"tree","x":4960,"y":1696,"width":48,"height":64,"properties":[{"name":"variant","type":"int","value":1}]},{"id":169,"name":"tree_122","type":"tree","x":4992,"y":1696,"width":48,"height":64,"properties":[{"name":"variant","type":"int","value":2}]},{"id":170,"name":"tree_123","type":"tree","x":5024,"y":1696,"width":48,"height":64,"properties":[{"name":"variant","type":"int","value":0}]},{"id":171,"name":"tree_124","type":"tree","x":5088,"y":1696,"width":48,"height":64,"properties":[{"name":"variant","type":"int","value":1}]},{"id":172,"name":"tree_125","type":"tree","x":4480,"y":1728,"width":48,"height":64,"properties":[{"name":"variant","type":"int","value":2}]},{"id":173,"name":"tree_126","type":"tree","x":4608,"y":1728,"width":48,"height":64,"properties":[{"name":"variant","type":"int","value":0}]},{"id":174,"name":"tree_127","type":"tree","x":4800,"y":1728,"width":48,"height":64,"properties":[{"name":"variant","type":"int","value":1}]},{"id":175,"name":"tree_128","type":"tree","x":5120,"y":1728,"width":48,"height":64,"properties":[{"name":"variant","type":"int","value":2}]},{"id":176,"name":"tree_129","type":"tree","x":4256,"y":1760,"width":48,"height":64,"properties":[{"name":"variant","type":"int","value":0}]},{"id":177,"name":"tree_130","type":"tree","x":4480,"y":1760,"width":48,"height":64,"properties":[{"name":"variant","type":"int","value":1}]},{"id":178,"name":"tree_131","type":"tree","x":4512,"y":1760,"width":48,"height":64,"properties":[{"name":"variant","type":"int","value":2}]},{"id":179,"name":"tree_132","type":"tree","x":4704,"y":1760,"width":48,"height":64,"properties":[{"name":"variant","type":"int","value":0}]},{"id":180,"name":"tree_133","type":"tree","x":4832,"y":1760,"width":48,"height":64,"properties":[{"name":"variant","type":"int","value":1}]},{"id":181,"name":"tree_134","type":"tree","x":4960,"y":1760,"width":48,"height":64,"properties":[{"name":"variant","type":"int","value":2}]},{"id":182,"name":"tree_135","type":"tree","x":3936,"y":1792,"width":48,"height":64,"properties":[{"name":"variant","type":"int","value":0}]},{"id":183,"name":"tree_136","type":"tree","x":3968,"y":1792,"width":48,"height":64,"properties":[{"name":"variant","type":"int","value":1}]},{"id":184,"name":"tree_137","type":"tree","x":4064,"y":1792,"width":48,"height":64,"properties":[{"name":"variant","type":"int","value":2}]},{"id":185,"name":"tree_138","type":"tree","x":4096,"y":1792,"width":48,"height":64,"properties":[{"name":"variant","type":"int","value":0}]},{"id":186,"name":"tree_139","type":"tree","x":4128,"y":1792,"width":48,"height":64,"properties":[{"name":"variant","type":"int","value":1}]},{"id":187,"name":"tree_140","type":"tree","x":4576,"y":1792,"width":48,"height":64,"properties":[{"name":"variant","type":"int","value":2}]},{"id":188,"name":"tree_141","type":"tree","x":4896,"y":1792,"width":48,"height":64,"properties":[{"name":"variant","type":"int","value":0}]},{"id":189,"name":"tree_142","type":"tree","x":4960,"y":1792,"width":48,"height":64,"properties":[{"name":"variant","type":"int","value":1}]},{"id":190,"name":"tree_143","type":"tree","x":5056,"y":1792,"width":48,"height":64,"properties":[{"name":"variant","type":"int","value":2}]},{"id":191,"name":"tree_144","type":"tree","x":5152,"y":1792,"width":48,"height":64,"properties":[{"name":"variant","type":"int","value":0}]},{"id":192,"name":"tree_145","type":"tree","x":3968,"y":1824,"width":48,"height":64,"properties":[{"name":"variant","type":"int","value":1}]},{"id":193,"name":"tree_146","type":"tree","x":4000,"y":1824,"width":48,"height":64,"properties":[{"name":"variant","type":"int","value":2}]},{"id":194,"name":"tree_147","type":"tree","x":4032,"y":1824,"width":48,"height":64,"properties":[{"name":"variant","type":"int","value":0}]},{"id":195,"name":"tree_148","type":"tree","x":4064,"y":1824,"width":48,"height":64,"properties":[{"name":"variant","type":"int","value":1}]},{"id":196,"name":"tree_149","type":"tree","x":4800,"y":1824,"width":48,"height":64,"properties":[{"name":"variant","type":"int","value":2}]},{"id":197,"name":"tree_150","type":"tree","x":5024,"y":1824,"width":48,"height":64,"properties":[{"name":"variant","type":"int","value":0}]},{"id":198,"name":"tree_151","type":"tree","x":5088,"y":1824,"width":48,"height":64,"properties":[{"name":"variant","type":"int","value":1}]},{"id":199,"name":"tree_152","type":"tree","x":3840,"y":1856,"width":48,"height":64,"properties":[{"name":"variant","type":"int","value":2}]},{"id":200,"name":"tree_153","type":"tree","x":4000,"y":1856,"width":48,"height":64,"properties":[{"name":"variant","type":"int","value":0}]},{"id":201,"name":"tree_154","type":"tree","x":4064,"y":1856,"width":48,"height":64,"properties":[{"name":"variant","type":"int","value":1}]},{"id":202,"name":"tree_155","type":"tree","x":4128,"y":1856,"width":48,"height":64,"properties":[{"name":"variant","type":"int","value":2}]},{"id":203,"name":"tree_156","type":"tree","x":4224,"y":1856,"width":48,"height":64,"properties":[{"name":"variant","type":"int","value":0}]},{"id":204,"name":"tree_157","type":"tree","x":4288,"y":1856,"width":48,"height":64,"properties":[{"name":"variant","type":"int","value":1}]},{"id":205,"name":"tree_158","type":"tree","x":4320,"y":1856,"width":48,"height":64,"properties":[{"name":"variant","type":"int","value":2}]},{"id":206,"name":"tree_159","type":"tree","x":4352,"y":1856,"width":48,"height":64,"properties":[{"name":"variant","type":"int","value":0}]},{"id":207,"name":"tree_160","type":"tree","x":4512,"y":1856,"width":48,"height":64,"properties":[{"name":"variant","type":"int","value":1}]},{"id":208,"name":"tree_161","type":"tree","x":4640,"y":1856,"width":48,"height":64,"properties":[{"name":"variant","type":"int","value":2}]},{"id":209,"name":"tree_162","type":"tree","x":4768,"y":1856,"width":48,"height":64,"properties":[{"name":"variant","type":"int","value":0}]},{"id":210,"name":"tree_163","type":"tree","x":4800,"y":1856,"width":48,"height":64,"properties":[{"name":"variant","type":"int","value":1}]},{"id":211,"name":"tree_164","type":"tree","x":4832,"y":1856,"width":48,"height":64,"properties":[{"name":"variant","type":"int","value":2}]},{"id":212,"name":"tree_165","type":"tree","x":4960,"y":1856,"width":48,"height":64,"properties":[{"name":"variant","type":"int","value":0}]},{"id":213,"name":"tree_166","type":"tree","x":4992,"y":1856,"width":48,"height":64,"properties":[{"name":"variant","type":"int","value":1}]},{"id":214,"name":"tree_167","type":"tree","x":5056,"y":1856,"width":48,"height":64,"properties":[{"name":"variant","type":"int","value":2}]},{"id":215,"name":"tree_168","type":"tree","x":5120,"y":1856,"width":48,"height":64,"properties":[{"name":"variant","type":"int","value":0}]},{"id":216,"name":"tree_169","type":"tree","x":5184,"y":1856,"width":48,"height":64,"properties":[{"name":"variant","type":"int","value":1}]},{"id":217,"name":"tree_170","type":"tree","x":3232,"y":1888,"width":48,"height":64,"properties":[{"name":"variant","type":"int","value":2}]},{"id":218,"name":"tree_171","type":"tree","x":3296,"y":1888,"width":48,"height":64,"properties":[{"name":"variant","type":"int","value":0}]},{"id":219,"name":"tree_172","type":"tree","x":3968,"y":1888,"width":48,"height":64,"properties":[{"name":"variant","type":"int","value":1}]},{"id":220,"name":"tree_173","type":"tree","x":4032,"y":1888,"width":48,"height":64,"properties":[{"name":"variant","type":"int","value":2}]},{"id":221,"name":"tree_174","type":"tree","x":4064,"y":1888,"width":48,"height":64,"properties":[{"name":"variant","type":"int","value":0}]},{"id":222,"name":"tree_175","type":"tree","x":4160,"y":1888,"width":48,"height":64,"properties":[{"name":"variant","type":"int","value":1}]},{"id":223,"name":"tree_176","type":"tree","x":4256,"y":1888,"width":48,"height":64,"properties":[{"name":"variant","type":"int","value":2}]},{"id":224,"name":"tree_177","type":"tree","x":4288,"y":1888,"width":48,"height":64,"properties":[{"name":"variant","type":"int","value":0}]},{"id":225,"name":"tree_178","type":"tree","x":4576,"y":1888,"width":48,"height":64,"properties":[{"name":"variant","type":"int","value":1}]},{"id":226,"name":"tree_179","type":"tree","x":4640,"y":1888,"width":48,"height":64,"properties":[{"name":"variant","type":"int","value":2}]},{"id":227,"name":"tree_180","type":"tree","x":4896,"y":1888,"width":48,"height":64,"properties":[{"name":"variant","type":"int","value":0}]},{"id":228,"name":"tree_181","type":"tree","x":4928,"y":1888,"width":48,"height":64,"properties":[{"name":"variant","type":"int","value":1}]},{"id":229,"name":"tree_182","type":"tree","x":5088,"y":1888,"width":48,"height":64,"properties":[{"name":"variant","type":"int","value":2}]},{"id":230,"name":"tree_183","type":"tree","x":5120,"y":1888,"width":48,"height":64,"properties":[{"name":"variant","type":"int","value":0}]},{"id":231,"name":"tree_184","type":"tree","x":5184,"y":1888,"width":48,"height":64,"properties":[{"name":"variant","type":"int","value":1}]},{"id":232,"name":"tree_185","type":"tree","x":3136,"y":1920,"width":48,"height":64,"properties":[{"name":"variant","type":"int","value":2}]},{"id":233,"name":"tree_186","type":"tree","x":3168,"y":1920,"width":48,"height":64,"properties":[{"name":"variant","type":"int","value":0}]},{"id":234,"name":"tree_187","type":"tree","x":3232,"y":1920,"width":48,"height":64,"properties":[{"name":"variant","type":"int","value":1}]},{"id":235,"name":"tree_188","type":"tree","x":3808,"y":1920,"width":48,"height":64,"properties":[{"name":"variant","type":"int","value":2}]},{"id":236,"name":"tree_189","type":"tree","x":3904,"y":1920,"width":48,"height":64,"properties":[{"name":"variant","type":"int","value":0}]},{"id":237,"name":"tree_190","type":"tree","x":3936,"y":1920,"width":48,"height":64,"properties":[{"name":"variant","type":"int","value":1}]},{"id":238,"name":"tree_191","type":"tree","x":4032,"y":1920,"width":48,"height":64,"properties":[{"name":"variant","type":"int","value":2}]},{"id":239,"name":"tree_192","type":"tree","x":4128,"y":1920,"width":48,"height":64,"properties":[{"name":"variant","type":"int","value":0}]},{"id":240,"name":"tree_193","type":"tree","x":4256,"y":1920,"width":48,"height":64,"properties":[{"name":"variant","type":"int","value":1}]},{"id":241,"name":"tree_194","type":"tree","x":4608,"y":1920,"width":48,"height":64,"properties":[{"name":"variant","type":"int","value":2}]},{"id":242,"name":"tree_195","type":"tree","x":4704,"y":1920,"width":48,"height":64,"properties":[{"name":"variant","type":"int","value":0}]},{"id":243,"name":"tree_196","type":"tree","x":4800,"y":1920,"width":48,"height":64,"properties":[{"name":"variant","type":"int","value":1}]},{"id":244,"name":"tree_197","type":"tree","x":5088,"y":1920,"width":48,"height":64,"properties":[{"name":"variant","type":"int","value":2}]},{"id":245,"name":"tree_198","type":"tree","x":5376,"y":1920,"width":48,"height":64,"properties":[{"name":"variant","type":"int","value":0}]},{"id":246,"name":"tree_199","type":"tree","x":5536,"y":1920,"width":48,"height":64,"properties":[{"name":"variant","type":"int","value":1}]},{"id":247,"name":"tree_200","type":"tree","x":3264,"y":1952,"width":48,"height":64,"properties":[{"name":"variant","type":"int","value":2}]},{"id":248,"name":"tree_201","type":"tree","x":3456,"y":1952,"width":48,"height":64,"properties":[{"name":"variant","type":"int","value":0}]},{"id":249,"name":"tree_202","type":"tree","x":3648,"y":1952,"width":48,"height":64,"properties":[{"name":"variant","type":"int","value":1}]},{"id":250,"name":"tree_203","type":"tree","x":3808,"y":1952,"width":48,"height":64,"properties":[{"name":"variant","type":"int","value":2}]},{"id":251,"name":"tree_204","type":"tree","x":4000,"y":1952,"width":48,"height":64,"properties":[{"name":"variant","type":"int","value":0}]},{"id":252,"name":"tree_205","type":"tree","x":4032,"y":1952,"width":48,"height":64,"properties":[{"name":"variant","type":"int","value":1}]},{"id":253,"name":"tree_206","type":"tree","x":4064,"y":1952,"width":48,"height":64,"properties":[{"name":"variant","type":"int","value":2}]},{"id":254,"name":"tree_207","type":"tree","x":4096,"y":1952,"width":48,"height":64,"properties":[{"name":"variant","type":"int","value":0}]},{"id":255,"name":"tree_208","type":"tree","x":4288,"y":1952,"width":48,"height":64,"properties":[{"name":"variant","type":"int","value":1}]},{"id":256,"name":"tree_209","type":"tree","x":4352,"y":1952,"width":48,"height":64,"properties":[{"name":"variant","type":"int","value":2}]},{"id":257,"name":"tree_210","type":"tree","x":4608,"y":1952,"width":48,"height":64,"properties":[{"name":"variant","type":"int","value":0}]},{"id":258,"name":"tree_211","type":"tree","x":4704,"y":1952,"width":48,"height":64,"properties":[{"name":"variant","type":"int","value":1}]},{"id":259,"name":"tree_212","type":"tree","x":4768,"y":1952,"width":48,"height":64,"properties":[{"name":"variant","type":"int","value":2}]},{"id":260,"name":"tree_213","type":"tree","x":4800,"y":1952,"width":48,"height":64,"properties":[{"name":"variant","type":"int","value":0}]},{"id":261,"name":"tree_214","type":"tree","x":4864,"y":1952,"width":48,"height":64,"properties":[{"name":"variant","type":"int","value":1}]},{"id":262,"name":"tree_215","type":"tree","x":4928,"y":1952,"width":48,"height":64,"properties":[{"name":"variant","type":"int","value":2}]},{"id":263,"name":"tree_216","type":"tree","x":4960,"y":1952,"width":48,"height":64,"properties":[{"name":"variant","type":"int","value":0}]},{"id":264,"name":"tree_217","type":"tree","x":5056,"y":1952,"width":48,"height":64,"properties":[{"name":"variant","type":"int","value":1}]},{"id":265,"name":"tree_218","type":"tree","x":5088,"y":1952,"width":48,"height":64,"properties":[{"name":"variant","type":"int","value":2}]},{"id":266,"name":"tree_219","type":"tree","x":5120,"y":1952,"width":48,"height":64,"properties":[{"name":"variant","type":"int","value":0}]},{"id":267,"name":"tree_220","type":"tree","x":5472,"y":1952,"width":48,"height":64,"properties":[{"name":"variant","type":"int","value":1}]},{"id":268,"name":"tree_221","type":"tree","x":5536,"y":1952,"width":48,"height":64,"properties":[{"name":"variant","type":"int","value":2}]},{"id":269,"name":"tree_222","type":"tree","x":3136,"y":1984,"width":48,"height":64,"properties":[{"name":"variant","type":"int","value":0}]},{"id":270,"name":"tree_223","type":"tree","x":3168,"y":1984,"width":48,"height":64,"properties":[{"name":"variant","type":"int","value":1}]},{"id":271,"name":"tree_224","type":"tree","x":3232,"y":1984,"width":48,"height":64,"properties":[{"name":"variant","type":"int","value":2}]},{"id":272,"name":"tree_225","type":"tree","x":3360,"y":1984,"width":48,"height":64,"properties":[{"name":"variant","type":"int","value":0}]},{"id":273,"name":"tree_226","type":"tree","x":3456,"y":1984,"width":48,"height":64,"properties":[{"name":"variant","type":"int","value":1}]},{"id":274,"name":"tree_227","type":"tree","x":3712,"y":1984,"width":48,"height":64,"properties":[{"name":"variant","type":"int","value":2}]},{"id":275,"name":"tree_228","type":"tree","x":3744,"y":1984,"width":48,"height":64,"properties":[{"name":"variant","type":"int","value":0}]},{"id":276,"name":"tree_229","type":"tree","x":4064,"y":1984,"width":48,"height":64,"properties":[{"name":"variant","type":"int","value":1}]},{"id":277,"name":"tree_230","type":"tree","x":4096,"y":1984,"width":48,"height":64,"properties":[{"name":"variant","type":"int","value":2}]},{"id":278,"name":"tree_231","type":"tree","x":4224,"y":1984,"width":48,"height":64,"properties":[{"name":"variant","type":"int","value":0}]},{"id":279,"name":"tree_232","type":"tree","x":4256,"y":1984,"width":48,"height":64,"properties":[{"name":"variant","type":"int","value":1}]},{"id":280,"name":"tree_233","type":"tree","x":4352,"y":1984,"width":48,"height":64,"properties":[{"name":"variant","type":"int","value":2}]},{"id":281,"name":"tree_234","type":"tree","x":4608,"y":1984,"width":48,"height":64,"properties":[{"name":"variant","type":"int","value":0}]},{"id":282,"name":"tree_235","type":"tree","x":4672,"y":1984,"width":48,"height":64,"properties":[{"name":"variant","type":"int","value":1}]},{"id":283,"name":"tree_236","type":"tree","x":4736,"y":1984,"width":48,"height":64,"properties":[{"name":"variant","type":"int","value":2}]},{"id":284,"name":"tree_237","type":"tree","x":4768,"y":1984,"width":48,"height":64,"properties":[{"name":"variant","type":"int","value":0}]},{"id":285,"name":"tree_238","type":"tree","x":4864,"y":1984,"width":48,"height":64,"properties":[{"name":"variant","type":"int","value":1}]},{"id":286,"name":"tree_239","type":"tree","x":4960,"y":1984,"width":48,"height":64,"properties":[{"name":"variant","type":"int","value":2}]},{"id":287,"name":"tree_240","type":"tree","x":4992,"y":1984,"width":48,"height":64,"properties":[{"name":"variant","type":"int","value":0}]},{"id":288,"name":"tree_241","type":"tree","x":5024,"y":1984,"width":48,"height":64,"properties":[{"name":"variant","type":"int","value":1}]},{"id":289,"name":"tree_242","type":"tree","x":5152,"y":1984,"width":48,"height":64,"properties":[{"name":"variant","type":"int","value":2}]},{"id":290,"name":"tree_243","type":"tree","x":5344,"y":1984,"width":48,"height":64,"properties":[{"name":"variant","type":"int","value":0}]},{"id":291,"name":"tree_244","type":"tree","x":5376,"y":1984,"width":48,"height":64,"properties":[{"name":"variant","type":"int","value":1}]},{"id":292,"name":"tree_245","type":"tree","x":5472,"y":1984,"width":48,"height":64,"properties":[{"name":"variant","type":"int","value":2}]},{"id":293,"name":"tree_246","type":"tree","x":5568,"y":1984,"width":48,"height":64,"properties":[{"name":"variant","type":"int","value":0}]},{"id":294,"name":"tree_247","type":"tree","x":2880,"y":2016,"width":48,"height":64,"properties":[{"name":"variant","type":"int","value":1}]},{"id":295,"name":"tree_248","type":"tree","x":2912,"y":2016,"width":48,"height":64,"properties":[{"name":"variant","type":"int","value":2}]},{"id":296,"name":"tree_249","type":"tree","x":2944,"y":2016,"width":48,"height":64,"properties":[{"name":"variant","type":"int","value":0}]},{"id":297,"name":"tree_250","type":"tree","x":3104,"y":2016,"width":48,"height":64,"properties":[{"name":"variant","type":"int","value":1}]},{"id":298,"name":"tree_251","type":"tree","x":3168,"y":2016,"width":48,"height":64,"properties":[{"name":"variant","type":"int","value":2}]},{"id":299,"name":"tree_252","type":"tree","x":3200,"y":2016,"width":48,"height":64,"properties":[{"name":"variant","type":"int","value":0}]},{"id":300,"name":"tree_253","type":"tree","x":3296,"y":2016,"width":48,"height":64,"properties":[{"name":"variant","type":"int","value":1}]},{"id":301,"name":"tree_254","type":"tree","x":3584,"y":2016,"width":48,"height":64,"properties":[{"name":"variant","type":"int","value":2}]},{"id":302,"name":"tree_255","type":"tree","x":3648,"y":2016,"width":48,"height":64,"properties":[{"name":"variant","type":"int","value":0}]},{"id":303,"name":"tree_256","type":"tree","x":3872,"y":2016,"width":48,"height":64,"properties":[{"name":"variant","type":"int","value":1}]},{"id":304,"name":"tree_257","type":"tree","x":4032,"y":2016,"width":48,"height":64,"properties":[{"name":"variant","type":"int","value":2}]},{"id":305,"name":"tree_258","type":"tree","x":4064,"y":2016,"width":48,"height":64,"properties":[{"name":"variant","type":"int","value":0}]},{"id":306,"name":"tree_259","type":"tree","x":4096,"y":2016,"width":48,"height":64,"properties":[{"name":"variant","type":"int","value":1}]},{"id":307,"name":"tree_260","type":"tree","x":4192,"y":2016,"width":48,"height":64,"properties":[{"name":"variant","type":"int","value":2}]},{"id":308,"name":"tree_261","type":"tree","x":4288,"y":2016,"width":48,"height":64,"properties":[{"name":"variant","type":"int","value":0}]},{"id":309,"name":"tree_262","type":"tree","x":4544,"y":2016,"width":48,"height":64,"properties":[{"name":"variant","type":"int","value":1}]},{"id":310,"name":"tree_263","type":"tree","x":4576,"y":2016,"width":48,"height":64,"properties":[{"name":"variant","type":"int","value":2}]},{"id":311,"name":"tree_264","type":"tree","x":4736,"y":2016,"width":48,"height":64,"properties":[{"name":"variant","type":"int","value":0}]},{"id":312,"name":"tree_265","type":"tree","x":4832,"y":2016,"width":48,"height":64,"properties":[{"name":"variant","type":"int","value":1}]},{"id":313,"name":"tree_266","type":"tree","x":4864,"y":2016,"width":48,"height":64,"properties":[{"name":"variant","type":"int","value":2}]},{"id":314,"name":"tree_267","type":"tree","x":4960,"y":2016,"width":48,"height":64,"properties":[{"name":"variant","type":"int","value":0}]},{"id":315,"name":"tree_268","type":"tree","x":5024,"y":2016,"width":48,"height":64,"properties":[{"name":"variant","type":"int","value":1}]},{"id":316,"name":"tree_269","type":"tree","x":5056,"y":2016,"width":48,"height":64,"properties":[{"name":"variant","type":"int","value":2}]},{"id":317,"name":"tree_270","type":"tree","x":5088,"y":2016,"width":48,"height":64,"properties":[{"name":"variant","type":"int","value":0}]},{"id":318,"name":"tree_271","type":"tree","x":5152,"y":2016,"width":48,"height":64,"properties":[{"name":"variant","type":"int","value":1}]},{"id":319,"name":"tree_272","type":"tree","x":5184,"y":2016,"width":48,"height":64,"properties":[{"name":"variant","type":"int","value":2}]},{"id":320,"name":"tree_273","type":"tree","x":5376,"y":2016,"width":48,"height":64,"properties":[{"name":"variant","type":"int","value":0}]},{"id":321,"name":"tree_274","type":"tree","x":5472,"y":2016,"width":48,"height":64,"properties":[{"name":"variant","type":"int","value":1}]},{"id":322,"name":"tree_275","type":"tree","x":5504,"y":2016,"width":48,"height":64,"properties":[{"name":"variant","type":"int","value":2}]},{"id":323,"name":"tree_276","type":"tree","x":5536,"y":2016,"width":48,"height":64,"properties":[{"name":"variant","type":"int","value":0}]},{"id":324,"name":"tree_277","type":"tree","x":5568,"y":2016,"width":48,"height":64,"properties":[{"name":"variant","type":"int","value":1}]},{"id":325,"name":"tree_278","type":"tree","x":5600,"y":2016,"width":48,"height":64,"properties":[{"name":"variant","type":"int","value":2}]},{"id":326,"name":"tree_279","type":"tree","x":5664,"y":2016,"width":48,"height":64,"properties":[{"name":"variant","type":"int","value":0}]},{"id":327,"name":"tree_280","type":"tree","x":2848,"y":2048,"width":48,"height":64,"properties":[{"name":"variant","type":"int","value":1}]},{"id":328,"name":"tree_281","type":"tree","x":2880,"y":2048,"width":48,"height":64,"properties":[{"name":"variant","type":"int","value":2}]},{"id":329,"name":"tree_282","type":"tree","x":2912,"y":2048,"width":48,"height":64,"properties":[{"name":"variant","type":"int","value":0}]},{"id":330,"name":"tree_283","type":"tree","x":2944,"y":2048,"width":48,"height":64,"properties":[{"name":"variant","type":"int","value":1}]},{"id":331,"name":"tree_284","type":"tree","x":3104,"y":2048,"width":48,"height":64,"properties":[{"name":"variant","type":"int","value":2}]},{"id":332,"name":"tree_285","type":"tree","x":3136,"y":2048,"width":48,"height":64,"properties":[{"name":"variant","type":"int","value":0}]},{"id":333,"name":"tree_286","type":"tree","x":3168,"y":2048,"width":48,"height":64,"properties":[{"name":"variant","type":"int","value":1}]},{"id":334,"name":"tree_287","type":"tree","x":3648,"y":2048,"width":48,"height":64,"properties":[{"name":"variant","type":"int","value":2}]},{"id":335,"name":"tree_288","type":"tree","x":3776,"y":2048,"width":48,"height":64,"properties":[{"name":"variant","type":"int","value":0}]},{"id":336,"name":"tree_289","type":"tree","x":3904,"y":2048,"width":48,"height":64,"properties":[{"name":"variant","type":"int","value":1}]},{"id":337,"name":"tree_290","type":"tree","x":4064,"y":2048,"width":48,"height":64,"properties":[{"name":"variant","type":"int","value":2}]},{"id":338,"name":"tree_291","type":"tree","x":4096,"y":2048,"width":48,"height":64,"properties":[{"name":"variant","type":"int","value":0}]},{"id":339,"name":"tree_292","type":"tree","x":4128,"y":2048,"width":48,"height":64,"properties":[{"name":"variant","type":"int","value":1}]},{"id":340,"name":"tree_293","type":"tree","x":4160,"y":2048,"width":48,"height":64,"properties":[{"name":"variant","type":"int","value":2}]},{"id":341,"name":"tree_294","type":"tree","x":4192,"y":2048,"width":48,"height":64,"properties":[{"name":"variant","type":"int","value":0}]},{"id":342,"name":"tree_295","type":"tree","x":4224,"y":2048,"width":48,"height":64,"properties":[{"name":"variant","type":"int","value":1}]},{"id":343,"name":"tree_296","type":"tree","x":4480,"y":2048,"width":48,"height":64,"properties":[{"name":"variant","type":"int","value":2}]},{"id":344,"name":"tree_297","type":"tree","x":4512,"y":2048,"width":48,"height":64,"properties":[{"name":"variant","type":"int","value":0}]},{"id":345,"name":"tree_298","type":"tree","x":4544,"y":2048,"width":48,"height":64,"properties":[{"name":"variant","type":"int","value":1}]},{"id":346,"name":"tree_299","type":"tree","x":4576,"y":2048,"width":48,"height":64,"properties":[{"name":"variant","type":"int","value":2}]},{"id":347,"name":"tree_300","type":"tree","x":4640,"y":2048,"width":48,"height":64,"properties":[{"name":"variant","type":"int","value":0}]},{"id":348,"name":"tree_301","type":"tree","x":4672,"y":2048,"width":48,"height":64,"properties":[{"name":"variant","type":"int","value":1}]},{"id":349,"name":"tree_302","type":"tree","x":4736,"y":2048,"width":48,"height":64,"properties":[{"name":"variant","type":"int","value":2}]},{"id":350,"name":"tree_303","type":"tree","x":4768,"y":2048,"width":48,"height":64,"properties":[{"name":"variant","type":"int","value":0}]},{"id":351,"name":"tree_304","type":"tree","x":4864,"y":2048,"width":48,"height":64,"properties":[{"name":"variant","type":"int","value":1}]},{"id":352,"name":"tree_305","type":"tree","x":4960,"y":2048,"width":48,"height":64,"properties":[{"name":"variant","type":"int","value":2}]},{"id":353,"name":"tree_306","type":"tree","x":5088,"y":2048,"width":48,"height":64,"properties":[{"name":"variant","type":"int","value":0}]},{"id":354,"name":"tree_307","type":"tree","x":5152,"y":2048,"width":48,"height":64,"properties":[{"name":"variant","type":"int","value":1}]},{"id":355,"name":"tree_308","type":"tree","x":5408,"y":2048,"width":48,"height":64,"properties":[{"name":"variant","type":"int","value":2}]},{"id":356,"name":"tree_309","type":"tree","x":5504,"y":2048,"width":48,"height":64,"properties":[{"name":"variant","type":"int","value":0}]},{"id":357,"name":"tree_310","type":"tree","x":5568,"y":2048,"width":48,"height":64,"properties":[{"name":"variant","type":"int","value":1}]},{"id":358,"name":"tree_311","type":"tree","x":2112,"y":2080,"width":48,"height":64,"properties":[{"name":"variant","type":"int","value":2}]},{"id":359,"name":"tree_312","type":"tree","x":2944,"y":2080,"width":48,"height":64,"properties":[{"name":"variant","type":"int","value":0}]},{"id":360,"name":"tree_313","type":"tree","x":2976,"y":2080,"width":48,"height":64,"properties":[{"name":"variant","type":"int","value":1}]},{"id":361,"name":"tree_314","type":"tree","x":3072,"y":2080,"width":48,"height":64,"properties":[{"name":"variant","type":"int","value":2}]},{"id":362,"name":"tree_315","type":"tree","x":3136,"y":2080,"width":48,"height":64,"properties":[{"name":"variant","type":"int","value":0}]},{"id":363,"name":"tree_316","type":"tree","x":3200,"y":2080,"width":48,"height":64,"properties":[{"name":"variant","type":"int","value":1}]},{"id":364,"name":"tree_317","type":"tree","x":3360,"y":2080,"width":48,"height":64,"properties":[{"name":"variant","type":"int","value":2}]},{"id":365,"name":"tree_318","type":"tree","x":3488,"y":2080,"width":48,"height":64,"properties":[{"name":"variant","type":"int","value":0}]},{"id":366,"name":"tree_319","type":"tree","x":3744,"y":2080,"width":48,"height":64,"properties":[{"name":"variant","type":"int","value":1}]},{"id":367,"name":"tree_320","type":"tree","x":4000,"y":2080,"width":48,"height":64,"properties":[{"name":"variant","type":"int","value":2}]},{"id":368,"name":"tree_321","type":"tree","x":4128,"y":2080,"width":48,"height":64,"properties":[{"name":"variant","type":"int","value":0}]},{"id":369,"name":"tree_322","type":"tree","x":4256,"y":2080,"width":48,"height":64,"properties":[{"name":"variant","type":"int","value":1}]},{"id":370,"name":"tree_323","type":"tree","x":4320,"y":2080,"width":48,"height":64,"properties":[{"name":"variant","type":"int","value":2}]},{"id":371,"name":"tree_324","type":"tree","x":4352,"y":2080,"width":48,"height":64,"properties":[{"name":"variant","type":"int","value":0}]},{"id":372,"name":"tree_325","type":"tree","x":4480,"y":2080,"width":48,"height":64,"properties":[{"name":"variant","type":"int","value":1}]},{"id":373,"name":"tree_326","type":"tree","x":4544,"y":2080,"width":48,"height":64,"properties":[{"name":"variant","type":"int","value":2}]},{"id":374,"name":"tree_327","type":"tree","x":4608,"y":2080,"width":48,"height":64,"properties":[{"name":"variant","type":"int","value":0}]},{"id":375,"name":"tree_328","type":"tree","x":4640,"y":2080,"width":48,"height":64,"properties":[{"name":"variant","type":"int","value":1}]},{"id":376,"name":"tree_329","type":"tree","x":4832,"y":2080,"width":48,"height":64,"properties":[{"name":"variant","type":"int","value":2}]},{"id":377,"name":"tree_330","type":"tree","x":4928,"y":2080,"width":48,"height":64,"properties":[{"name":"variant","type":"int","value":0}]},{"id":378,"name":"tree_331","type":"tree","x":5024,"y":2080,"width":48,"height":64,"properties":[{"name":"variant","type":"int","value":1}]},{"id":379,"name":"tree_332","type":"tree","x":5088,"y":2080,"width":48,"height":64,"properties":[{"name":"variant","type":"int","value":2}]},{"id":380,"name":"tree_333","type":"tree","x":5120,"y":2080,"width":48,"height":64,"properties":[{"name":"variant","type":"int","value":0}]},{"id":381,"name":"tree_334","type":"tree","x":5152,"y":2080,"width":48,"height":64,"properties":[{"name":"variant","type":"int","value":1}]},{"id":382,"name":"tree_335","type":"tree","x":5440,"y":2080,"width":48,"height":64,"properties":[{"name":"variant","type":"int","value":2}]},{"id":383,"name":"tree_336","type":"tree","x":5536,"y":2080,"width":48,"height":64,"properties":[{"name":"variant","type":"int","value":0}]},{"id":384,"name":"tree_337","type":"tree","x":5600,"y":2080,"width":48,"height":64,"properties":[{"name":"variant","type":"int","value":1}]},{"id":385,"name":"tree_338","type":"tree","x":5632,"y":2080,"width":48,"height":64,"properties":[{"name":"variant","type":"int","value":2}]},{"id":386,"name":"tree_339","type":"tree","x":3136,"y":2112,"width":48,"height":64,"properties":[{"name":"variant","type":"int","value":0}]},{"id":387,"name":"tree_340","type":"tree","x":3200,"y":2112,"width":48,"height":64,"properties":[{"name":"variant","type":"int","value":1}]},{"id":388,"name":"tree_341","type":"tree","x":3712,"y":2112,"width":48,"height":64,"properties":[{"name":"variant","type":"int","value":2}]},{"id":389,"name":"tree_342","type":"tree","x":4032,"y":2112,"width":48,"height":64,"properties":[{"name":"variant","type":"int","value":0}]},{"id":390,"name":"tree_343","type":"tree","x":4064,"y":2112,"width":48,"height":64,"properties":[{"name":"variant","type":"int","value":1}]},{"id":391,"name":"tree_344","type":"tree","x":4096,"y":2112,"width":48,"height":64,"properties":[{"name":"variant","type":"int","value":2}]},{"id":392,"name":"tree_345","type":"tree","x":4192,"y":2112,"width":48,"height":64,"properties":[{"name":"variant","type":"int","value":0}]},{"id":393,"name":"tree_346","type":"tree","x":4224,"y":2112,"width":48,"height":64,"properties":[{"name":"variant","type":"int","value":1}]},{"id":394,"name":"tree_347","type":"tree","x":4256,"y":2112,"width":48,"height":64,"properties":[{"name":"variant","type":"int","value":2}]},{"id":395,"name":"tree_348","type":"tree","x":4288,"y":2112,"width":48,"height":64,"properties":[{"name":"variant","type":"int","value":0}]},{"id":396,"name":"tree_349","type":"tree","x":4512,"y":2112,"width":48,"height":64,"properties":[{"name":"variant","type":"int","value":1}]},{"id":397,"name":"tree_350","type":"tree","x":4640,"y":2112,"width":48,"height":64,"properties":[{"name":"variant","type":"int","value":2}]},{"id":398,"name":"tree_351","type":"tree","x":4736,"y":2112,"width":48,"height":64,"properties":[{"name":"variant","type":"int","value":0}]},{"id":399,"name":"tree_352","type":"tree","x":4768,"y":2112,"width":48,"height":64,"properties":[{"name":"variant","type":"int","value":1}]},{"id":400,"name":"tree_353","type":"tree","x":4896,"y":2112,"width":48,"height":64,"properties":[{"name":"variant","type":"int","value":2}]},{"id":401,"name":"tree_354","type":"tree","x":5056,"y":2112,"width":48,"height":64,"properties":[{"name":"variant","type":"int","value":0}]},{"id":402,"name":"tree_355","type":"tree","x":5120,"y":2112,"width":48,"height":64,"properties":[{"name":"variant","type":"int","value":1}]},{"id":403,"name":"tree_356","type":"tree","x":5152,"y":2112,"width":48,"height":64,"properties":[{"name":"variant","type":"int","value":2}]},{"id":404,"name":"tree_357","type":"tree","x":5184,"y":2112,"width":48,"height":64,"properties":[{"name":"variant","type":"int","value":0}]},{"id":405,"name":"tree_358","type":"tree","x":5408,"y":2112,"width":48,"height":64,"properties":[{"name":"variant","type":"int","value":1}]},{"id":406,"name":"tree_359","type":"tree","x":5440,"y":2112,"width":48,"height":64,"properties":[{"name":"variant","type":"int","value":2}]},{"id":407,"name":"tree_360","type":"tree","x":5472,"y":2112,"width":48,"height":64,"properties":[{"name":"variant","type":"int","value":0}]},{"id":408,"name":"tree_361","type":"tree","x":5504,"y":2112,"width":48,"height":64,"properties":[{"name":"variant","type":"int","value":1}]},{"id":409,"name":"tree_362","type":"tree","x":5568,"y":2112,"width":48,"height":64,"properties":[{"name":"variant","type":"int","value":2}]},{"id":410,"name":"tree_363","type":"tree","x":5632,"y":2112,"width":48,"height":64,"properties":[{"name":"variant","type":"int","value":0}]},{"id":411,"name":"tree_364","type":"tree","x":3168,"y":2144,"width":48,"height":64,"properties":[{"name":"variant","type":"int","value":1}]},{"id":412,"name":"tree_365","type":"tree","x":3232,"y":2144,"width":48,"height":64,"properties":[{"name":"variant","type":"int","value":2}]},{"id":413,"name":"tree_366","type":"tree","x":3296,"y":2144,"width":48,"height":64,"properties":[{"name":"variant","type":"int","value":0}]},{"id":414,"name":"tree_367","type":"tree","x":3520,"y":2144,"width":48,"height":64,"properties":[{"name":"variant","type":"int","value":1}]},{"id":415,"name":"tree_368","type":"tree","x":3552,"y":2144,"width":48,"height":64,"properties":[{"name":"variant","type":"int","value":2}]},{"id":416,"name":"tree_369","type":"tree","x":3648,"y":2144,"width":48,"height":64,"properties":[{"name":"variant","type":"int","value":0}]},{"id":417,"name":"tree_370","type":"tree","x":3872,"y":2144,"width":48,"height":64,"properties":[{"name":"variant","type":"int","value":1}]},{"id":418,"name":"tree_371","type":"tree","x":4128,"y":2144,"width":48,"height":64,"properties":[{"name":"variant","type":"int","value":2}]},{"id":419,"name":"tree_372","type":"tree","x":4160,"y":2144,"width":48,"height":64,"properties":[{"name":"variant","type":"int","value":0}]},{"id":420,"name":"tree_373","type":"tree","x":4224,"y":2144,"width":48,"height":64,"properties":[{"name":"variant","type":"int","value":1}]},{"id":421,"name":"tree_374","type":"tree","x":4480,"y":2144,"width":48,"height":64,"properties":[{"name":"variant","type":"int","value":2}]},{"id":422,"name":"tree_375","type":"tree","x":4512,"y":2144,"width":48,"height":64,"properties":[{"name":"variant","type":"int","value":0}]},{"id":423,"name":"tree_376","type":"tree","x":5056,"y":2144,"width":48,"height":64,"properties":[{"name":"variant","type":"int","value":1}]},{"id":424,"name":"tree_377","type":"tree","x":5120,"y":2144,"width":48,"height":64,"properties":[{"name":"variant","type":"int","value":2}]},{"id":425,"name":"tree_378","type":"tree","x":5152,"y":2144,"width":48,"height":64,"properties":[{"name":"variant","type":"int","value":0}]},{"id":426,"name":"tree_379","type":"tree","x":5600,"y":2144,"width":48,"height":64,"properties":[{"name":"variant","type":"int","value":1}]},{"id":427,"name":"tree_380","type":"tree","x":5632,"y":2144,"width":48,"height":64,"properties":[{"name":"variant","type":"int","value":2}]},{"id":428,"name":"tree_381","type":"tree","x":5888,"y":2144,"width":48,"height":64,"properties":[{"name":"variant","type":"int","value":0}]},{"id":429,"name":"tree_382","type":"tree","x":3008,"y":2176,"width":48,"height":64,"properties":[{"name":"variant","type":"int","value":1}]},{"id":430,"name":"tree_383","type":"tree","x":3552,"y":2176,"width":48,"height":64,"properties":[{"name":"variant","type":"int","value":2}]},{"id":431,"name":"tree_384","type":"tree","x":3680,"y":2176,"width":48,"height":64,"properties":[{"name":"variant","type":"int","value":0}]},{"id":432,"name":"tree_385","type":"tree","x":4128,"y":2176,"width":48,"height":64,"properties":[{"name":"variant","type":"int","value":1}]},{"id":433,"name":"tree_386","type":"tree","x":4224,"y":2176,"width":48,"height":64,"properties":[{"name":"variant","type":"int","value":2}]},{"id":434,"name":"tree_387","type":"tree","x":4352,"y":2176,"width":48,"height":64,"properties":[{"name":"variant","type":"int","value":0}]},{"id":435,"name":"tree_388","type":"tree","x":4608,"y":2176,"width":48,"height":64,"properties":[{"name":"variant","type":"int","value":1}]},{"id":436,"name":"tree_389","type":"tree","x":4640,"y":2176,"width":48,"height":64,"properties":[{"name":"variant","type":"int","value":2}]},{"id":437,"name":"tree_390","type":"tree","x":4736,"y":2176,"width":48,"height":64,"properties":[{"name":"variant","type":"int","value":0}]},{"id":438,"name":"tree_391","type":"tree","x":4864,"y":2176,"width":48,"height":64,"properties":[{"name":"variant","type":"int","value":1}]},{"id":439,"name":"tree_392","type":"tree","x":4960,"y":2176,"width":48,"height":64,"properties":[{"name":"variant","type":"int","value":2}]},{"id":440,"name":"tree_393","type":"tree","x":4992,"y":2176,"width":48,"height":64,"properties":[{"name":"variant","type":"int","value":0}]},{"id":441,"name":"tree_394","type":"tree","x":5056,"y":2176,"width":48,"height":64,"properties":[{"name":"variant","type":"int","value":1}]},{"id":442,"name":"tree_395","type":"tree","x":5088,"y":2176,"width":48,"height":64,"properties":[{"name":"variant","type":"int","value":2}]},{"id":443,"name":"tree_396","type":"tree","x":5120,"y":2176,"width":48,"height":64,"properties":[{"name":"variant","type":"int","value":0}]},{"id":444,"name":"tree_397","type":"tree","x":5152,"y":2176,"width":48,"height":64,"properties":[{"name":"variant","type":"int","value":1}]},{"id":445,"name":"tree_398","type":"tree","x":5216,"y":2176,"width":48,"height":64,"properties":[{"name":"variant","type":"int","value":2}]},{"id":446,"name":"tree_399","type":"tree","x":5856,"y":2176,"width":48,"height":64,"properties":[{"name":"variant","type":"int","value":0}]},{"id":447,"name":"tree_400","type":"tree","x":5888,"y":2176,"width":48,"height":64,"properties":[{"name":"variant","type":"int","value":1}]},{"id":448,"name":"tree_401","type":"tree","x":3040,"y":2208,"width":48,"height":64,"properties":[{"name":"variant","type":"int","value":2}]},{"id":449,"name":"tree_402","type":"tree","x":3136,"y":2208,"width":48,"height":64,"properties":[{"name":"variant","type":"int","value":0}]},{"id":450,"name":"tree_403","type":"tree","x":3264,"y":2208,"width":48,"height":64,"properties":[{"name":"variant","type":"int","value":1}]},{"id":451,"name":"tree_404","type":"tree","x":3296,"y":2208,"width":48,"height":64,"properties":[{"name":"variant","type":"int","value":2}]},{"id":452,"name":"tree_405","type":"tree","x":3680,"y":2208,"width":48,"height":64,"properties":[{"name":"variant","type":"int","value":0}]},{"id":453,"name":"tree_406","type":"tree","x":3712,"y":2208,"width":48,"height":64,"properties":[{"name":"variant","type":"int","value":1}]},{"id":454,"name":"tree_407","type":"tree","x":3968,"y":2208,"width":48,"height":64,"properties":[{"name":"variant","type":"int","value":2}]},{"id":455,"name":"tree_408","type":"tree","x":4000,"y":2208,"width":48,"height":64,"properties":[{"name":"variant","type":"int","value":0}]},{"id":456,"name":"tree_409","type":"tree","x":4256,"y":2208,"width":48,"height":64,"properties":[{"name":"variant","type":"int","value":1}]},{"id":457,"name":"tree_410","type":"tree","x":4288,"y":2208,"width":48,"height":64,"properties":[{"name":"variant","type":"int","value":2}]},{"id":458,"name":"tree_411","type":"tree","x":4320,"y":2208,"width":48,"height":64,"properties":[{"name":"variant","type":"int","value":0}]},{"id":459,"name":"tree_412","type":"tree","x":4704,"y":2208,"width":48,"height":64,"properties":[{"name":"variant","type":"int","value":1}]},{"id":460,"name":"tree_413","type":"tree","x":4736,"y":2208,"width":48,"height":64,"properties":[{"name":"variant","type":"int","value":2}]},{"id":461,"name":"tree_414","type":"tree","x":4864,"y":2208,"width":48,"height":64,"properties":[{"name":"variant","type":"int","value":0}]},{"id":462,"name":"tree_415","type":"tree","x":5120,"y":2208,"width":48,"height":64,"properties":[{"name":"variant","type":"int","value":1}]},{"id":463,"name":"tree_416","type":"tree","x":5184,"y":2208,"width":48,"height":64,"properties":[{"name":"variant","type":"int","value":2}]},{"id":464,"name":"tree_417","type":"tree","x":5216,"y":2208,"width":48,"height":64,"properties":[{"name":"variant","type":"int","value":0}]},{"id":465,"name":"tree_418","type":"tree","x":5728,"y":2208,"width":48,"height":64,"properties":[{"name":"variant","type":"int","value":1}]},{"id":466,"name":"tree_419","type":"tree","x":2944,"y":2240,"width":48,"height":64,"properties":[{"name":"variant","type":"int","value":2}]},{"id":467,"name":"tree_420","type":"tree","x":2976,"y":2240,"width":48,"height":64,"properties":[{"name":"variant","type":"int","value":0}]},{"id":468,"name":"tree_421","type":"tree","x":3040,"y":2240,"width":48,"height":64,"properties":[{"name":"variant","type":"int","value":1}]},{"id":469,"name":"tree_422","type":"tree","x":3072,"y":2240,"width":48,"height":64,"properties":[{"name":"variant","type":"int","value":2}]},{"id":470,"name":"tree_423","type":"tree","x":3104,"y":2240,"width":48,"height":64,"properties":[{"name":"variant","type":"int","value":0}]},{"id":471,"name":"tree_424","type":"tree","x":3168,"y":2240,"width":48,"height":64,"properties":[{"name":"variant","type":"int","value":1}]},{"id":472,"name":"tree_425","type":"tree","x":3232,"y":2240,"width":48,"height":64,"properties":[{"name":"variant","type":"int","value":2}]},{"id":473,"name":"tree_426","type":"tree","x":3424,"y":2240,"width":48,"height":64,"properties":[{"name":"variant","type":"int","value":0}]},{"id":474,"name":"tree_427","type":"tree","x":3584,"y":2240,"width":48,"height":64,"properties":[{"name":"variant","type":"int","value":1}]},{"id":475,"name":"tree_428","type":"tree","x":3648,"y":2240,"width":48,"height":64,"properties":[{"name":"variant","type":"int","value":2}]},{"id":476,"name":"tree_429","type":"tree","x":3744,"y":2240,"width":48,"height":64,"properties":[{"name":"variant","type":"int","value":0}]},{"id":477,"name":"tree_430","type":"tree","x":4288,"y":2240,"width":48,"height":64,"properties":[{"name":"variant","type":"int","value":1}]},{"id":478,"name":"tree_431","type":"tree","x":4640,"y":2240,"width":48,"height":64,"properties":[{"name":"variant","type":"int","value":2}]},{"id":479,"name":"tree_432","type":"tree","x":4672,"y":2240,"width":48,"height":64,"properties":[{"name":"variant","type":"int","value":0}]},{"id":480,"name":"tree_433","type":"tree","x":4768,"y":2240,"width":48,"height":64,"properties":[{"name":"variant","type":"int","value":1}]},{"id":481,"name":"tree_434","type":"tree","x":4832,"y":2240,"width":48,"height":64,"properties":[{"name":"variant","type":"int","value":2}]},{"id":482,"name":"tree_435","type":"tree","x":4864,"y":2240,"width":48,"height":64,"properties":[{"name":"variant","type":"int","value":0}]},{"id":483,"name":"tree_436","type":"tree","x":5024,"y":2240,"width":48,"height":64,"properties":[{"name":"variant","type":"int","value":1}]},{"id":484,"name":"tree_437","type":"tree","x":5088,"y":2240,"width":48,"height":64,"properties":[{"name":"variant","type":"int","value":2}]},{"id":485,"name":"tree_438","type":"tree","x":5184,"y":2240,"width":48,"height":64,"properties":[{"name":"variant","type":"int","value":0}]},{"id":486,"name":"tree_439","type":"tree","x":5824,"y":2240,"width":48,"height":64,"properties":[{"name":"variant","type":"int","value":1}]},{"id":487,"name":"tree_440","type":"tree","x":2944,"y":2272,"width":48,"height":64,"properties":[{"name":"variant","type":"int","value":2}]},{"id":488,"name":"tree_441","type":"tree","x":3040,"y":2272,"width":48,"height":64,"properties":[{"name":"variant","type":"int","value":0}]},{"id":489,"name":"tree_442","type":"tree","x":3104,"y":2272,"width":48,"height":64,"properties":[{"name":"variant","type":"int","value":1}]},{"id":490,"name":"tree_443","type":"tree","x":3136,"y":2272,"width":48,"height":64,"properties":[{"name":"variant","type":"int","value":2}]},{"id":491,"name":"tree_444","type":"tree","x":3168,"y":2272,"width":48,"height":64,"properties":[{"name":"variant","type":"int","value":0}]},{"id":492,"name":"tree_445","type":"tree","x":3776,"y":2272,"width":48,"height":64,"properties":[{"name":"variant","type":"int","value":1}]},{"id":493,"name":"tree_446","type":"tree","x":3936,"y":2272,"width":48,"height":64,"properties":[{"name":"variant","type":"int","value":2}]},{"id":494,"name":"tree_447","type":"tree","x":4288,"y":2272,"width":48,"height":64,"properties":[{"name":"variant","type":"int","value":0}]},{"id":495,"name":"tree_448","type":"tree","x":4352,"y":2272,"width":48,"height":64,"properties":[{"name":"variant","type":"int","value":1}]},{"id":496,"name":"tree_449","type":"tree","x":4608,"y":2272,"width":48,"height":64,"properties":[{"name":"variant","type":"int","value":2}]},{"id":497,"name":"tree_450","type":"tree","x":4736,"y":2272,"width":48,"height":64,"properties":[{"name":"variant","type":"int","value":0}]},{"id":498,"name":"tree_451","type":"tree","x":4768,"y":2272,"width":48,"height":64,"properties":[{"name":"variant","type":"int","value":1}]},{"id":499,"name":"tree_452","type":"tree","x":4992,"y":2272,"width":48,"height":64,"properties":[{"name":"variant","type":"int","value":2}]},{"id":500,"name":"tree_453","type":"tree","x":5088,"y":2272,"width":48,"height":64,"properties":[{"name":"variant","type":"int","value":0}]},{"id":501,"name":"tree_454","type":"tree","x":5184,"y":2272,"width":48,"height":64,"properties":[{"name":"variant","type":"int","value":1}]},{"id":502,"name":"tree_455","type":"tree","x":5792,"y":2272,"width":48,"height":64,"properties":[{"name":"variant","type":"int","value":2}]},{"id":503,"name":"tree_456","type":"tree","x":5856,"y":2272,"width":48,"height":64,"properties":[{"name":"variant","type":"int","value":0}]},{"id":504,"name":"tree_457","type":"tree","x":3488,"y":2304,"width":48,"height":64,"properties":[{"name":"variant","type":"int","value":1}]},{"id":505,"name":"tree_458","type":"tree","x":3520,"y":2304,"width":48,"height":64,"properties":[{"name":"variant","type":"int","value":2}]},{"id":506,"name":"tree_459","type":"tree","x":3648,"y":2304,"width":48,"height":64,"properties":[{"name":"variant","type":"int","value":0}]},{"id":507,"name":"tree_460","type":"tree","x":3712,"y":2304,"width":48,"height":64,"properties":[{"name":"variant","type":"int","value":1}]},{"id":508,"name":"tree_461","type":"tree","x":3904,"y":2304,"width":48,"height":64,"properties":[{"name":"variant","type":"int","value":2}]},{"id":509,"name":"tree_462","type":"tree","x":3936,"y":2304,"width":48,"height":64,"properties":[{"name":"variant","type":"int","value":0}]},{"id":510,"name":"tree_463","type":"tree","x":4160,"y":2304,"width":48,"height":64,"properties":[{"name":"variant","type":"int","value":1}]},{"id":511,"name":"tree_464","type":"tree","x":4320,"y":2304,"width":48,"height":64,"properties":[{"name":"variant","type":"int","value":2}]},{"id":512,"name":"tree_465","type":"tree","x":4544,"y":2304,"width":48,"height":64,"properties":[{"name":"variant","type":"int","value":0}]},{"id":513,"name":"tree_466","type":"tree","x":4576,"y":2304,"width":48,"height":64,"properties":[{"name":"variant","type":"int","value":1}]},{"id":514,"name":"tree_467","type":"tree","x":4672,"y":2304,"width":48,"height":64,"properties":[{"name":"variant","type":"int","value":2}]},{"id":515,"name":"tree_468","type":"tree","x":4928,"y":2304,"width":48,"height":64,"properties":[{"name":"variant","type":"int","value":0}]},{"id":516,"name":"tree_469","type":"tree","x":4960,"y":2304,"width":48,"height":64,"properties":[{"name":"variant","type":"int","value":1}]},{"id":517,"name":"tree_470","type":"tree","x":5088,"y":2304,"width":48,"height":64,"properties":[{"name":"variant","type":"int","value":2}]},{"id":518,"name":"tree_471","type":"tree","x":5152,"y":2304,"width":48,"height":64,"properties":[{"name":"variant","type":"int","value":0}]},{"id":519,"name":"tree_472","type":"tree","x":5184,"y":2304,"width":48,"height":64,"properties":[{"name":"variant","type":"int","value":1}]},{"id":520,"name":"tree_473","type":"tree","x":5248,"y":2304,"width":48,"height":64,"properties":[{"name":"variant","type":"int","value":2}]},{"id":521,"name":"tree_474","type":"tree","x":5728,"y":2304,"width":48,"height":64,"properties":[{"name":"variant","type":"int","value":0}]},{"id":522,"name":"tree_475","type":"tree","x":5792,"y":2304,"width":48,"height":64,"properties":[{"name":"variant","type":"int","value":1}]},{"id":523,"name":"tree_476","type":"tree","x":5824,"y":2304,"width":48,"height":64,"properties":[{"name":"variant","type":"int","value":2}]},{"id":524,"name":"tree_477","type":"tree","x":5856,"y":2304,"width":48,"height":64,"properties":[{"name":"variant","type":"int","value":0}]},{"id":525,"name":"tree_478","type":"tree","x":5888,"y":2304,"width":48,"height":64,"properties":[{"name":"variant","type":"int","value":1}]},{"id":526,"name":"tree_479","type":"tree","x":3744,"y":2336,"width":48,"height":64,"properties":[{"name":"variant","type":"int","value":2}]},{"id":527,"name":"tree_480","type":"tree","x":3872,"y":2336,"width":48,"height":64,"properties":[{"name":"variant","type":"int","value":0}]},{"id":528,"name":"tree_481","type":"tree","x":4224,"y":2336,"width":48,"height":64,"properties":[{"name":"variant","type":"int","value":1}]},{"id":529,"name":"tree_482","type":"tree","x":4288,"y":2336,"width":48,"height":64,"properties":[{"name":"variant","type":"int","value":2}]},{"id":530,"name":"tree_483","type":"tree","x":4352,"y":2336,"width":48,"height":64,"properties":[{"name":"variant","type":"int","value":0}]},{"id":531,"name":"tree_484","type":"tree","x":4384,"y":2336,"width":48,"height":64,"properties":[{"name":"variant","type":"int","value":1}]},{"id":532,"name":"tree_485","type":"tree","x":4448,"y":2336,"width":48,"height":64,"properties":[{"name":"variant","type":"int","value":2}]},{"id":533,"name":"tree_486","type":"tree","x":4576,"y":2336,"width":48,"height":64,"properties":[{"name":"variant","type":"int","value":0}]},{"id":534,"name":"tree_487","type":"tree","x":4832,"y":2336,"width":48,"height":64,"properties":[{"name":"variant","type":"int","value":1}]},{"id":535,"name":"tree_488","type":"tree","x":5056,"y":2336,"width":48,"height":64,"properties":[{"name":"variant","type":"int","value":2}]},{"id":536,"name":"tree_489","type":"tree","x":5088,"y":2336,"width":48,"height":64,"properties":[{"name":"variant","type":"int","value":0}]},{"id":537,"name":"tree_490","type":"tree","x":5120,"y":2336,"width":48,"height":64,"properties":[{"name":"variant","type":"int","value":1}]},{"id":538,"name":"tree_491","type":"tree","x":5184,"y":2336,"width":48,"height":64,"properties":[{"name":"variant","type":"int","value":2}]},{"id":539,"name":"tree_492","type":"tree","x":5248,"y":2336,"width":48,"height":64,"properties":[{"name":"variant","type":"int","value":0}]},{"id":540,"name":"tree_493","type":"tree","x":5760,"y":2336,"width":48,"height":64,"properties":[{"name":"variant","type":"int","value":1}]},{"id":541,"name":"tree_494","type":"tree","x":3616,"y":2368,"width":48,"height":64,"properties":[{"name":"variant","type":"int","value":2}]},{"id":542,"name":"tree_495","type":"tree","x":3872,"y":2368,"width":48,"height":64,"properties":[{"name":"variant","type":"int","value":0}]},{"id":543,"name":"tree_496","type":"tree","x":4128,"y":2368,"width":48,"height":64,"properties":[{"name":"variant","type":"int","value":1}]},{"id":544,"name":"tree_497","type":"tree","x":4192,"y":2368,"width":48,"height":64,"properties":[{"name":"variant","type":"int","value":2}]},{"id":545,"name":"tree_498","type":"tree","x":4256,"y":2368,"width":48,"height":64,"properties":[{"name":"variant","type":"int","value":0}]},{"id":546,"name":"tree_499","type":"tree","x":4320,"y":2368,"width":48,"height":64,"properties":[{"name":"variant","type":"int","value":1}]},{"id":547,"name":"tree_500","type":"tree","x":4352,"y":2368,"width":48,"height":64,"properties":[{"name":"variant","type":"int","value":2}]},{"id":548,"name":"tree_501","type":"tree","x":4736,"y":2368,"width":48,"height":64,"properties":[{"name":"variant","type":"int","value":0}]},{"id":549,"name":"tree_502","type":"tree","x":4864,"y":2368,"width":48,"height":64,"properties":[{"name":"variant","type":"int","value":1}]},{"id":550,"name":"tree_503","type":"tree","x":4960,"y":2368,"width":48,"height":64,"properties":[{"name":"variant","type":"int","value":2}]},{"id":551,"name":"tree_504","type":"tree","x":5152,"y":2368,"width":48,"height":64,"properties":[{"name":"variant","type":"int","value":0}]},{"id":552,"name":"tree_505","type":"tree","x":5216,"y":2368,"width":48,"height":64,"properties":[{"name":"variant","type":"int","value":1}]},{"id":553,"name":"tree_506","type":"tree","x":5248,"y":2368,"width":48,"height":64,"properties":[{"name":"variant","type":"int","value":2}]},{"id":554,"name":"tree_507","type":"tree","x":5280,"y":2368,"width":48,"height":64,"properties":[{"name":"variant","type":"int","value":0}]},{"id":555,"name":"tree_508","type":"tree","x":5824,"y":2368,"width":48,"height":64,"properties":[{"name":"variant","type":"int","value":1}]},{"id":556,"name":"tree_509","type":"tree","x":5856,"y":2368,"width":48,"height":64,"properties":[{"name":"variant","type":"int","value":2}]},{"id":557,"name":"tree_510","type":"tree","x":2816,"y":2400,"width":48,"height":64,"properties":[{"name":"variant","type":"int","value":0}]},{"id":558,"name":"tree_511","type":"tree","x":3904,"y":2400,"width":48,"height":64,"properties":[{"name":"variant","type":"int","value":1}]},{"id":559,"name":"tree_512","type":"tree","x":4704,"y":2400,"width":48,"height":64,"properties":[{"name":"variant","type":"int","value":2}]},{"id":560,"name":"tree_513","type":"tree","x":4736,"y":2400,"width":48,"height":64,"properties":[{"name":"variant","type":"int","value":0}]},{"id":561,"name":"tree_514","type":"tree","x":4800,"y":2400,"width":48,"height":64,"properties":[{"name":"variant","type":"int","value":1}]},{"id":562,"name":"tree_515","type":"tree","x":5024,"y":2400,"width":48,"height":64,"properties":[{"name":"variant","type":"int","value":2}]},{"id":563,"name":"tree_516","type":"tree","x":5056,"y":2400,"width":48,"height":64,"properties":[{"name":"variant","type":"int","value":0}]},{"id":564,"name":"tree_517","type":"tree","x":5152,"y":2400,"width":48,"height":64,"properties":[{"name":"variant","type":"int","value":1}]},{"id":565,"name":"tree_518","type":"tree","x":5184,"y":2400,"width":48,"height":64,"properties":[{"name":"variant","type":"int","value":2}]},{"id":566,"name":"tree_519","type":"tree","x":5216,"y":2400,"width":48,"height":64,"properties":[{"name":"variant","type":"int","value":0}]},{"id":567,"name":"tree_520","type":"tree","x":5280,"y":2400,"width":48,"height":64,"properties":[{"name":"variant","type":"int","value":1}]},{"id":568,"name":"tree_521","type":"tree","x":5824,"y":2400,"width":48,"height":64,"properties":[{"name":"variant","type":"int","value":2}]},{"id":569,"name":"tree_522","type":"tree","x":5856,"y":2400,"width":48,"height":64,"properties":[{"name":"variant","type":"int","value":0}]},{"id":570,"name":"tree_523","type":"tree","x":2784,"y":2432,"width":48,"height":64,"properties":[{"name":"variant","type":"int","value":1}]},{"id":571,"name":"tree_524","type":"tree","x":3936,"y":2432,"width":48,"height":64,"properties":[{"name":"variant","type":"int","value":2}]},{"id":572,"name":"tree_525","type":"tree","x":4128,"y":2432,"width":48,"height":64,"properties":[{"name":"variant","type":"int","value":0}]},{"id":573,"name":"tree_526","type":"tree","x":4160,"y":2432,"width":48,"height":64,"properties":[{"name":"variant","type":"int","value":1}]},{"id":574,"name":"tree_527","type":"tree","x":4224,"y":2432,"width":48,"height":64,"properties":[{"name":"variant","type":"int","value":2}]},{"id":575,"name":"tree_528","type":"tree","x":4288,"y":2432,"width":48,"height":64,"properties":[{"name":"variant","type":"int","value":0}]},{"id":576,"name":"tree_529","type":"tree","x":4960,"y":2432,"width":48,"height":64,"properties":[{"name":"variant","type":"int","value":1}]},{"id":577,"name":"tree_530","type":"tree","x":5056,"y":2432,"width":48,"height":64,"properties":[{"name":"variant","type":"int","value":2}]},{"id":578,"name":"tree_531","type":"tree","x":5184,"y":2432,"width":48,"height":64,"properties":[{"name":"variant","type":"int","value":0}]},{"id":579,"name":"tree_532","type":"tree","x":5792,"y":2432,"width":48,"height":64,"properties":[{"name":"variant","type":"int","value":1}]},{"id":580,"name":"tree_533","type":"tree","x":5824,"y":2432,"width":48,"height":64,"properties":[{"name":"variant","type":"int","value":2}]},{"id":581,"name":"tree_534","type":"tree","x":5888,"y":2432,"width":48,"height":64,"properties":[{"name":"variant","type":"int","value":0}]},{"id":582,"name":"tree_535","type":"tree","x":1856,"y":2464,"width":48,"height":64,"properties":[{"name":"variant","type":"int","value":1}]},{"id":583,"name":"tree_536","type":"tree","x":2848,"y":2464,"width":48,"height":64,"properties":[{"name":"variant","type":"int","value":2}]},{"id":584,"name":"tree_537","type":"tree","x":2912,"y":2464,"width":48,"height":64,"properties":[{"name":"variant","type":"int","value":0}]},{"id":585,"name":"tree_538","type":"tree","x":3648,"y":2464,"width":48,"height":64,"properties":[{"name":"variant","type":"int","value":1}]},{"id":586,"name":"tree_539","type":"tree","x":3680,"y":2464,"width":48,"height":64,"properties":[{"name":"variant","type":"int","value":2}]},{"id":587,"name":"tree_540","type":"tree","x":4064,"y":2464,"width":48,"height":64,"properties":[{"name":"variant","type":"int","value":0}]},{"id":588,"name":"tree_541","type":"tree","x":4224,"y":2464,"width":48,"height":64,"properties":[{"name":"variant","type":"int","value":1}]},{"id":589,"name":"tree_542","type":"tree","x":4320,"y":2464,"width":48,"height":64,"properties":[{"name":"variant","type":"int","value":2}]},{"id":590,"name":"tree_543","type":"tree","x":4352,"y":2464,"width":48,"height":64,"properties":[{"name":"variant","type":"int","value":0}]},{"id":591,"name":"tree_544","type":"tree","x":5056,"y":2464,"width":48,"height":64,"properties":[{"name":"variant","type":"int","value":1}]},{"id":592,"name":"tree_545","type":"tree","x":5088,"y":2464,"width":48,"height":64,"properties":[{"name":"variant","type":"int","value":2}]},{"id":593,"name":"tree_546","type":"tree","x":5120,"y":2464,"width":48,"height":64,"properties":[{"name":"variant","type":"int","value":0}]},{"id":594,"name":"tree_547","type":"tree","x":5152,"y":2464,"width":48,"height":64,"properties":[{"name":"variant","type":"int","value":1}]},{"id":595,"name":"tree_548","type":"tree","x":5216,"y":2464,"width":48,"height":64,"properties":[{"name":"variant","type":"int","value":2}]},{"id":596,"name":"tree_549","type":"tree","x":5280,"y":2464,"width":48,"height":64,"properties":[{"name":"variant","type":"int","value":0}]},{"id":597,"name":"tree_550","type":"tree","x":5312,"y":2464,"width":48,"height":64,"properties":[{"name":"variant","type":"int","value":1}]},{"id":598,"name":"tree_551","type":"tree","x":5888,"y":2464,"width":48,"height":64,"properties":[{"name":"variant","type":"int","value":2}]},{"id":599,"name":"tree_552","type":"tree","x":1856,"y":2496,"width":48,"height":64,"properties":[{"name":"variant","type":"int","value":0}]},{"id":600,"name":"tree_553","type":"tree","x":2720,"y":2496,"width":48,"height":64,"properties":[{"name":"variant","type":"int","value":1}]},{"id":601,"name":"tree_554","type":"tree","x":2880,"y":2496,"width":48,"height":64,"properties":[{"name":"variant","type":"int","value":2}]},{"id":602,"name":"tree_555","type":"tree","x":2944,"y":2496,"width":48,"height":64,"properties":[{"name":"variant","type":"int","value":0}]},{"id":603,"name":"tree_556","type":"tree","x":3680,"y":2496,"width":48,"height":64,"properties":[{"name":"variant","type":"int","value":1}]},{"id":604,"name":"tree_557","type":"tree","x":3712,"y":2496,"width":48,"height":64,"properties":[{"name":"variant","type":"int","value":2}]},{"id":605,"name":"tree_558","type":"tree","x":3808,"y":2496,"width":48,"height":64,"properties":[{"name":"variant","type":"int","value":0}]},{"id":606,"name":"tree_559","type":"tree","x":4096,"y":2496,"width":48,"height":64,"properties":[{"name":"variant","type":"int","value":1}]},{"id":607,"name":"tree_560","type":"tree","x":4160,"y":2496,"width":48,"height":64,"properties":[{"name":"variant","type":"int","value":2}]},{"id":608,"name":"tree_561","type":"tree","x":4320,"y":2496,"width":48,"height":64,"properties":[{"name":"variant","type":"int","value":0}]},{"id":609,"name":"tree_562","type":"tree","x":4480,"y":2496,"width":48,"height":64,"properties":[{"name":"variant","type":"int","value":1}]},{"id":610,"name":"tree_563","type":"tree","x":4544,"y":2496,"width":48,"height":64,"properties":[{"name":"variant","type":"int","value":2}]},{"id":611,"name":"tree_564","type":"tree","x":4608,"y":2496,"width":48,"height":64,"properties":[{"name":"variant","type":"int","value":0}]},{"id":612,"name":"tree_565","type":"tree","x":4640,"y":2496,"width":48,"height":64,"properties":[{"name":"variant","type":"int","value":1}]},{"id":613,"name":"tree_566","type":"tree","x":5056,"y":2496,"width":48,"height":64,"properties":[{"name":"variant","type":"int","value":2}]},{"id":614,"name":"tree_567","type":"tree","x":5120,"y":2496,"width":48,"height":64,"properties":[{"name":"variant","type":"int","value":0}]},{"id":615,"name":"tree_568","type":"tree","x":5280,"y":2496,"width":48,"height":64,"properties":[{"name":"variant","type":"int","value":1}]},{"id":616,"name":"tree_569","type":"tree","x":2688,"y":2528,"width":48,"height":64,"properties":[{"name":"variant","type":"int","value":2}]},{"id":617,"name":"tree_570","type":"tree","x":2720,"y":2528,"width":48,"height":64,"properties":[{"name":"variant","type":"int","value":0}]},{"id":618,"name":"tree_571","type":"tree","x":2752,"y":2528,"width":48,"height":64,"properties":[{"name":"variant","type":"int","value":1}]},{"id":619,"name":"tree_572","type":"tree","x":2784,"y":2528,"width":48,"height":64,"properties":[{"name":"variant","type":"int","value":2}]},{"id":620,"name":"tree_573","type":"tree","x":2944,"y":2528,"width":48,"height":64,"properties":[{"name":"variant","type":"int","value":0}]},{"id":621,"name":"tree_574","type":"tree","x":4128,"y":2528,"width":48,"height":64,"properties":[{"name":"variant","type":"int","value":1}]},{"id":622,"name":"tree_575","type":"tree","x":4320,"y":2528,"width":48,"height":64,"properties":[{"name":"variant","type":"int","value":2}]},{"id":623,"name":"tree_576","type":"tree","x":4608,"y":2528,"width":48,"height":64,"properties":[{"name":"variant","type":"int","value":0}]},{"id":624,"name":"tree_577","type":"tree","x":4928,"y":2528,"width":48,"height":64,"properties":[{"name":"variant","type":"int","value":1}]},{"id":625,"name":"tree_578","type":"tree","x":5024,"y":2528,"width":48,"height":64,"properties":[{"name":"variant","type":"int","value":2}]},{"id":626,"name":"tree_579","type":"tree","x":5248,"y":2528,"width":48,"height":64,"properties":[{"name":"variant","type":"int","value":0}]},{"id":627,"name":"tree_580","type":"tree","x":5824,"y":2528,"width":48,"height":64,"properties":[{"name":"variant","type":"int","value":1}]},{"id":628,"name":"tree_581","type":"tree","x":5856,"y":2528,"width":48,"height":64,"properties":[{"name":"variant","type":"int","value":2}]},{"id":629,"name":"tree_582","type":"tree","x":5888,"y":2528,"width":48,"height":64,"properties":[{"name":"variant","type":"int","value":0}]},{"id":630,"name":"tree_583","type":"tree","x":5920,"y":2528,"width":48,"height":64,"properties":[{"name":"variant","type":"int","value":1}]},{"id":631,"name":"tree_584","type":"tree","x":2624,"y":2560,"width":48,"height":64,"properties":[{"name":"variant","type":"int","value":2}]},{"id":632,"name":"tree_585","type":"tree","x":2688,"y":2560,"width":48,"height":64,"properties":[{"name":"variant","type":"int","value":0}]},{"id":633,"name":"tree_586","type":"tree","x":2720,"y":2560,"width":48,"height":64,"properties":[{"name":"variant","type":"int","value":1}]},{"id":634,"name":"tree_587","type":"tree","x":2752,"y":2560,"width":48,"height":64,"properties":[{"name":"variant","type":"int","value":2}]},{"id":635,"name":"tree_588","type":"tree","x":2848,"y":2560,"width":48,"height":64,"properties":[{"name":"variant","type":"int","value":0}]},{"id":636,"name":"tree_589","type":"tree","x":2880,"y":2560,"width":48,"height":64,"properties":[{"name":"variant","type":"int","value":1}]},{"id":637,"name":"tree_590","type":"tree","x":2944,"y":2560,"width":48,"height":64,"properties":[{"name":"variant","type":"int","value":2}]},{"id":638,"name":"tree_591","type":"tree","x":2976,"y":2560,"width":48,"height":64,"properties":[{"name":"variant","type":"int","value":0}]},{"id":639,"name":"tree_592","type":"tree","x":3040,"y":2560,"width":48,"height":64,"properties":[{"name":"variant","type":"int","value":1}]},{"id":640,"name":"tree_593","type":"tree","x":4288,"y":2560,"width":48,"height":64,"properties":[{"name":"variant","type":"int","value":2}]},{"id":641,"name":"tree_594","type":"tree","x":4480,"y":2560,"width":48,"height":64,"properties":[{"name":"variant","type":"int","value":0}]},{"id":642,"name":"tree_595","type":"tree","x":4576,"y":2560,"width":48,"height":64,"properties":[{"name":"variant","type":"int","value":1}]},{"id":643,"name":"tree_596","type":"tree","x":4672,"y":2560,"width":48,"height":64,"properties":[{"name":"variant","type":"int","value":2}]},{"id":644,"name":"tree_597","type":"tree","x":4736,"y":2560,"width":48,"height":64,"properties":[{"name":"variant","type":"int","value":0}]},{"id":645,"name":"tree_598","type":"tree","x":4928,"y":2560,"width":48,"height":64,"properties":[{"name":"variant","type":"int","value":1}]},{"id":646,"name":"tree_599","type":"tree","x":5376,"y":2560,"width":48,"height":64,"properties":[{"name":"variant","type":"int","value":2}]},{"id":647,"name":"tree_600","type":"tree","x":5408,"y":2560,"width":48,"height":64,"properties":[{"name":"variant","type":"int","value":0}]},{"id":648,"name":"tree_601","type":"tree","x":5888,"y":2560,"width":48,"height":64,"properties":[{"name":"variant","type":"int","value":1}]},{"id":649,"name":"tree_602","type":"tree","x":5920,"y":2560,"width":48,"height":64,"properties":[{"name":"variant","type":"int","value":2}]},{"id":650,"name":"tree_603","type":"tree","x":2624,"y":2592,"width":48,"height":64,"properties":[{"name":"variant","type":"int","value":0}]},{"id":651,"name":"tree_604","type":"tree","x":2656,"y":2592,"width":48,"height":64,"properties":[{"name":"variant","type":"int","value":1}]},{"id":652,"name":"tree_605","type":"tree","x":2720,"y":2592,"width":48,"height":64,"properties":[{"name":"variant","type":"int","value":2}]},{"id":653,"name":"tree_606","type":"tree","x":2816,"y":2592,"width":48,"height":64,"properties":[{"name":"variant","type":"int","value":0}]},{"id":654,"name":"tree_607","type":"tree","x":2944,"y":2592,"width":48,"height":64,"properties":[{"name":"variant","type":"int","value":1}]},{"id":655,"name":"tree_608","type":"tree","x":3008,"y":2592,"width":48,"height":64,"properties":[{"name":"variant","type":"int","value":2}]},{"id":656,"name":"tree_609","type":"tree","x":4000,"y":2592,"width":48,"height":64,"properties":[{"name":"variant","type":"int","value":0}]},{"id":657,"name":"tree_610","type":"tree","x":4128,"y":2592,"width":48,"height":64,"properties":[{"name":"variant","type":"int","value":1}]},{"id":658,"name":"tree_611","type":"tree","x":4160,"y":2592,"width":48,"height":64,"properties":[{"name":"variant","type":"int","value":2}]},{"id":659,"name":"tree_612","type":"tree","x":4512,"y":2592,"width":48,"height":64,"properties":[{"name":"variant","type":"int","value":0}]},{"id":660,"name":"tree_613","type":"tree","x":4544,"y":2592,"width":48,"height":64,"properties":[{"name":"variant","type":"int","value":1}]},{"id":661,"name":"tree_614","type":"tree","x":4768,"y":2592,"width":48,"height":64,"properties":[{"name":"variant","type":"int","value":2}]},{"id":662,"name":"tree_615","type":"tree","x":4960,"y":2592,"width":48,"height":64,"properties":[{"name":"variant","type":"int","value":0}]},{"id":663,"name":"tree_616","type":"tree","x":2624,"y":2624,"width":48,"height":64,"properties":[{"name":"variant","type":"int","value":1}]},{"id":664,"name":"tree_617","type":"tree","x":2848,"y":2624,"width":48,"height":64,"properties":[{"name":"variant","type":"int","value":2}]},{"id":665,"name":"tree_618","type":"tree","x":2912,"y":2624,"width":48,"height":64,"properties":[{"name":"variant","type":"int","value":0}]},{"id":666,"name":"tree_619","type":"tree","x":3008,"y":2624,"width":48,"height":64,"properties":[{"name":"variant","type":"int","value":1}]},{"id":667,"name":"tree_620","type":"tree","x":3040,"y":2624,"width":48,"height":64,"properties":[{"name":"variant","type":"int","value":2}]},{"id":668,"name":"tree_621","type":"tree","x":3136,"y":2624,"width":48,"height":64,"properties":[{"name":"variant","type":"int","value":0}]},{"id":669,"name":"tree_622","type":"tree","x":3168,"y":2624,"width":48,"height":64,"properties":[{"name":"variant","type":"int","value":1}]},{"id":670,"name":"tree_623","type":"tree","x":3904,"y":2624,"width":48,"height":64,"properties":[{"name":"variant","type":"int","value":2}]},{"id":671,"name":"tree_624","type":"tree","x":3936,"y":2624,"width":48,"height":64,"properties":[{"name":"variant","type":"int","value":0}]},{"id":672,"name":"tree_625","type":"tree","x":4096,"y":2624,"width":48,"height":64,"properties":[{"name":"variant","type":"int","value":1}]},{"id":673,"name":"tree_626","type":"tree","x":4224,"y":2624,"width":48,"height":64,"properties":[{"name":"variant","type":"int","value":2}]},{"id":674,"name":"tree_627","type":"tree","x":2688,"y":2656,"width":48,"height":64,"properties":[{"name":"variant","type":"int","value":0}]},{"id":675,"name":"tree_628","type":"tree","x":2816,"y":2656,"width":48,"height":64,"properties":[{"name":"variant","type":"int","value":1}]},{"id":676,"name":"tree_629","type":"tree","x":2944,"y":2656,"width":48,"height":64,"properties":[{"name":"variant","type":"int","value":2}]},{"id":677,"name":"tree_630","type":"tree","x":3008,"y":2656,"width":48,"height":64,"properties":[{"name":"variant","type":"int","value":0}]},{"id":678,"name":"tree_631","type":"tree","x":3104,"y":2656,"width":48,"height":64,"properties":[{"name":"variant","type":"int","value":1}]},{"id":679,"name":"tree_632","type":"tree","x":3168,"y":2656,"width":48,"height":64,"properties":[{"name":"variant","type":"int","value":2}]},{"id":680,"name":"tree_633","type":"tree","x":3232,"y":2656,"width":48,"height":64,"properties":[{"name":"variant","type":"int","value":0}]},{"id":681,"name":"tree_634","type":"tree","x":3936,"y":2656,"width":48,"height":64,"properties":[{"name":"variant","type":"int","value":1}]},{"id":682,"name":"tree_635","type":"tree","x":4064,"y":2656,"width":48,"height":64,"properties":[{"name":"variant","type":"int","value":2}]},{"id":683,"name":"tree_636","type":"tree","x":2688,"y":2688,"width":48,"height":64,"properties":[{"name":"variant","type":"int","value":0}]},{"id":684,"name":"tree_637","type":"tree","x":2720,"y":2688,"width":48,"height":64,"properties":[{"name":"variant","type":"int","value":1}]},{"id":685,"name":"tree_638","type":"tree","x":2784,"y":2688,"width":48,"height":64,"properties":[{"name":"variant","type":"int","value":2}]},{"id":686,"name":"tree_639","type":"tree","x":2816,"y":2688,"width":48,"height":64,"properties":[{"name":"variant","type":"int","value":0}]},{"id":687,"name":"tree_640","type":"tree","x":2848,"y":2688,"width":48,"height":64,"properties":[{"name":"variant","type":"int","value":1}]},{"id":688,"name":"tree_641","type":"tree","x":2912,"y":2688,"width":48,"height":64,"properties":[{"name":"variant","type":"int","value":2}]},{"id":689,"name":"tree_642","type":"tree","x":3040,"y":2688,"width":48,"height":64,"properties":[{"name":"variant","type":"int","value":0}]},{"id":690,"name":"tree_643","type":"tree","x":3072,"y":2688,"width":48,"height":64,"properties":[{"name":"variant","type":"int","value":1}]},{"id":691,"name":"tree_644","type":"tree","x":3104,"y":2688,"width":48,"height":64,"properties":[{"name":"variant","type":"int","value":2}]},{"id":692,"name":"tree_645","type":"tree","x":3200,"y":2688,"width":48,"height":64,"properties":[{"name":"variant","type":"int","value":0}]},{"id":693,"name":"tree_646","type":"tree","x":3264,"y":2688,"width":48,"height":64,"properties":[{"name":"variant","type":"int","value":1}]},{"id":694,"name":"tree_647","type":"tree","x":3776,"y":2688,"width":48,"height":64,"properties":[{"name":"variant","type":"int","value":2}]},{"id":695,"name":"tree_648","type":"tree","x":3840,"y":2688,"width":48,"height":64,"properties":[{"name":"variant","type":"int","value":0}]},{"id":696,"name":"tree_649","type":"tree","x":3968,"y":2688,"width":48,"height":64,"properties":[{"name":"variant","type":"int","value":1}]},{"id":697,"name":"tree_650","type":"tree","x":4128,"y":2688,"width":48,"height":64,"properties":[{"name":"variant","type":"int","value":2}]},{"id":698,"name":"tree_651","type":"tree","x":4160,"y":2688,"width":48,"height":64,"properties":[{"name":"variant","type":"int","value":0}]},{"id":699,"name":"tree_652","type":"tree","x":4224,"y":2688,"width":48,"height":64,"properties":[{"name":"variant","type":"int","value":1}]},{"id":700,"name":"tree_653","type":"tree","x":4288,"y":2688,"width":48,"height":64,"properties":[{"name":"variant","type":"int","value":2}]},{"id":701,"name":"tree_654","type":"tree","x":2784,"y":2720,"width":48,"height":64,"properties":[{"name":"variant","type":"int","value":0}]},{"id":702,"name":"tree_655","type":"tree","x":2944,"y":2720,"width":48,"height":64,"properties":[{"name":"variant","type":"int","value":1}]},{"id":703,"name":"tree_656","type":"tree","x":3008,"y":2720,"width":48,"height":64,"properties":[{"name":"variant","type":"int","value":2}]},{"id":704,"name":"tree_657","type":"tree","x":3040,"y":2720,"width":48,"height":64,"properties":[{"name":"variant","type":"int","value":0}]},{"id":705,"name":"tree_658","type":"tree","x":3104,"y":2720,"width":48,"height":64,"properties":[{"name":"variant","type":"int","value":1}]},{"id":706,"name":"tree_659","type":"tree","x":3136,"y":2720,"width":48,"height":64,"properties":[{"name":"variant","type":"int","value":2}]},{"id":707,"name":"tree_660","type":"tree","x":3232,"y":2720,"width":48,"height":64,"properties":[{"name":"variant","type":"int","value":0}]},{"id":708,"name":"tree_661","type":"tree","x":4032,"y":2720,"width":48,"height":64,"properties":[{"name":"variant","type":"int","value":1}]},{"id":709,"name":"tree_662","type":"tree","x":4352,"y":2720,"width":48,"height":64,"properties":[{"name":"variant","type":"int","value":2}]},{"id":710,"name":"tree_663","type":"tree","x":2016,"y":2752,"width":48,"height":64,"properties":[{"name":"variant","type":"int","value":0}]},{"id":711,"name":"tree_664","type":"tree","x":2176,"y":2752,"width":48,"height":64,"properties":[{"name":"variant","type":"int","value":1}]},{"id":712,"name":"tree_665","type":"tree","x":2240,"y":2752,"width":48,"height":64,"properties":[{"name":"variant","type":"int","value":2}]},{"id":713,"name":"tree_666","type":"tree","x":2656,"y":2752,"width":48,"height":64,"properties":[{"name":"variant","type":"int","value":0}]},{"id":714,"name":"tree_667","type":"tree","x":2688,"y":2752,"width":48,"height":64,"properties":[{"name":"variant","type":"int","value":1}]},{"id":715,"name":"tree_668","type":"tree","x":2816,"y":2752,"width":48,"height":64,"properties":[{"name":"variant","type":"int","value":2}]},{"id":716,"name":"tree_669","type":"tree","x":3168,"y":2752,"width":48,"height":64,"properties":[{"name":"variant","type":"int","value":0}]},{"id":717,"name":"tree_670","type":"tree","x":3840,"y":2752,"width":48,"height":64,"properties":[{"name":"variant","type":"int","value":1}]},{"id":718,"name":"tree_671","type":"tree","x":3872,"y":2752,"width":48,"height":64,"properties":[{"name":"variant","type":"int","value":2}]},{"id":719,"name":"tree_672","type":"tree","x":3904,"y":2752,"width":48,"height":64,"properties":[{"name":"variant","type":"int","value":0}]},{"id":720,"name":"tree_673","type":"tree","x":4032,"y":2752,"width":48,"height":64,"properties":[{"name":"variant","type":"int","value":1}]},{"id":721,"name":"tree_674","type":"tree","x":4064,"y":2752,"width":48,"height":64,"properties":[{"name":"variant","type":"int","value":2}]},{"id":722,"name":"tree_675","type":"tree","x":4320,"y":2752,"width":48,"height":64,"properties":[{"name":"variant","type":"int","value":0}]},{"id":723,"name":"tree_676","type":"tree","x":4352,"y":2752,"width":48,"height":64,"properties":[{"name":"variant","type":"int","value":1}]},{"id":724,"name":"tree_677","type":"tree","x":1888,"y":2784,"width":48,"height":64,"properties":[{"name":"variant","type":"int","value":2}]},{"id":725,"name":"tree_678","type":"tree","x":1952,"y":2784,"width":48,"height":64,"properties":[{"name":"variant","type":"int","value":0}]},{"id":726,"name":"tree_679","type":"tree","x":2048,"y":2784,"width":48,"height":64,"properties":[{"name":"variant","type":"int","value":1}]},{"id":727,"name":"tree_680","type":"tree","x":2080,"y":2784,"width":48,"height":64,"properties":[{"name":"variant","type":"int","value":2}]},{"id":728,"name":"tree_681","type":"tree","x":2272,"y":2784,"width":48,"height":64,"properties":[{"name":"variant","type":"int","value":0}]},{"id":729,"name":"tree_682","type":"tree","x":2656,"y":2784,"width":48,"height":64,"properties":[{"name":"variant","type":"int","value":1}]},{"id":730,"name":"tree_683","type":"tree","x":2688,"y":2784,"width":48,"height":64,"properties":[{"name":"variant","type":"int","value":2}]},{"id":731,"name":"tree_684","type":"tree","x":2752,"y":2784,"width":48,"height":64,"properties":[{"name":"variant","type":"int","value":0}]},{"id":732,"name":"tree_685","type":"tree","x":2784,"y":2784,"width":48,"height":64,"properties":[{"name":"variant","type":"int","value":1}]},{"id":733,"name":"tree_686","type":"tree","x":2816,"y":2784,"width":48,"height":64,"properties":[{"name":"variant","type":"int","value":2}]},{"id":734,"name":"tree_687","type":"tree","x":3136,"y":2784,"width":48,"height":64,"properties":[{"name":"variant","type":"int","value":0}]},{"id":735,"name":"tree_688","type":"tree","x":3296,"y":2784,"width":48,"height":64,"properties":[{"name":"variant","type":"int","value":1}]},{"id":736,"name":"tree_689","type":"tree","x":3840,"y":2784,"width":48,"height":64,"properties":[{"name":"variant","type":"int","value":2}]},{"id":737,"name":"tree_690","type":"tree","x":3872,"y":2784,"width":48,"height":64,"properties":[{"name":"variant","type":"int","value":0}]},{"id":738,"name":"tree_691","type":"tree","x":3904,"y":2784,"width":48,"height":64,"properties":[{"name":"variant","type":"int","value":1}]},{"id":739,"name":"tree_692","type":"tree","x":3936,"y":2784,"width":48,"height":64,"properties":[{"name":"variant","type":"int","value":2}]},{"id":740,"name":"tree_693","type":"tree","x":3968,"y":2784,"width":48,"height":64,"properties":[{"name":"variant","type":"int","value":0}]},{"id":741,"name":"tree_694","type":"tree","x":4000,"y":2784,"width":48,"height":64,"properties":[{"name":"variant","type":"int","value":1}]},{"id":742,"name":"tree_695","type":"tree","x":4128,"y":2784,"width":48,"height":64,"properties":[{"name":"variant","type":"int","value":2}]},{"id":743,"name":"tree_696","type":"tree","x":1984,"y":2816,"width":48,"height":64,"properties":[{"name":"variant","type":"int","value":0}]},{"id":744,"name":"tree_697","type":"tree","x":2080,"y":2816,"width":48,"height":64,"properties":[{"name":"variant","type":"int","value":1}]},{"id":745,"name":"tree_698","type":"tree","x":2112,"y":2816,"width":48,"height":64,"properties":[{"name":"variant","type":"int","value":2}]},{"id":746,"name":"tree_699","type":"tree","x":2144,"y":2816,"width":48,"height":64,"properties":[{"name":"variant","type":"int","value":0}]},{"id":747,"name":"tree_700","type":"tree","x":2304,"y":2816,"width":48,"height":64,"properties":[{"name":"variant","type":"int","value":1}]},{"id":748,"name":"tree_701","type":"tree","x":2656,"y":2816,"width":48,"height":64,"properties":[{"name":"variant","type":"int","value":2}]},{"id":749,"name":"tree_702","type":"tree","x":2688,"y":2816,"width":48,"height":64,"properties":[{"name":"variant","type":"int","value":0}]},{"id":750,"name":"tree_703","type":"tree","x":2720,"y":2816,"width":48,"height":64,"properties":[{"name":"variant","type":"int","value":1}]},{"id":751,"name":"tree_704","type":"tree","x":2848,"y":2816,"width":48,"height":64,"properties":[{"name":"variant","type":"int","value":2}]},{"id":752,"name":"tree_705","type":"tree","x":3072,"y":2816,"width":48,"height":64,"properties":[{"name":"variant","type":"int","value":0}]},{"id":753,"name":"tree_706","type":"tree","x":3104,"y":2816,"width":48,"height":64,"properties":[{"name":"variant","type":"int","value":1}]},{"id":754,"name":"tree_707","type":"tree","x":3136,"y":2816,"width":48,"height":64,"properties":[{"name":"variant","type":"int","value":2}]},{"id":755,"name":"tree_708","type":"tree","x":3296,"y":2816,"width":48,"height":64,"properties":[{"name":"variant","type":"int","value":0}]},{"id":756,"name":"tree_709","type":"tree","x":3872,"y":2816,"width":48,"height":64,"properties":[{"name":"variant","type":"int","value":1}]},{"id":757,"name":"tree_710","type":"tree","x":4032,"y":2816,"width":48,"height":64,"properties":[{"name":"variant","type":"int","value":2}]},{"id":758,"name":"tree_711","type":"tree","x":4064,"y":2816,"width":48,"height":64,"properties":[{"name":"variant","type":"int","value":0}]},{"id":759,"name":"tree_712","type":"tree","x":4096,"y":2816,"width":48,"height":64,"properties":[{"name":"variant","type":"int","value":1}]},{"id":760,"name":"tree_713","type":"tree","x":4128,"y":2816,"width":48,"height":64,"properties":[{"name":"variant","type":"int","value":2}]},{"id":761,"name":"tree_714","type":"tree","x":4192,"y":2816,"width":48,"height":64,"properties":[{"name":"variant","type":"int","value":0}]},{"id":762,"name":"tree_715","type":"tree","x":1984,"y":2848,"width":48,"height":64,"properties":[{"name":"variant","type":"int","value":1}]},{"id":763,"name":"tree_716","type":"tree","x":2080,"y":2848,"width":48,"height":64,"properties":[{"name":"variant","type":"int","value":2}]},{"id":764,"name":"tree_717","type":"tree","x":2144,"y":2848,"width":48,"height":64,"properties":[{"name":"variant","type":"int","value":0}]},{"id":765,"name":"tree_718","type":"tree","x":2272,"y":2848,"width":48,"height":64,"properties":[{"name":"variant","type":"int","value":1}]},{"id":766,"name":"tree_719","type":"tree","x":2400,"y":2848,"width":48,"height":64,"properties":[{"name":"variant","type":"int","value":2}]},{"id":767,"name":"tree_720","type":"tree","x":2560,"y":2848,"width":48,"height":64,"properties":[{"name":"variant","type":"int","value":0}]},{"id":768,"name":"tree_721","type":"tree","x":2752,"y":2848,"width":48,"height":64,"properties":[{"name":"variant","type":"int","value":1}]},{"id":769,"name":"tree_722","type":"tree","x":2784,"y":2848,"width":48,"height":64,"properties":[{"name":"variant","type":"int","value":2}]},{"id":770,"name":"tree_723","type":"tree","x":2848,"y":2848,"width":48,"height":64,"properties":[{"name":"variant","type":"int","value":0}]},{"id":771,"name":"tree_724","type":"tree","x":2912,"y":2848,"width":48,"height":64,"properties":[{"name":"variant","type":"int","value":1}]},{"id":772,"name":"tree_725","type":"tree","x":2944,"y":2848,"width":48,"height":64,"properties":[{"name":"variant","type":"int","value":2}]},{"id":773,"name":"tree_726","type":"tree","x":3104,"y":2848,"width":48,"height":64,"properties":[{"name":"variant","type":"int","value":0}]},{"id":774,"name":"tree_727","type":"tree","x":3168,"y":2848,"width":48,"height":64,"properties":[{"name":"variant","type":"int","value":1}]},{"id":775,"name":"tree_728","type":"tree","x":3232,"y":2848,"width":48,"height":64,"properties":[{"name":"variant","type":"int","value":2}]},{"id":776,"name":"tree_729","type":"tree","x":3264,"y":2848,"width":48,"height":64,"properties":[{"name":"variant","type":"int","value":0}]},{"id":777,"name":"tree_730","type":"tree","x":3328,"y":2848,"width":48,"height":64,"properties":[{"name":"variant","type":"int","value":1}]},{"id":778,"name":"tree_731","type":"tree","x":3840,"y":2848,"width":48,"height":64,"properties":[{"name":"variant","type":"int","value":2}]},{"id":779,"name":"tree_732","type":"tree","x":3872,"y":2848,"width":48,"height":64,"properties":[{"name":"variant","type":"int","value":0}]},{"id":780,"name":"tree_733","type":"tree","x":3904,"y":2848,"width":48,"height":64,"properties":[{"name":"variant","type":"int","value":1}]},{"id":781,"name":"tree_734","type":"tree","x":4000,"y":2848,"width":48,"height":64,"properties":[{"name":"variant","type":"int","value":2}]},{"id":782,"name":"tree_735","type":"tree","x":4032,"y":2848,"width":48,"height":64,"properties":[{"name":"variant","type":"int","value":0}]},{"id":783,"name":"tree_736","type":"tree","x":4064,"y":2848,"width":48,"height":64,"properties":[{"name":"variant","type":"int","value":1}]},{"id":784,"name":"tree_737","type":"tree","x":4128,"y":2848,"width":48,"height":64,"properties":[{"name":"variant","type":"int","value":2}]},{"id":785,"name":"tree_738","type":"tree","x":4928,"y":2848,"width":48,"height":64,"properties":[{"name":"variant","type":"int","value":0}]},{"id":786,"name":"tree_739","type":"tree","x":4960,"y":2848,"width":48,"height":64,"properties":[{"name":"variant","type":"int","value":1}]},{"id":787,"name":"tree_740","type":"tree","x":5024,"y":2848,"width":48,"height":64,"properties":[{"name":"variant","type":"int","value":2}]},{"id":788,"name":"tree_741","type":"tree","x":1856,"y":2880,"width":48,"height":64,"properties":[{"name":"variant","type":"int","value":0}]},{"id":789,"name":"tree_742","type":"tree","x":1984,"y":2880,"width":48,"height":64,"properties":[{"name":"variant","type":"int","value":1}]},{"id":790,"name":"tree_743","type":"tree","x":2016,"y":2880,"width":48,"height":64,"properties":[{"name":"variant","type":"int","value":2}]},{"id":791,"name":"tree_744","type":"tree","x":2048,"y":2880,"width":48,"height":64,"properties":[{"name":"variant","type":"int","value":0}]},{"id":792,"name":"tree_745","type":"tree","x":2368,"y":2880,"width":48,"height":64,"properties":[{"name":"variant","type":"int","value":1}]},{"id":793,"name":"tree_746","type":"tree","x":2848,"y":2880,"width":48,"height":64,"properties":[{"name":"variant","type":"int","value":2}]},{"id":794,"name":"tree_747","type":"tree","x":2944,"y":2880,"width":48,"height":64,"properties":[{"name":"variant","type":"int","value":0}]},{"id":795,"name":"tree_748","type":"tree","x":3104,"y":2880,"width":48,"height":64,"properties":[{"name":"variant","type":"int","value":1}]},{"id":796,"name":"tree_749","type":"tree","x":3168,"y":2880,"width":48,"height":64,"properties":[{"name":"variant","type":"int","value":2}]},{"id":797,"name":"tree_750","type":"tree","x":3232,"y":2880,"width":48,"height":64,"properties":[{"name":"variant","type":"int","value":0}]},{"id":798,"name":"tree_751","type":"tree","x":3296,"y":2880,"width":48,"height":64,"properties":[{"name":"variant","type":"int","value":1}]},{"id":799,"name":"tree_752","type":"tree","x":3328,"y":2880,"width":48,"height":64,"properties":[{"name":"variant","type":"int","value":2}]},{"id":800,"name":"tree_753","type":"tree","x":3424,"y":2880,"width":48,"height":64,"properties":[{"name":"variant","type":"int","value":0}]},{"id":801,"name":"tree_754","type":"tree","x":3840,"y":2880,"width":48,"height":64,"properties":[{"name":"variant","type":"int","value":1}]},{"id":802,"name":"tree_755","type":"tree","x":3904,"y":2880,"width":48,"height":64,"properties":[{"name":"variant","type":"int","value":2}]},{"id":803,"name":"tree_756","type":"tree","x":4032,"y":2880,"width":48,"height":64,"properties":[{"name":"variant","type":"int","value":0}]},{"id":804,"name":"tree_757","type":"tree","x":4064,"y":2880,"width":48,"height":64,"properties":[{"name":"variant","type":"int","value":1}]},{"id":805,"name":"tree_758","type":"tree","x":4128,"y":2880,"width":48,"height":64,"properties":[{"name":"variant","type":"int","value":2}]},{"id":806,"name":"tree_759","type":"tree","x":4192,"y":2880,"width":48,"height":64,"properties":[{"name":"variant","type":"int","value":0}]},{"id":807,"name":"tree_760","type":"tree","x":4800,"y":2880,"width":48,"height":64,"properties":[{"name":"variant","type":"int","value":1}]},{"id":808,"name":"tree_761","type":"tree","x":5216,"y":2880,"width":48,"height":64,"properties":[{"name":"variant","type":"int","value":2}]},{"id":809,"name":"tree_762","type":"tree","x":5632,"y":2880,"width":48,"height":64,"properties":[{"name":"variant","type":"int","value":0}]},{"id":810,"name":"tree_763","type":"tree","x":5728,"y":2880,"width":48,"height":64,"properties":[{"name":"variant","type":"int","value":1}]},{"id":811,"name":"tree_764","type":"tree","x":1888,"y":2912,"width":48,"height":64,"properties":[{"name":"variant","type":"int","value":2}]},{"id":812,"name":"tree_765","type":"tree","x":1952,"y":2912,"width":48,"height":64,"properties":[{"name":"variant","type":"int","value":0}]},{"id":813,"name":"tree_766","type":"tree","x":2048,"y":2912,"width":48,"height":64,"properties":[{"name":"variant","type":"int","value":1}]},{"id":814,"name":"tree_767","type":"tree","x":2112,"y":2912,"width":48,"height":64,"properties":[{"name":"variant","type":"int","value":2}]},{"id":815,"name":"tree_768","type":"tree","x":2176,"y":2912,"width":48,"height":64,"properties":[{"name":"variant","type":"int","value":0}]},{"id":816,"name":"tree_769","type":"tree","x":2528,"y":2912,"width":48,"height":64,"properties":[{"name":"variant","type":"int","value":1}]},{"id":817,"name":"tree_770","type":"tree","x":2816,"y":2912,"width":48,"height":64,"properties":[{"name":"variant","type":"int","value":2}]},{"id":818,"name":"tree_771","type":"tree","x":2848,"y":2912,"width":48,"height":64,"properties":[{"name":"variant","type":"int","value":0}]},{"id":819,"name":"tree_772","type":"tree","x":2912,"y":2912,"width":48,"height":64,"properties":[{"name":"variant","type":"int","value":1}]},{"id":820,"name":"tree_773","type":"tree","x":3008,"y":2912,"width":48,"height":64,"properties":[{"name":"variant","type":"int","value":2}]},{"id":821,"name":"tree_774","type":"tree","x":3296,"y":2912,"width":48,"height":64,"properties":[{"name":"variant","type":"int","value":0}]},{"id":822,"name":"tree_775","type":"tree","x":3392,"y":2912,"width":48,"height":64,"properties":[{"name":"variant","type":"int","value":1}]},{"id":823,"name":"tree_776","type":"tree","x":3968,"y":2912,"width":48,"height":64,"properties":[{"name":"variant","type":"int","value":2}]},{"id":824,"name":"tree_777","type":"tree","x":4000,"y":2912,"width":48,"height":64,"properties":[{"name":"variant","type":"int","value":0}]},{"id":825,"name":"tree_778","type":"tree","x":4032,"y":2912,"width":48,"height":64,"properties":[{"name":"variant","type":"int","value":1}]},{"id":826,"name":"tree_779","type":"tree","x":4064,"y":2912,"width":48,"height":64,"properties":[{"name":"variant","type":"int","value":2}]},{"id":827,"name":"tree_780","type":"tree","x":4096,"y":2912,"width":48,"height":64,"properties":[{"name":"variant","type":"int","value":0}]},{"id":828,"name":"tree_781","type":"tree","x":4192,"y":2912,"width":48,"height":64,"properties":[{"name":"variant","type":"int","value":1}]},{"id":829,"name":"tree_782","type":"tree","x":4256,"y":2912,"width":48,"height":64,"properties":[{"name":"variant","type":"int","value":2}]},{"id":830,"name":"tree_783","type":"tree","x":4960,"y":2912,"width":48,"height":64,"properties":[{"name":"variant","type":"int","value":0}]},{"id":831,"name":"tree_784","type":"tree","x":5696,"y":2912,"width":48,"height":64,"properties":[{"name":"variant","type":"int","value":1}]},{"id":832,"name":"tree_785","type":"tree","x":5824,"y":2912,"width":48,"height":64,"properties":[{"name":"variant","type":"int","value":2}]},{"id":833,"name":"tree_786","type":"tree","x":5920,"y":2912,"width":48,"height":64,"properties":[{"name":"variant","type":"int","value":0}]},{"id":834,"name":"tree_787","type":"tree","x":6496,"y":2912,"width":48,"height":64,"properties":[{"name":"variant","type":"int","value":1}]},{"id":835,"name":"tree_788","type":"tree","x":1888,"y":2944,"width":48,"height":64,"properties":[{"name":"variant","type":"int","value":2}]},{"id":836,"name":"tree_789","type":"tree","x":1920,"y":2944,"width":48,"height":64,"properties":[{"name":"variant","type":"int","value":0}]},{"id":837,"name":"tree_790","type":"tree","x":2080,"y":2944,"width":48,"height":64,"properties":[{"name":"variant","type":"int","value":1}]},{"id":838,"name":"tree_791","type":"tree","x":2112,"y":2944,"width":48,"height":64,"properties":[{"name":"variant","type":"int","value":2}]},{"id":839,"name":"tree_792","type":"tree","x":2144,"y":2944,"width":48,"height":64,"properties":[{"name":"variant","type":"int","value":0}]},{"id":840,"name":"tree_793","type":"tree","x":2848,"y":2944,"width":48,"height":64,"properties":[{"name":"variant","type":"int","value":1}]},{"id":841,"name":"tree_794","type":"tree","x":2880,"y":2944,"width":48,"height":64,"properties":[{"name":"variant","type":"int","value":2}]},{"id":842,"name":"tree_795","type":"tree","x":2944,"y":2944,"width":48,"height":64,"properties":[{"name":"variant","type":"int","value":0}]},{"id":843,"name":"tree_796","type":"tree","x":3072,"y":2944,"width":48,"height":64,"properties":[{"name":"variant","type":"int","value":1}]},{"id":844,"name":"tree_797","type":"tree","x":3104,"y":2944,"width":48,"height":64,"properties":[{"name":"variant","type":"int","value":2}]},{"id":845,"name":"tree_798","type":"tree","x":3264,"y":2944,"width":48,"height":64,"properties":[{"name":"variant","type":"int","value":0}]},{"id":846,"name":"tree_799","type":"tree","x":3552,"y":2944,"width":48,"height":64,"properties":[{"name":"variant","type":"int","value":1}]},{"id":847,"name":"tree_800","type":"tree","x":3584,"y":2944,"width":48,"height":64,"properties":[{"name":"variant","type":"int","value":2}]},{"id":848,"name":"tree_801","type":"tree","x":4160,"y":2944,"width":48,"height":64,"properties":[{"name":"variant","type":"int","value":0}]},{"id":849,"name":"tree_802","type":"tree","x":4192,"y":2944,"width":48,"height":64,"properties":[{"name":"variant","type":"int","value":1}]},{"id":850,"name":"tree_803","type":"tree","x":4224,"y":2944,"width":48,"height":64,"properties":[{"name":"variant","type":"int","value":2}]},{"id":851,"name":"tree_804","type":"tree","x":5280,"y":2944,"width":48,"height":64,"properties":[{"name":"variant","type":"int","value":0}]},{"id":852,"name":"tree_805","type":"tree","x":5472,"y":2944,"width":48,"height":64,"properties":[{"name":"variant","type":"int","value":1}]},{"id":853,"name":"tree_806","type":"tree","x":5728,"y":2944,"width":48,"height":64,"properties":[{"name":"variant","type":"int","value":2}]},{"id":854,"name":"tree_807","type":"tree","x":5760,"y":2944,"width":48,"height":64,"properties":[{"name":"variant","type":"int","value":0}]},{"id":855,"name":"tree_808","type":"tree","x":1952,"y":2976,"width":48,"height":64,"properties":[{"name":"variant","type":"int","value":1}]},{"id":856,"name":"tree_809","type":"tree","x":2080,"y":2976,"width":48,"height":64,"properties":[{"name":"variant","type":"int","value":2}]},{"id":857,"name":"tree_810","type":"tree","x":2112,"y":2976,"width":48,"height":64,"properties":[{"name":"variant","type":"int","value":0}]},{"id":858,"name":"tree_811","type":"tree","x":2176,"y":2976,"width":48,"height":64,"properties":[{"name":"variant","type":"int","value":1}]},{"id":859,"name":"tree_812","type":"tree","x":2368,"y":2976,"width":48,"height":64,"properties":[{"name":"variant","type":"int","value":2}]},{"id":860,"name":"tree_813","type":"tree","x":2944,"y":2976,"width":48,"height":64,"properties":[{"name":"variant","type":"int","value":0}]},{"id":861,"name":"tree_814","type":"tree","x":3072,"y":2976,"width":48,"height":64,"properties":[{"name":"variant","type":"int","value":1}]},{"id":862,"name":"tree_815","type":"tree","x":3136,"y":2976,"width":48,"height":64,"properties":[{"name":"variant","type":"int","value":2}]},{"id":863,"name":"tree_816","type":"tree","x":3168,"y":2976,"width":48,"height":64,"properties":[{"name":"variant","type":"int","value":0}]},{"id":864,"name":"tree_817","type":"tree","x":3232,"y":2976,"width":48,"height":64,"properties":[{"name":"variant","type":"int","value":1}]},{"id":865,"name":"tree_818","type":"tree","x":3328,"y":2976,"width":48,"height":64,"properties":[{"name":"variant","type":"int","value":2}]},{"id":866,"name":"tree_819","type":"tree","x":3360,"y":2976,"width":48,"height":64,"properties":[{"name":"variant","type":"int","value":0}]},{"id":867,"name":"tree_820","type":"tree","x":3424,"y":2976,"width":48,"height":64,"properties":[{"name":"variant","type":"int","value":1}]},{"id":868,"name":"tree_821","type":"tree","x":3456,"y":2976,"width":48,"height":64,"properties":[{"name":"variant","type":"int","value":2}]},{"id":869,"name":"tree_822","type":"tree","x":3488,"y":2976,"width":48,"height":64,"properties":[{"name":"variant","type":"int","value":0}]},{"id":870,"name":"tree_823","type":"tree","x":3520,"y":2976,"width":48,"height":64,"properties":[{"name":"variant","type":"int","value":1}]},{"id":871,"name":"tree_824","type":"tree","x":3552,"y":2976,"width":48,"height":64,"properties":[{"name":"variant","type":"int","value":2}]},{"id":872,"name":"tree_825","type":"tree","x":3936,"y":2976,"width":48,"height":64,"properties":[{"name":"variant","type":"int","value":0}]},{"id":873,"name":"tree_826","type":"tree","x":4192,"y":2976,"width":48,"height":64,"properties":[{"name":"variant","type":"int","value":1}]},{"id":874,"name":"tree_827","type":"tree","x":4832,"y":2976,"width":48,"height":64,"properties":[{"name":"variant","type":"int","value":2}]},{"id":875,"name":"tree_828","type":"tree","x":4896,"y":2976,"width":48,"height":64,"properties":[{"name":"variant","type":"int","value":0}]},{"id":876,"name":"tree_829","type":"tree","x":5536,"y":2976,"width":48,"height":64,"properties":[{"name":"variant","type":"int","value":1}]},{"id":877,"name":"tree_830","type":"tree","x":5664,"y":2976,"width":48,"height":64,"properties":[{"name":"variant","type":"int","value":2}]},{"id":878,"name":"tree_831","type":"tree","x":5824,"y":2976,"width":48,"height":64,"properties":[{"name":"variant","type":"int","value":0}]},{"id":879,"name":"tree_832","type":"tree","x":6048,"y":2976,"width":48,"height":64,"properties":[{"name":"variant","type":"int","value":1}]},{"id":880,"name":"tree_833","type":"tree","x":6176,"y":2976,"width":48,"height":64,"properties":[{"name":"variant","type":"int","value":2}]},{"id":881,"name":"tree_834","type":"tree","x":6208,"y":2976,"width":48,"height":64,"properties":[{"name":"variant","type":"int","value":0}]},{"id":882,"name":"tree_835","type":"tree","x":6304,"y":2976,"width":48,"height":64,"properties":[{"name":"variant","type":"int","value":1}]},{"id":883,"name":"tree_836","type":"tree","x":6496,"y":2976,"width":48,"height":64,"properties":[{"name":"variant","type":"int","value":2}]},{"id":884,"name":"tree_837","type":"tree","x":1888,"y":3008,"width":48,"height":64,"properties":[{"name":"variant","type":"int","value":0}]},{"id":885,"name":"tree_838","type":"tree","x":1920,"y":3008,"width":48,"height":64,"properties":[{"name":"variant","type":"int","value":1}]},{"id":886,"name":"tree_839","type":"tree","x":1952,"y":3008,"width":48,"height":64,"properties":[{"name":"variant","type":"int","value":2}]},{"id":887,"name":"tree_840","type":"tree","x":2112,"y":3008,"width":48,"height":64,"properties":[{"name":"variant","type":"int","value":0}]},{"id":888,"name":"tree_841","type":"tree","x":2144,"y":3008,"width":48,"height":64,"properties":[{"name":"variant","type":"int","value":1}]},{"id":889,"name":"tree_842","type":"tree","x":2176,"y":3008,"width":48,"height":64,"properties":[{"name":"variant","type":"int","value":2}]},{"id":890,"name":"tree_843","type":"tree","x":2240,"y":3008,"width":48,"height":64,"properties":[{"name":"variant","type":"int","value":0}]},{"id":891,"name":"tree_844","type":"tree","x":2272,"y":3008,"width":48,"height":64,"properties":[{"name":"variant","type":"int","value":1}]},{"id":892,"name":"tree_845","type":"tree","x":2336,"y":3008,"width":48,"height":64,"properties":[{"name":"variant","type":"int","value":2}]},{"id":893,"name":"tree_846","type":"tree","x":3040,"y":3008,"width":48,"height":64,"properties":[{"name":"variant","type":"int","value":0}]},{"id":894,"name":"tree_847","type":"tree","x":3136,"y":3008,"width":48,"height":64,"properties":[{"name":"variant","type":"int","value":1}]},{"id":895,"name":"tree_848","type":"tree","x":3200,"y":3008,"width":48,"height":64,"properties":[{"name":"variant","type":"int","value":2}]},{"id":896,"name":"tree_849","type":"tree","x":3232,"y":3008,"width":48,"height":64,"properties":[{"name":"variant","type":"int","value":0}]},{"id":897,"name":"tree_850","type":"tree","x":3296,"y":3008,"width":48,"height":64,"properties":[{"name":"variant","type":"int","value":1}]},{"id":898,"name":"tree_851","type":"tree","x":3328,"y":3008,"width":48,"height":64,"properties":[{"name":"variant","type":"int","value":2}]},{"id":899,"name":"tree_852","type":"tree","x":3424,"y":3008,"width":48,"height":64,"properties":[{"name":"variant","type":"int","value":0}]},{"id":900,"name":"tree_853","type":"tree","x":3584,"y":3008,"width":48,"height":64,"properties":[{"name":"variant","type":"int","value":1}]},{"id":901,"name":"tree_854","type":"tree","x":3648,"y":3008,"width":48,"height":64,"properties":[{"name":"variant","type":"int","value":2}]},{"id":902,"name":"tree_855","type":"tree","x":3936,"y":3008,"width":48,"height":64,"properties":[{"name":"variant","type":"int","value":0}]},{"id":903,"name":"tree_856","type":"tree","x":3968,"y":3008,"width":48,"height":64,"properties":[{"name":"variant","type":"int","value":1}]},{"id":904,"name":"tree_857","type":"tree","x":4128,"y":3008,"width":48,"height":64,"properties":[{"name":"variant","type":"int","value":2}]},{"id":905,"name":"tree_858","type":"tree","x":4192,"y":3008,"width":48,"height":64,"properties":[{"name":"variant","type":"int","value":0}]},{"id":906,"name":"tree_859","type":"tree","x":4288,"y":3008,"width":48,"height":64,"properties":[{"name":"variant","type":"int","value":1}]},{"id":907,"name":"tree_860","type":"tree","x":4480,"y":3008,"width":48,"height":64,"properties":[{"name":"variant","type":"int","value":2}]},{"id":908,"name":"tree_861","type":"tree","x":4928,"y":3008,"width":48,"height":64,"properties":[{"name":"variant","type":"int","value":0}]},{"id":909,"name":"tree_862","type":"tree","x":4992,"y":3008,"width":48,"height":64,"properties":[{"name":"variant","type":"int","value":1}]},{"id":910,"name":"tree_863","type":"tree","x":5056,"y":3008,"width":48,"height":64,"properties":[{"name":"variant","type":"int","value":2}]},{"id":911,"name":"tree_864","type":"tree","x":5216,"y":3008,"width":48,"height":64,"properties":[{"name":"variant","type":"int","value":0}]},{"id":912,"name":"tree_865","type":"tree","x":5248,"y":3008,"width":48,"height":64,"properties":[{"name":"variant","type":"int","value":1}]},{"id":913,"name":"tree_866","type":"tree","x":5280,"y":3008,"width":48,"height":64,"properties":[{"name":"variant","type":"int","value":2}]},{"id":914,"name":"tree_867","type":"tree","x":5312,"y":3008,"width":48,"height":64,"properties":[{"name":"variant","type":"int","value":0}]},{"id":915,"name":"tree_868","type":"tree","x":5344,"y":3008,"width":48,"height":64,"properties":[{"name":"variant","type":"int","value":1}]},{"id":916,"name":"tree_869","type":"tree","x":5792,"y":3008,"width":48,"height":64,"properties":[{"name":"variant","type":"int","value":2}]},{"id":917,"name":"tree_870","type":"tree","x":6016,"y":3008,"width":48,"height":64,"properties":[{"name":"variant","type":"int","value":0}]},{"id":918,"name":"tree_871","type":"tree","x":6336,"y":3008,"width":48,"height":64,"properties":[{"name":"variant","type":"int","value":1}]},{"id":919,"name":"tree_872","type":"tree","x":6432,"y":3008,"width":48,"height":64,"properties":[{"name":"variant","type":"int","value":2}]},{"id":920,"name":"tree_873","type":"tree","x":1792,"y":3040,"width":48,"height":64,"properties":[{"name":"variant","type":"int","value":0}]},{"id":921,"name":"tree_874","type":"tree","x":1824,"y":3040,"width":48,"height":64,"properties":[{"name":"variant","type":"int","value":1}]},{"id":922,"name":"tree_875","type":"tree","x":1856,"y":3040,"width":48,"height":64,"properties":[{"name":"variant","type":"int","value":2}]},{"id":923,"name":"tree_876","type":"tree","x":1952,"y":3040,"width":48,"height":64,"properties":[{"name":"variant","type":"int","value":0}]},{"id":924,"name":"tree_877","type":"tree","x":2016,"y":3040,"width":48,"height":64,"properties":[{"name":"variant","type":"int","value":1}]},{"id":925,"name":"tree_878","type":"tree","x":2048,"y":3040,"width":48,"height":64,"properties":[{"name":"variant","type":"int","value":2}]},{"id":926,"name":"tree_879","type":"tree","x":2080,"y":3040,"width":48,"height":64,"properties":[{"name":"variant","type":"int","value":0}]},{"id":927,"name":"tree_880","type":"tree","x":2144,"y":3040,"width":48,"height":64,"properties":[{"name":"variant","type":"int","value":1}]},{"id":928,"name":"tree_881","type":"tree","x":2176,"y":3040,"width":48,"height":64,"properties":[{"name":"variant","type":"int","value":2}]},{"id":929,"name":"tree_882","type":"tree","x":2208,"y":3040,"width":48,"height":64,"properties":[{"name":"variant","type":"int","value":0}]},{"id":930,"name":"tree_883","type":"tree","x":2240,"y":3040,"width":48,"height":64,"properties":[{"name":"variant","type":"int","value":1}]},{"id":931,"name":"tree_884","type":"tree","x":2976,"y":3040,"width":48,"height":64,"properties":[{"name":"variant","type":"int","value":2}]},{"id":932,"name":"tree_885","type":"tree","x":3008,"y":3040,"width":48,"height":64,"properties":[{"name":"variant","type":"int","value":0}]},{"id":933,"name":"tree_886","type":"tree","x":3264,"y":3040,"width":48,"height":64,"properties":[{"name":"variant","type":"int","value":1}]},{"id":934,"name":"tree_887","type":"tree","x":3456,"y":3040,"width":48,"height":64,"properties":[{"name":"variant","type":"int","value":2}]},{"id":935,"name":"tree_888","type":"tree","x":3488,"y":3040,"width":48,"height":64,"properties":[{"name":"variant","type":"int","value":0}]},{"id":936,"name":"tree_889","type":"tree","x":3520,"y":3040,"width":48,"height":64,"properties":[{"name":"variant","type":"int","value":1}]},{"id":937,"name":"tree_890","type":"tree","x":3648,"y":3040,"width":48,"height":64,"properties":[{"name":"variant","type":"int","value":2}]},{"id":938,"name":"tree_891","type":"tree","x":3872,"y":3040,"width":48,"height":64,"properties":[{"name":"variant","type":"int","value":0}]},{"id":939,"name":"tree_892","type":"tree","x":4128,"y":3040,"width":48,"height":64,"properties":[{"name":"variant","type":"int","value":1}]},{"id":940,"name":"tree_893","type":"tree","x":4192,"y":3040,"width":48,"height":64,"properties":[{"name":"variant","type":"int","value":2}]},{"id":941,"name":"tree_894","type":"tree","x":4224,"y":3040,"width":48,"height":64,"properties":[{"name":"variant","type":"int","value":0}]},{"id":942,"name":"tree_895","type":"tree","x":4256,"y":3040,"width":48,"height":64,"properties":[{"name":"variant","type":"int","value":1}]},{"id":943,"name":"tree_896","type":"tree","x":4288,"y":3040,"width":48,"height":64,"properties":[{"name":"variant","type":"int","value":2}]},{"id":944,"name":"tree_897","type":"tree","x":4512,"y":3040,"width":48,"height":64,"properties":[{"name":"variant","type":"int","value":0}]},{"id":945,"name":"tree_898","type":"tree","x":5088,"y":3040,"width":48,"height":64,"properties":[{"name":"variant","type":"int","value":1}]},{"id":946,"name":"tree_899","type":"tree","x":5120,"y":3040,"width":48,"height":64,"properties":[{"name":"variant","type":"int","value":2}]},{"id":947,"name":"tree_900","type":"tree","x":5152,"y":3040,"width":48,"height":64,"properties":[{"name":"variant","type":"int","value":0}]},{"id":948,"name":"tree_901","type":"tree","x":5216,"y":3040,"width":48,"height":64,"properties":[{"name":"variant","type":"int","value":1}]},{"id":949,"name":"tree_902","type":"tree","x":5312,"y":3040,"width":48,"height":64,"properties":[{"name":"variant","type":"int","value":2}]},{"id":950,"name":"tree_903","type":"tree","x":6112,"y":3040,"width":48,"height":64,"properties":[{"name":"variant","type":"int","value":0}]},{"id":951,"name":"tree_904","type":"tree","x":6272,"y":3040,"width":48,"height":64,"properties":[{"name":"variant","type":"int","value":1}]},{"id":952,"name":"tree_905","type":"tree","x":6336,"y":3040,"width":48,"height":64,"properties":[{"name":"variant","type":"int","value":2}]},{"id":953,"name":"tree_906","type":"tree","x":6400,"y":3040,"width":48,"height":64,"properties":[{"name":"variant","type":"int","value":0}]},{"id":954,"name":"tree_907","type":"tree","x":1920,"y":3072,"width":48,"height":64,"properties":[{"name":"variant","type":"int","value":1}]},{"id":955,"name":"tree_908","type":"tree","x":1984,"y":3072,"width":48,"height":64,"properties":[{"name":"variant","type":"int","value":2}]},{"id":956,"name":"tree_909","type":"tree","x":2048,"y":3072,"width":48,"height":64,"properties":[{"name":"variant","type":"int","value":0}]},{"id":957,"name":"tree_910","type":"tree","x":2112,"y":3072,"width":48,"height":64,"properties":[{"name":"variant","type":"int","value":1}]},{"id":958,"name":"tree_911","type":"tree","x":2176,"y":3072,"width":48,"height":64,"properties":[{"name":"variant","type":"int","value":2}]},{"id":959,"name":"tree_912","type":"tree","x":2208,"y":3072,"width":48,"height":64,"properties":[{"name":"variant","type":"int","value":0}]},{"id":960,"name":"tree_913","type":"tree","x":2304,"y":3072,"width":48,"height":64,"properties":[{"name":"variant","type":"int","value":1}]},{"id":961,"name":"tree_914","type":"tree","x":3168,"y":3072,"width":48,"height":64,"properties":[{"name":"variant","type":"int","value":2}]},{"id":962,"name":"tree_915","type":"tree","x":3232,"y":3072,"width":48,"height":64,"properties":[{"name":"variant","type":"int","value":0}]},{"id":963,"name":"tree_916","type":"tree","x":3520,"y":3072,"width":48,"height":64,"properties":[{"name":"variant","type":"int","value":1}]},{"id":964,"name":"tree_917","type":"tree","x":3552,"y":3072,"width":48,"height":64,"properties":[{"name":"variant","type":"int","value":2}]},{"id":965,"name":"tree_918","type":"tree","x":3584,"y":3072,"width":48,"height":64,"properties":[{"name":"variant","type":"int","value":0}]},{"id":966,"name":"tree_919","type":"tree","x":3616,"y":3072,"width":48,"height":64,"properties":[{"name":"variant","type":"int","value":1}]},{"id":967,"name":"tree_920","type":"tree","x":3648,"y":3072,"width":48,"height":64,"properties":[{"name":"variant","type":"int","value":2}]},{"id":968,"name":"tree_921","type":"tree","x":3680,"y":3072,"width":48,"height":64,"properties":[{"name":"variant","type":"int","value":0}]},{"id":969,"name":"tree_922","type":"tree","x":3808,"y":3072,"width":48,"height":64,"properties":[{"name":"variant","type":"int","value":1}]},{"id":970,"name":"tree_923","type":"tree","x":4032,"y":3072,"width":48,"height":64,"properties":[{"name":"variant","type":"int","value":2}]},{"id":971,"name":"tree_924","type":"tree","x":4064,"y":3072,"width":48,"height":64,"properties":[{"name":"variant","type":"int","value":0}]},{"id":972,"name":"tree_925","type":"tree","x":4192,"y":3072,"width":48,"height":64,"properties":[{"name":"variant","type":"int","value":1}]},{"id":973,"name":"tree_926","type":"tree","x":4288,"y":3072,"width":48,"height":64,"properties":[{"name":"variant","type":"int","value":2}]},{"id":974,"name":"tree_927","type":"tree","x":4320,"y":3072,"width":48,"height":64,"properties":[{"name":"variant","type":"int","value":0}]},{"id":975,"name":"tree_928","type":"tree","x":5056,"y":3072,"width":48,"height":64,"properties":[{"name":"variant","type":"int","value":1}]},{"id":976,"name":"tree_929","type":"tree","x":5088,"y":3072,"width":48,"height":64,"properties":[{"name":"variant","type":"int","value":2}]},{"id":977,"name":"tree_930","type":"tree","x":5152,"y":3072,"width":48,"height":64,"properties":[{"name":"variant","type":"int","value":0}]},{"id":978,"name":"tree_931","type":"tree","x":5184,"y":3072,"width":48,"height":64,"properties":[{"name":"variant","type":"int","value":1}]},{"id":979,"name":"tree_932","type":"tree","x":5216,"y":3072,"width":48,"height":64,"properties":[{"name":"variant","type":"int","value":2}]},{"id":980,"name":"tree_933","type":"tree","x":5280,"y":3072,"width":48,"height":64,"properties":[{"name":"variant","type":"int","value":0}]},{"id":981,"name":"tree_934","type":"tree","x":5312,"y":3072,"width":48,"height":64,"properties":[{"name":"variant","type":"int","value":1}]},{"id":982,"name":"tree_935","type":"tree","x":5344,"y":3072,"width":48,"height":64,"properties":[{"name":"variant","type":"int","value":2}]},{"id":983,"name":"tree_936","type":"tree","x":5376,"y":3072,"width":48,"height":64,"properties":[{"name":"variant","type":"int","value":0}]},{"id":984,"name":"tree_937","type":"tree","x":5408,"y":3072,"width":48,"height":64,"properties":[{"name":"variant","type":"int","value":1}]},{"id":985,"name":"tree_938","type":"tree","x":6112,"y":3072,"width":48,"height":64,"properties":[{"name":"variant","type":"int","value":2}]},{"id":986,"name":"tree_939","type":"tree","x":6144,"y":3072,"width":48,"height":64,"properties":[{"name":"variant","type":"int","value":0}]},{"id":987,"name":"tree_940","type":"tree","x":6240,"y":3072,"width":48,"height":64,"properties":[{"name":"variant","type":"int","value":1}]},{"id":988,"name":"tree_941","type":"tree","x":6464,"y":3072,"width":48,"height":64,"properties":[{"name":"variant","type":"int","value":2}]},{"id":989,"name":"tree_942","type":"tree","x":1952,"y":3104,"width":48,"height":64,"properties":[{"name":"variant","type":"int","value":0}]},{"id":990,"name":"tree_943","type":"tree","x":1984,"y":3104,"width":48,"height":64,"properties":[{"name":"variant","type":"int","value":1}]},{"id":991,"name":"tree_944","type":"tree","x":2016,"y":3104,"width":48,"height":64,"properties":[{"name":"variant","type":"int","value":2}]},{"id":992,"name":"tree_945","type":"tree","x":2144,"y":3104,"width":48,"height":64,"properties":[{"name":"variant","type":"int","value":0}]},{"id":993,"name":"tree_946","type":"tree","x":2304,"y":3104,"width":48,"height":64,"properties":[{"name":"variant","type":"int","value":1}]},{"id":994,"name":"tree_947","type":"tree","x":3072,"y":3104,"width":48,"height":64,"properties":[{"name":"variant","type":"int","value":2}]},{"id":995,"name":"tree_948","type":"tree","x":3104,"y":3104,"width":48,"height":64,"properties":[{"name":"variant","type":"int","value":0}]},{"id":996,"name":"tree_949","type":"tree","x":3136,"y":3104,"width":48,"height":64,"properties":[{"name":"variant","type":"int","value":1}]},{"id":997,"name":"tree_950","type":"tree","x":3264,"y":3104,"width":48,"height":64,"properties":[{"name":"variant","type":"int","value":2}]},{"id":998,"name":"tree_951","type":"tree","x":3424,"y":3104,"width":48,"height":64,"properties":[{"name":"variant","type":"int","value":0}]},{"id":999,"name":"tree_952","type":"tree","x":3456,"y":3104,"width":48,"height":64,"properties":[{"name":"variant","type":"int","value":1}]},{"id":1000,"name":"tree_953","type":"tree","x":3488,"y":3104,"width":48,"height":64,"properties":[{"name":"variant","type":"int","value":2}]},{"id":1001,"name":"tree_954","type":"tree","x":3584,"y":3104,"width":48,"height":64,"properties":[{"name":"variant","type":"int","value":0}]},{"id":1002,"name":"tree_955","type":"tree","x":3616,"y":3104,"width":48,"height":64,"properties":[{"name":"variant","type":"int","value":1}]},{"id":1003,"name":"tree_956","type":"tree","x":4192,"y":3104,"width":48,"height":64,"properties":[{"name":"variant","type":"int","value":2}]},{"id":1004,"name":"tree_957","type":"tree","x":4320,"y":3104,"width":48,"height":64,"properties":[{"name":"variant","type":"int","value":0}]},{"id":1005,"name":"tree_958","type":"tree","x":4352,"y":3104,"width":48,"height":64,"properties":[{"name":"variant","type":"int","value":1}]},{"id":1006,"name":"tree_959","type":"tree","x":4832,"y":3104,"width":48,"height":64,"properties":[{"name":"variant","type":"int","value":2}]},{"id":1007,"name":"tree_960","type":"tree","x":5184,"y":3104,"width":48,"height":64,"properties":[{"name":"variant","type":"int","value":0}]},{"id":1008,"name":"tree_961","type":"tree","x":5216,"y":3104,"width":48,"height":64,"properties":[{"name":"variant","type":"int","value":1}]},{"id":1009,"name":"tree_962","type":"tree","x":5248,"y":3104,"width":48,"height":64,"properties":[{"name":"variant","type":"int","value":2}]},{"id":1010,"name":"tree_963","type":"tree","x":5280,"y":3104,"width":48,"height":64,"properties":[{"name":"variant","type":"int","value":0}]},{"id":1011,"name":"tree_964","type":"tree","x":5344,"y":3104,"width":48,"height":64,"properties":[{"name":"variant","type":"int","value":1}]},{"id":1012,"name":"tree_965","type":"tree","x":5760,"y":3104,"width":48,"height":64,"properties":[{"name":"variant","type":"int","value":2}]},{"id":1013,"name":"tree_966","type":"tree","x":6176,"y":3104,"width":48,"height":64,"properties":[{"name":"variant","type":"int","value":0}]},{"id":1014,"name":"tree_967","type":"tree","x":6304,"y":3104,"width":48,"height":64,"properties":[{"name":"variant","type":"int","value":1}]},{"id":1015,"name":"tree_968","type":"tree","x":1856,"y":3136,"width":48,"height":64,"properties":[{"name":"variant","type":"int","value":2}]},{"id":1016,"name":"tree_969","type":"tree","x":2016,"y":3136,"width":48,"height":64,"properties":[{"name":"variant","type":"int","value":0}]},{"id":1017,"name":"tree_970","type":"tree","x":2112,"y":3136,"width":48,"height":64,"properties":[{"name":"variant","type":"int","value":1}]},{"id":1018,"name":"tree_971","type":"tree","x":2240,"y":3136,"width":48,"height":64,"properties":[{"name":"variant","type":"int","value":2}]},{"id":1019,"name":"tree_972","type":"tree","x":2272,"y":3136,"width":48,"height":64,"properties":[{"name":"variant","type":"int","value":0}]},{"id":1020,"name":"tree_973","type":"tree","x":2400,"y":3136,"width":48,"height":64,"properties":[{"name":"variant","type":"int","value":1}]},{"id":1021,"name":"tree_974","type":"tree","x":3104,"y":3136,"width":48,"height":64,"properties":[{"name":"variant","type":"int","value":2}]},{"id":1022,"name":"tree_975","type":"tree","x":3136,"y":3136,"width":48,"height":64,"properties":[{"name":"variant","type":"int","value":0}]},{"id":1023,"name":"tree_976","type":"tree","x":3200,"y":3136,"width":48,"height":64,"properties":[{"name":"variant","type":"int","value":1}]},{"id":1024,"name":"tree_977","type":"tree","x":3232,"y":3136,"width":48,"height":64,"properties":[{"name":"variant","type":"int","value":2}]},{"id":1025,"name":"tree_978","type":"tree","x":3264,"y":3136,"width":48,"height":64,"properties":[{"name":"variant","type":"int","value":0}]},{"id":1026,"name":"tree_979","type":"tree","x":3296,"y":3136,"width":48,"height":64,"properties":[{"name":"variant","type":"int","value":1}]},{"id":1027,"name":"tree_980","type":"tree","x":3392,"y":3136,"width":48,"height":64,"properties":[{"name":"variant","type":"int","value":2}]},{"id":1028,"name":"tree_981","type":"tree","x":3488,"y":3136,"width":48,"height":64,"properties":[{"name":"variant","type":"int","value":0}]},{"id":1029,"name":"tree_982","type":"tree","x":3520,"y":3136,"width":48,"height":64,"properties":[{"name":"variant","type":"int","value":1}]},{"id":1030,"name":"tree_983","type":"tree","x":3616,"y":3136,"width":48,"height":64,"properties":[{"name":"variant","type":"int","value":2}]},{"id":1031,"name":"tree_984","type":"tree","x":4288,"y":3136,"width":48,"height":64,"properties":[{"name":"variant","type":"int","value":0}]},{"id":1032,"name":"tree_985","type":"tree","x":4704,"y":3136,"width":48,"height":64,"properties":[{"name":"variant","type":"int","value":1}]},{"id":1033,"name":"tree_986","type":"tree","x":4800,"y":3136,"width":48,"height":64,"properties":[{"name":"variant","type":"int","value":2}]},{"id":1034,"name":"tree_987","type":"tree","x":4864,"y":3136,"width":48,"height":64,"properties":[{"name":"variant","type":"int","value":0}]},{"id":1035,"name":"tree_988","type":"tree","x":4960,"y":3136,"width":48,"height":64,"properties":[{"name":"variant","type":"int","value":1}]},{"id":1036,"name":"tree_989","type":"tree","x":5088,"y":3136,"width":48,"height":64,"properties":[{"name":"variant","type":"int","value":2}]},{"id":1037,"name":"tree_990","type":"tree","x":5120,"y":3136,"width":48,"height":64,"properties":[{"name":"variant","type":"int","value":0}]},{"id":1038,"name":"tree_991","type":"tree","x":5184,"y":3136,"width":48,"height":64,"properties":[{"name":"variant","type":"int","value":1}]},{"id":1039,"name":"tree_992","type":"tree","x":5408,"y":3136,"width":48,"height":64,"properties":[{"name":"variant","type":"int","value":2}]},{"id":1040,"name":"tree_993","type":"tree","x":5440,"y":3136,"width":48,"height":64,"properties":[{"name":"variant","type":"int","value":0}]},{"id":1041,"name":"tree_994","type":"tree","x":5472,"y":3136,"width":48,"height":64,"properties":[{"name":"variant","type":"int","value":1}]},{"id":1042,"name":"tree_995","type":"tree","x":5728,"y":3136,"width":48,"height":64,"properties":[{"name":"variant","type":"int","value":2}]},{"id":1043,"name":"tree_996","type":"tree","x":6496,"y":3136,"width":48,"height":64,"properties":[{"name":"variant","type":"int","value":0}]},{"id":1044,"name":"tree_997","type":"tree","x":1920,"y":3168,"width":48,"height":64,"properties":[{"name":"variant","type":"int","value":1}]},{"id":1045,"name":"tree_998","type":"tree","x":2144,"y":3168,"width":48,"height":64,"properties":[{"name":"variant","type":"int","value":2}]},{"id":1046,"name":"tree_999","type":"tree","x":2208,"y":3168,"width":48,"height":64,"properties":[{"name":"variant","type":"int","value":0}]},{"id":1047,"name":"tree_1000","type":"tree","x":3232,"y":3168,"width":48,"height":64,"properties":[{"name":"variant","type":"int","value":1}]},{"id":1048,"name":"tree_1001","type":"tree","x":3296,"y":3168,"width":48,"height":64,"properties":[{"name":"variant","type":"int","value":2}]},{"id":1049,"name":"tree_1002","type":"tree","x":3328,"y":3168,"width":48,"height":64,"properties":[{"name":"variant","type":"int","value":0}]},{"id":1050,"name":"tree_1003","type":"tree","x":3360,"y":3168,"width":48,"height":64,"properties":[{"name":"variant","type":"int","value":1}]},{"id":1051,"name":"tree_1004","type":"tree","x":3424,"y":3168,"width":48,"height":64,"properties":[{"name":"variant","type":"int","value":2}]},{"id":1052,"name":"tree_1005","type":"tree","x":3488,"y":3168,"width":48,"height":64,"properties":[{"name":"variant","type":"int","value":0}]},{"id":1053,"name":"tree_1006","type":"tree","x":3552,"y":3168,"width":48,"height":64,"properties":[{"name":"variant","type":"int","value":1}]},{"id":1054,"name":"tree_1007","type":"tree","x":3584,"y":3168,"width":48,"height":64,"properties":[{"name":"variant","type":"int","value":2}]},{"id":1055,"name":"tree_1008","type":"tree","x":3616,"y":3168,"width":48,"height":64,"properties":[{"name":"variant","type":"int","value":0}]},{"id":1056,"name":"tree_1009","type":"tree","x":3648,"y":3168,"width":48,"height":64,"properties":[{"name":"variant","type":"int","value":1}]},{"id":1057,"name":"tree_1010","type":"tree","x":3808,"y":3168,"width":48,"height":64,"properties":[{"name":"variant","type":"int","value":2}]},{"id":1058,"name":"tree_1011","type":"tree","x":4320,"y":3168,"width":48,"height":64,"properties":[{"name":"variant","type":"int","value":0}]},{"id":1059,"name":"tree_1012","type":"tree","x":4864,"y":3168,"width":48,"height":64,"properties":[{"name":"variant","type":"int","value":1}]},{"id":1060,"name":"tree_1013","type":"tree","x":4960,"y":3168,"width":48,"height":64,"properties":[{"name":"variant","type":"int","value":2}]},{"id":1061,"name":"tree_1014","type":"tree","x":5088,"y":3168,"width":48,"height":64,"properties":[{"name":"variant","type":"int","value":0}]},{"id":1062,"name":"tree_1015","type":"tree","x":5152,"y":3168,"width":48,"height":64,"properties":[{"name":"variant","type":"int","value":1}]},{"id":1063,"name":"tree_1016","type":"tree","x":5184,"y":3168,"width":48,"height":64,"properties":[{"name":"variant","type":"int","value":2}]},{"id":1064,"name":"tree_1017","type":"tree","x":5376,"y":3168,"width":48,"height":64,"properties":[{"name":"variant","type":"int","value":0}]},{"id":1065,"name":"tree_1018","type":"tree","x":5408,"y":3168,"width":48,"height":64,"properties":[{"name":"variant","type":"int","value":1}]},{"id":1066,"name":"tree_1019","type":"tree","x":5536,"y":3168,"width":48,"height":64,"properties":[{"name":"variant","type":"int","value":2}]},{"id":1067,"name":"tree_1020","type":"tree","x":5664,"y":3168,"width":48,"height":64,"properties":[{"name":"variant","type":"int","value":0}]},{"id":1068,"name":"tree_1021","type":"tree","x":6208,"y":3168,"width":48,"height":64,"properties":[{"name":"variant","type":"int","value":1}]},{"id":1069,"name":"tree_1022","type":"tree","x":6368,"y":3168,"width":48,"height":64,"properties":[{"name":"variant","type":"int","value":2}]},{"id":1070,"name":"tree_1023","type":"tree","x":6432,"y":3168,"width":48,"height":64,"properties":[{"name":"variant","type":"int","value":0}]},{"id":1071,"name":"tree_1024","type":"tree","x":1952,"y":3200,"width":48,"height":64,"properties":[{"name":"variant","type":"int","value":1}]},{"id":1072,"name":"tree_1025","type":"tree","x":2080,"y":3200,"width":48,"height":64,"properties":[{"name":"variant","type":"int","value":2}]},{"id":1073,"name":"tree_1026","type":"tree","x":2144,"y":3200,"width":48,"height":64,"properties":[{"name":"variant","type":"int","value":0}]},{"id":1074,"name":"tree_1027","type":"tree","x":2176,"y":3200,"width":48,"height":64,"properties":[{"name":"variant","type":"int","value":1}]},{"id":1075,"name":"tree_1028","type":"tree","x":2208,"y":3200,"width":48,"height":64,"properties":[{"name":"variant","type":"int","value":2}]},{"id":1076,"name":"tree_1029","type":"tree","x":3040,"y":3200,"width":48,"height":64,"properties":[{"name":"variant","type":"int","value":0}]},{"id":1077,"name":"tree_1030","type":"tree","x":3264,"y":3200,"width":48,"height":64,"properties":[{"name":"variant","type":"int","value":1}]},{"id":1078,"name":"tree_1031","type":"tree","x":3360,"y":3200,"width":48,"height":64,"properties":[{"name":"variant","type":"int","value":2}]},{"id":1079,"name":"tree_1032","type":"tree","x":3424,"y":3200,"width":48,"height":64,"properties":[{"name":"variant","type":"int","value":0}]},{"id":1080,"name":"tree_1033","type":"tree","x":3488,"y":3200,"width":48,"height":64,"properties":[{"name":"variant","type":"int","value":1}]},{"id":1081,"name":"tree_1034","type":"tree","x":3520,"y":3200,"width":48,"height":64,"properties":[{"name":"variant","type":"int","value":2}]},{"id":1082,"name":"tree_1035","type":"tree","x":3616,"y":3200,"width":48,"height":64,"properties":[{"name":"variant","type":"int","value":0}]},{"id":1083,"name":"tree_1036","type":"tree","x":3712,"y":3200,"width":48,"height":64,"properties":[{"name":"variant","type":"int","value":1}]},{"id":1084,"name":"tree_1037","type":"tree","x":3872,"y":3200,"width":48,"height":64,"properties":[{"name":"variant","type":"int","value":2}]},{"id":1085,"name":"tree_1038","type":"tree","x":4256,"y":3200,"width":48,"height":64,"properties":[{"name":"variant","type":"int","value":0}]},{"id":1086,"name":"tree_1039","type":"tree","x":4320,"y":3200,"width":48,"height":64,"properties":[{"name":"variant","type":"int","value":1}]},{"id":1087,"name":"tree_1040","type":"tree","x":4480,"y":3200,"width":48,"height":64,"properties":[{"name":"variant","type":"int","value":2}]},{"id":1088,"name":"tree_1041","type":"tree","x":4736,"y":3200,"width":48,"height":64,"properties":[{"name":"variant","type":"int","value":0}]},{"id":1089,"name":"tree_1042","type":"tree","x":4832,"y":3200,"width":48,"height":64,"properties":[{"name":"variant","type":"int","value":1}]},{"id":1090,"name":"tree_1043","type":"tree","x":5024,"y":3200,"width":48,"height":64,"properties":[{"name":"variant","type":"int","value":2}]},{"id":1091,"name":"tree_1044","type":"tree","x":5152,"y":3200,"width":48,"height":64,"properties":[{"name":"variant","type":"int","value":0}]},{"id":1092,"name":"tree_1045","type":"tree","x":5184,"y":3200,"width":48,"height":64,"properties":[{"name":"variant","type":"int","value":1}]},{"id":1093,"name":"tree_1046","type":"tree","x":5216,"y":3200,"width":48,"height":64,"properties":[{"name":"variant","type":"int","value":2}]},{"id":1094,"name":"tree_1047","type":"tree","x":5312,"y":3200,"width":48,"height":64,"properties":[{"name":"variant","type":"int","value":0}]},{"id":1095,"name":"tree_1048","type":"tree","x":5376,"y":3200,"width":48,"height":64,"properties":[{"name":"variant","type":"int","value":1}]},{"id":1096,"name":"tree_1049","type":"tree","x":5504,"y":3200,"width":48,"height":64,"properties":[{"name":"variant","type":"int","value":2}]},{"id":1097,"name":"tree_1050","type":"tree","x":6144,"y":3200,"width":48,"height":64,"properties":[{"name":"variant","type":"int","value":0}]},{"id":1098,"name":"tree_1051","type":"tree","x":6272,"y":3200,"width":48,"height":64,"properties":[{"name":"variant","type":"int","value":1}]},{"id":1099,"name":"tree_1052","type":"tree","x":6464,"y":3200,"width":48,"height":64,"properties":[{"name":"variant","type":"int","value":2}]},{"id":1100,"name":"tree_1053","type":"tree","x":6496,"y":3200,"width":48,"height":64,"properties":[{"name":"variant","type":"int","value":0}]},{"id":1101,"name":"tree_1054","type":"tree","x":1888,"y":3232,"width":48,"height":64,"properties":[{"name":"variant","type":"int","value":1}]},{"id":1102,"name":"tree_1055","type":"tree","x":2048,"y":3232,"width":48,"height":64,"properties":[{"name":"variant","type":"int","value":2}]},{"id":1103,"name":"tree_1056","type":"tree","x":2112,"y":3232,"width":48,"height":64,"properties":[{"name":"variant","type":"int","value":0}]},{"id":1104,"name":"tree_1057","type":"tree","x":2144,"y":3232,"width":48,"height":64,"properties":[{"name":"variant","type":"int","value":1}]},{"id":1105,"name":"tree_1058","type":"tree","x":2272,"y":3232,"width":48,"height":64,"properties":[{"name":"variant","type":"int","value":2}]},{"id":1106,"name":"tree_1059","type":"tree","x":3264,"y":3232,"width":48,"height":64,"properties":[{"name":"variant","type":"int","value":0}]},{"id":1107,"name":"tree_1060","type":"tree","x":3296,"y":3232,"width":48,"height":64,"properties":[{"name":"variant","type":"int","value":1}]},{"id":1108,"name":"tree_1061","type":"tree","x":3360,"y":3232,"width":48,"height":64,"properties":[{"name":"variant","type":"int","value":2}]},{"id":1109,"name":"tree_1062","type":"tree","x":3424,"y":3232,"width":48,"height":64,"properties":[{"name":"variant","type":"int","value":0}]},{"id":1110,"name":"tree_1063","type":"tree","x":3584,"y":3232,"width":48,"height":64,"properties":[{"name":"variant","type":"int","value":1}]},{"id":1111,"name":"tree_1064","type":"tree","x":3648,"y":3232,"width":48,"height":64,"properties":[{"name":"variant","type":"int","value":2}]},{"id":1112,"name":"tree_1065","type":"tree","x":3776,"y":3232,"width":48,"height":64,"properties":[{"name":"variant","type":"int","value":0}]},{"id":1113,"name":"tree_1066","type":"tree","x":4256,"y":3232,"width":48,"height":64,"properties":[{"name":"variant","type":"int","value":1}]},{"id":1114,"name":"tree_1067","type":"tree","x":4288,"y":3232,"width":48,"height":64,"properties":[{"name":"variant","type":"int","value":2}]},{"id":1115,"name":"tree_1068","type":"tree","x":4320,"y":3232,"width":48,"height":64,"properties":[{"name":"variant","type":"int","value":0}]},{"id":1116,"name":"tree_1069","type":"tree","x":4480,"y":3232,"width":48,"height":64,"properties":[{"name":"variant","type":"int","value":1}]},{"id":1117,"name":"tree_1070","type":"tree","x":4512,"y":3232,"width":48,"height":64,"properties":[{"name":"variant","type":"int","value":2}]},{"id":1118,"name":"tree_1071","type":"tree","x":4704,"y":3232,"width":48,"height":64,"properties":[{"name":"variant","type":"int","value":0}]},{"id":1119,"name":"tree_1072","type":"tree","x":4832,"y":3232,"width":48,"height":64,"properties":[{"name":"variant","type":"int","value":1}]},{"id":1120,"name":"tree_1073","type":"tree","x":4864,"y":3232,"width":48,"height":64,"properties":[{"name":"variant","type":"int","value":2}]},{"id":1121,"name":"tree_1074","type":"tree","x":4896,"y":3232,"width":48,"height":64,"properties":[{"name":"variant","type":"int","value":0}]},{"id":1122,"name":"tree_1075","type":"tree","x":4960,"y":3232,"width":48,"height":64,"properties":[{"name":"variant","type":"int","value":1}]},{"id":1123,"name":"tree_1076","type":"tree","x":4992,"y":3232,"width":48,"height":64,"properties":[{"name":"variant","type":"int","value":2}]},{"id":1124,"name":"tree_1077","type":"tree","x":5184,"y":3232,"width":48,"height":64,"properties":[{"name":"variant","type":"int","value":0}]},{"id":1125,"name":"tree_1078","type":"tree","x":5344,"y":3232,"width":48,"height":64,"properties":[{"name":"variant","type":"int","value":1}]},{"id":1126,"name":"tree_1079","type":"tree","x":5536,"y":3232,"width":48,"height":64,"properties":[{"name":"variant","type":"int","value":2}]},{"id":1127,"name":"tree_1080","type":"tree","x":6144,"y":3232,"width":48,"height":64,"properties":[{"name":"variant","type":"int","value":0}]},{"id":1128,"name":"tree_1081","type":"tree","x":6400,"y":3232,"width":48,"height":64,"properties":[{"name":"variant","type":"int","value":1}]},{"id":1129,"name":"tree_1082","type":"tree","x":2016,"y":3264,"width":48,"height":64,"properties":[{"name":"variant","type":"int","value":2}]},{"id":1130,"name":"tree_1083","type":"tree","x":2048,"y":3264,"width":48,"height":64,"properties":[{"name":"variant","type":"int","value":0}]},{"id":1131,"name":"tree_1084","type":"tree","x":2112,"y":3264,"width":48,"height":64,"properties":[{"name":"variant","type":"int","value":1}]},{"id":1132,"name":"tree_1085","type":"tree","x":3232,"y":3264,"width":48,"height":64,"properties":[{"name":"variant","type":"int","value":2}]},{"id":1133,"name":"tree_1086","type":"tree","x":3264,"y":3264,"width":48,"height":64,"properties":[{"name":"variant","type":"int","value":0}]},{"id":1134,"name":"tree_1087","type":"tree","x":3296,"y":3264,"width":48,"height":64,"properties":[{"name":"variant","type":"int","value":1}]},{"id":1135,"name":"tree_1088","type":"tree","x":3328,"y":3264,"width":48,"height":64,"properties":[{"name":"variant","type":"int","value":2}]},{"id":1136,"name":"tree_1089","type":"tree","x":3360,"y":3264,"width":48,"height":64,"properties":[{"name":"variant","type":"int","value":0}]},{"id":1137,"name":"tree_1090","type":"tree","x":3680,"y":3264,"width":48,"height":64,"properties":[{"name":"variant","type":"int","value":1}]},{"id":1138,"name":"tree_1091","type":"tree","x":3712,"y":3264,"width":48,"height":64,"properties":[{"name":"variant","type":"int","value":2}]},{"id":1139,"name":"tree_1092","type":"tree","x":4032,"y":3264,"width":48,"height":64,"properties":[{"name":"variant","type":"int","value":0}]},{"id":1140,"name":"tree_1093","type":"tree","x":4128,"y":3264,"width":48,"height":64,"properties":[{"name":"variant","type":"int","value":1}]},{"id":1141,"name":"tree_1094","type":"tree","x":4224,"y":3264,"width":48,"height":64,"properties":[{"name":"variant","type":"int","value":2}]},{"id":1142,"name":"tree_1095","type":"tree","x":4288,"y":3264,"width":48,"height":64,"properties":[{"name":"variant","type":"int","value":0}]},{"id":1143,"name":"tree_1096","type":"tree","x":4704,"y":3264,"width":48,"height":64,"properties":[{"name":"variant","type":"int","value":1}]},{"id":1144,"name":"tree_1097","type":"tree","x":4768,"y":3264,"width":48,"height":64,"properties":[{"name":"variant","type":"int","value":2}]},{"id":1145,"name":"tree_1098","type":"tree","x":5024,"y":3264,"width":48,"height":64,"properties":[{"name":"variant","type":"int","value":0}]},{"id":1146,"name":"tree_1099","type":"tree","x":5248,"y":3264,"width":48,"height":64,"properties":[{"name":"variant","type":"int","value":1}]},{"id":1147,"name":"tree_1100","type":"tree","x":5440,"y":3264,"width":48,"height":64,"properties":[{"name":"variant","type":"int","value":2}]},{"id":1148,"name":"tree_1101","type":"tree","x":6048,"y":3264,"width":48,"height":64,"properties":[{"name":"variant","type":"int","value":0}]},{"id":1149,"name":"tree_1102","type":"tree","x":6112,"y":3264,"width":48,"height":64,"properties":[{"name":"variant","type":"int","value":1}]},{"id":1150,"name":"tree_1103","type":"tree","x":1888,"y":3296,"width":48,"height":64,"properties":[{"name":"variant","type":"int","value":2}]},{"id":1151,"name":"tree_1104","type":"tree","x":1920,"y":3296,"width":48,"height":64,"properties":[{"name":"variant","type":"int","value":0}]},{"id":1152,"name":"tree_1105","type":"tree","x":2720,"y":3296,"width":48,"height":64,"properties":[{"name":"variant","type":"int","value":1}]},{"id":1153,"name":"tree_1106","type":"tree","x":2752,"y":3296,"width":48,"height":64,"properties":[{"name":"variant","type":"int","value":2}]},{"id":1154,"name":"tree_1107","type":"tree","x":3392,"y":3296,"width":48,"height":64,"properties":[{"name":"variant","type":"int","value":0}]},{"id":1155,"name":"tree_1108","type":"tree","x":3424,"y":3296,"width":48,"height":64,"properties":[{"name":"variant","type":"int","value":1}]},{"id":1156,"name":"tree_1109","type":"tree","x":3456,"y":3296,"width":48,"height":64,"properties":[{"name":"variant","type":"int","value":2}]},{"id":1157,"name":"tree_1110","type":"tree","x":3520,"y":3296,"width":48,"height":64,"properties":[{"name":"variant","type":"int","value":0}]},{"id":1158,"name":"tree_1111","type":"tree","x":3552,"y":3296,"width":48,"height":64,"properties":[{"name":"variant","type":"int","value":1}]},{"id":1159,"name":"tree_1112","type":"tree","x":3648,"y":3296,"width":48,"height":64,"properties":[{"name":"variant","type":"int","value":2}]},{"id":1160,"name":"tree_1113","type":"tree","x":3712,"y":3296,"width":48,"height":64,"properties":[{"name":"variant","type":"int","value":0}]},{"id":1161,"name":"tree_1114","type":"tree","x":3872,"y":3296,"width":48,"height":64,"properties":[{"name":"variant","type":"int","value":1}]},{"id":1162,"name":"tree_1115","type":"tree","x":3904,"y":3296,"width":48,"height":64,"properties":[{"name":"variant","type":"int","value":2}]},{"id":1163,"name":"tree_1116","type":"tree","x":3936,"y":3296,"width":48,"height":64,"properties":[{"name":"variant","type":"int","value":0}]},{"id":1164,"name":"tree_1117","type":"tree","x":3968,"y":3296,"width":48,"height":64,"properties":[{"name":"variant","type":"int","value":1}]},{"id":1165,"name":"tree_1118","type":"tree","x":4064,"y":3296,"width":48,"height":64,"properties":[{"name":"variant","type":"int","value":2}]},{"id":1166,"name":"tree_1119","type":"tree","x":4192,"y":3296,"width":48,"height":64,"properties":[{"name":"variant","type":"int","value":0}]},{"id":1167,"name":"tree_1120","type":"tree","x":4256,"y":3296,"width":48,"height":64,"properties":[{"name":"variant","type":"int","value":1}]},{"id":1168,"name":"tree_1121","type":"tree","x":4288,"y":3296,"width":48,"height":64,"properties":[{"name":"variant","type":"int","value":2}]},{"id":1169,"name":"tree_1122","type":"tree","x":4608,"y":3296,"width":48,"height":64,"properties":[{"name":"variant","type":"int","value":0}]},{"id":1170,"name":"tree_1123","type":"tree","x":4640,"y":3296,"width":48,"height":64,"properties":[{"name":"variant","type":"int","value":1}]},{"id":1171,"name":"tree_1124","type":"tree","x":4672,"y":3296,"width":48,"height":64,"properties":[{"name":"variant","type":"int","value":2}]},{"id":1172,"name":"tree_1125","type":"tree","x":4992,"y":3296,"width":48,"height":64,"properties":[{"name":"variant","type":"int","value":0}]},{"id":1173,"name":"tree_1126","type":"tree","x":5056,"y":3296,"width":48,"height":64,"properties":[{"name":"variant","type":"int","value":1}]},{"id":1174,"name":"tree_1127","type":"tree","x":5184,"y":3296,"width":48,"height":64,"properties":[{"name":"variant","type":"int","value":2}]},{"id":1175,"name":"tree_1128","type":"tree","x":5312,"y":3296,"width":48,"height":64,"properties":[{"name":"variant","type":"int","value":0}]},{"id":1176,"name":"tree_1129","type":"tree","x":5376,"y":3296,"width":48,"height":64,"properties":[{"name":"variant","type":"int","value":1}]},{"id":1177,"name":"tree_1130","type":"tree","x":5408,"y":3296,"width":48,"height":64,"properties":[{"name":"variant","type":"int","value":2}]},{"id":1178,"name":"tree_1131","type":"tree","x":5440,"y":3296,"width":48,"height":64,"properties":[{"name":"variant","type":"int","value":0}]},{"id":1179,"name":"tree_1132","type":"tree","x":6016,"y":3296,"width":48,"height":64,"properties":[{"name":"variant","type":"int","value":1}]},{"id":1180,"name":"tree_1133","type":"tree","x":6048,"y":3296,"width":48,"height":64,"properties":[{"name":"variant","type":"int","value":2}]},{"id":1181,"name":"tree_1134","type":"tree","x":6112,"y":3296,"width":48,"height":64,"properties":[{"name":"variant","type":"int","value":0}]},{"id":1182,"name":"tree_1135","type":"tree","x":6144,"y":3296,"width":48,"height":64,"properties":[{"name":"variant","type":"int","value":1}]},{"id":1183,"name":"tree_1136","type":"tree","x":6336,"y":3296,"width":48,"height":64,"properties":[{"name":"variant","type":"int","value":2}]},{"id":1184,"name":"tree_1137","type":"tree","x":2720,"y":3328,"width":48,"height":64,"properties":[{"name":"variant","type":"int","value":0}]},{"id":1185,"name":"tree_1138","type":"tree","x":2816,"y":3328,"width":48,"height":64,"properties":[{"name":"variant","type":"int","value":1}]},{"id":1186,"name":"tree_1139","type":"tree","x":3264,"y":3328,"width":48,"height":64,"properties":[{"name":"variant","type":"int","value":2}]},{"id":1187,"name":"tree_1140","type":"tree","x":3296,"y":3328,"width":48,"height":64,"properties":[{"name":"variant","type":"int","value":0}]},{"id":1188,"name":"tree_1141","type":"tree","x":3392,"y":3328,"width":48,"height":64,"properties":[{"name":"variant","type":"int","value":1}]},{"id":1189,"name":"tree_1142","type":"tree","x":3456,"y":3328,"width":48,"height":64,"properties":[{"name":"variant","type":"int","value":2}]},{"id":1190,"name":"tree_1143","type":"tree","x":3584,"y":3328,"width":48,"height":64,"properties":[{"name":"variant","type":"int","value":0}]},{"id":1191,"name":"tree_1144","type":"tree","x":3648,"y":3328,"width":48,"height":64,"properties":[{"name":"variant","type":"int","value":1}]},{"id":1192,"name":"tree_1145","type":"tree","x":3712,"y":3328,"width":48,"height":64,"properties":[{"name":"variant","type":"int","value":2}]},{"id":1193,"name":"tree_1146","type":"tree","x":3776,"y":3328,"width":48,"height":64,"properties":[{"name":"variant","type":"int","value":0}]},{"id":1194,"name":"tree_1147","type":"tree","x":3872,"y":3328,"width":48,"height":64,"properties":[{"name":"variant","type":"int","value":1}]},{"id":1195,"name":"tree_1148","type":"tree","x":3968,"y":3328,"width":48,"height":64,"properties":[{"name":"variant","type":"int","value":2}]},{"id":1196,"name":"tree_1149","type":"tree","x":4096,"y":3328,"width":48,"height":64,"properties":[{"name":"variant","type":"int","value":0}]},{"id":1197,"name":"tree_1150","type":"tree","x":4128,"y":3328,"width":48,"height":64,"properties":[{"name":"variant","type":"int","value":1}]},{"id":1198,"name":"tree_1151","type":"tree","x":4224,"y":3328,"width":48,"height":64,"properties":[{"name":"variant","type":"int","value":2}]},{"id":1199,"name":"tree_1152","type":"tree","x":4256,"y":3328,"width":48,"height":64,"properties":[{"name":"variant","type":"int","value":0}]},{"id":1200,"name":"tree_1153","type":"tree","x":4320,"y":3328,"width":48,"height":64,"properties":[{"name":"variant","type":"int","value":1}]},{"id":1201,"name":"tree_1154","type":"tree","x":4352,"y":3328,"width":48,"height":64,"properties":[{"name":"variant","type":"int","value":2}]},{"id":1202,"name":"tree_1155","type":"tree","x":4480,"y":3328,"width":48,"height":64,"properties":[{"name":"variant","type":"int","value":0}]},{"id":1203,"name":"tree_1156","type":"tree","x":4512,"y":3328,"width":48,"height":64,"properties":[{"name":"variant","type":"int","value":1}]},{"id":1204,"name":"tree_1157","type":"tree","x":4672,"y":3328,"width":48,"height":64,"properties":[{"name":"variant","type":"int","value":2}]},{"id":1205,"name":"tree_1158","type":"tree","x":4704,"y":3328,"width":48,"height":64,"properties":[{"name":"variant","type":"int","value":0}]},{"id":1206,"name":"tree_1159","type":"tree","x":4928,"y":3328,"width":48,"height":64,"properties":[{"name":"variant","type":"int","value":1}]},{"id":1207,"name":"tree_1160","type":"tree","x":4960,"y":3328,"width":48,"height":64,"properties":[{"name":"variant","type":"int","value":2}]},{"id":1208,"name":"tree_1161","type":"tree","x":5024,"y":3328,"width":48,"height":64,"properties":[{"name":"variant","type":"int","value":0}]},{"id":1209,"name":"tree_1162","type":"tree","x":5216,"y":3328,"width":48,"height":64,"properties":[{"name":"variant","type":"int","value":1}]},{"id":1210,"name":"tree_1163","type":"tree","x":5248,"y":3328,"width":48,"height":64,"properties":[{"name":"variant","type":"int","value":2}]},{"id":1211,"name":"tree_1164","type":"tree","x":5376,"y":3328,"width":48,"height":64,"properties":[{"name":"variant","type":"int","value":0}]},{"id":1212,"name":"tree_1165","type":"tree","x":6240,"y":3328,"width":48,"height":64,"properties":[{"name":"variant","type":"int","value":1}]},{"id":1213,"name":"tree_1166","type":"tree","x":2176,"y":3360,"width":48,"height":64,"properties":[{"name":"variant","type":"int","value":2}]},{"id":1214,"name":"tree_1167","type":"tree","x":2208,"y":3360,"width":48,"height":64,"properties":[{"name":"variant","type":"int","value":0}]},{"id":1215,"name":"tree_1168","type":"tree","x":2880,"y":3360,"width":48,"height":64,"properties":[{"name":"variant","type":"int","value":1}]},{"id":1216,"name":"tree_1169","type":"tree","x":3456,"y":3360,"width":48,"height":64,"properties":[{"name":"variant","type":"int","value":2}]},{"id":1217,"name":"tree_1170","type":"tree","x":3488,"y":3360,"width":48,"height":64,"properties":[{"name":"variant","type":"int","value":0}]},{"id":1218,"name":"tree_1171","type":"tree","x":3520,"y":3360,"width":48,"height":64,"properties":[{"name":"variant","type":"int","value":1}]},{"id":1219,"name":"tree_1172","type":"tree","x":3552,"y":3360,"width":48,"height":64,"properties":[{"name":"variant","type":"int","value":2}]},{"id":1220,"name":"tree_1173","type":"tree","x":3584,"y":3360,"width":48,"height":64,"properties":[{"name":"variant","type":"int","value":0}]},{"id":1221,"name":"tree_1174","type":"tree","x":3968,"y":3360,"width":48,"height":64,"properties":[{"name":"variant","type":"int","value":1}]},{"id":1222,"name":"tree_1175","type":"tree","x":4000,"y":3360,"width":48,"height":64,"properties":[{"name":"variant","type":"int","value":2}]},{"id":1223,"name":"tree_1176","type":"tree","x":4032,"y":3360,"width":48,"height":64,"properties":[{"name":"variant","type":"int","value":0}]},{"id":1224,"name":"tree_1177","type":"tree","x":4160,"y":3360,"width":48,"height":64,"properties":[{"name":"variant","type":"int","value":1}]},{"id":1225,"name":"tree_1178","type":"tree","x":4224,"y":3360,"width":48,"height":64,"properties":[{"name":"variant","type":"int","value":2}]},{"id":1226,"name":"tree_1179","type":"tree","x":4256,"y":3360,"width":48,"height":64,"properties":[{"name":"variant","type":"int","value":0}]},{"id":1227,"name":"tree_1180","type":"tree","x":4544,"y":3360,"width":48,"height":64,"properties":[{"name":"variant","type":"int","value":1}]},{"id":1228,"name":"tree_1181","type":"tree","x":4608,"y":3360,"width":48,"height":64,"properties":[{"name":"variant","type":"int","value":2}]},{"id":1229,"name":"tree_1182","type":"tree","x":4640,"y":3360,"width":48,"height":64,"properties":[{"name":"variant","type":"int","value":0}]},{"id":1230,"name":"tree_1183","type":"tree","x":4704,"y":3360,"width":48,"height":64,"properties":[{"name":"variant","type":"int","value":1}]},{"id":1231,"name":"tree_1184","type":"tree","x":4736,"y":3360,"width":48,"height":64,"properties":[{"name":"variant","type":"int","value":2}]},{"id":1232,"name":"tree_1185","type":"tree","x":4768,"y":3360,"width":48,"height":64,"properties":[{"name":"variant","type":"int","value":0}]},{"id":1233,"name":"tree_1186","type":"tree","x":5024,"y":3360,"width":48,"height":64,"properties":[{"name":"variant","type":"int","value":1}]},{"id":1234,"name":"tree_1187","type":"tree","x":5056,"y":3360,"width":48,"height":64,"properties":[{"name":"variant","type":"int","value":2}]},{"id":1235,"name":"tree_1188","type":"tree","x":5280,"y":3360,"width":48,"height":64,"properties":[{"name":"variant","type":"int","value":0}]},{"id":1236,"name":"tree_1189","type":"tree","x":5344,"y":3360,"width":48,"height":64,"properties":[{"name":"variant","type":"int","value":1}]},{"id":1237,"name":"tree_1190","type":"tree","x":2048,"y":3392,"width":48,"height":64,"properties":[{"name":"variant","type":"int","value":2}]},{"id":1238,"name":"tree_1191","type":"tree","x":2720,"y":3392,"width":48,"height":64,"properties":[{"name":"variant","type":"int","value":0}]},{"id":1239,"name":"tree_1192","type":"tree","x":2816,"y":3392,"width":48,"height":64,"properties":[{"name":"variant","type":"int","value":1}]},{"id":1240,"name":"tree_1193","type":"tree","x":2880,"y":3392,"width":48,"height":64,"properties":[{"name":"variant","type":"int","value":2}]},{"id":1241,"name":"tree_1194","type":"tree","x":2912,"y":3392,"width":48,"height":64,"properties":[{"name":"variant","type":"int","value":0}]},{"id":1242,"name":"tree_1195","type":"tree","x":2944,"y":3392,"width":48,"height":64,"properties":[{"name":"variant","type":"int","value":1}]},{"id":1243,"name":"tree_1196","type":"tree","x":3360,"y":3392,"width":48,"height":64,"properties":[{"name":"variant","type":"int","value":2}]},{"id":1244,"name":"tree_1197","type":"tree","x":3424,"y":3392,"width":48,"height":64,"properties":[{"name":"variant","type":"int","value":0}]},{"id":1245,"name":"tree_1198","type":"tree","x":3520,"y":3392,"width":48,"height":64,"properties":[{"name":"variant","type":"int","value":1}]},{"id":1246,"name":"tree_1199","type":"tree","x":3584,"y":3392,"width":48,"height":64,"properties":[{"name":"variant","type":"int","value":2}]},{"id":1247,"name":"tree_1200","type":"tree","x":3776,"y":3392,"width":48,"height":64,"properties":[{"name":"variant","type":"int","value":0}]},{"id":1248,"name":"tree_1201","type":"tree","x":3968,"y":3392,"width":48,"height":64,"properties":[{"name":"variant","type":"int","value":1}]},{"id":1249,"name":"tree_1202","type":"tree","x":4000,"y":3392,"width":48,"height":64,"properties":[{"name":"variant","type":"int","value":2}]},{"id":1250,"name":"tree_1203","type":"tree","x":4096,"y":3392,"width":48,"height":64,"properties":[{"name":"variant","type":"int","value":0}]},{"id":1251,"name":"tree_1204","type":"tree","x":4160,"y":3392,"width":48,"height":64,"properties":[{"name":"variant","type":"int","value":1}]},{"id":1252,"name":"tree_1205","type":"tree","x":4192,"y":3392,"width":48,"height":64,"properties":[{"name":"variant","type":"int","value":2}]},{"id":1253,"name":"tree_1206","type":"tree","x":4224,"y":3392,"width":48,"height":64,"properties":[{"name":"variant","type":"int","value":0}]},{"id":1254,"name":"tree_1207","type":"tree","x":4352,"y":3392,"width":48,"height":64,"properties":[{"name":"variant","type":"int","value":1}]},{"id":1255,"name":"tree_1208","type":"tree","x":4480,"y":3392,"width":48,"height":64,"properties":[{"name":"variant","type":"int","value":2}]},{"id":1256,"name":"tree_1209","type":"tree","x":4544,"y":3392,"width":48,"height":64,"properties":[{"name":"variant","type":"int","value":0}]},{"id":1257,"name":"tree_1210","type":"tree","x":4672,"y":3392,"width":48,"height":64,"properties":[{"name":"variant","type":"int","value":1}]},{"id":1258,"name":"tree_1211","type":"tree","x":4704,"y":3392,"width":48,"height":64,"properties":[{"name":"variant","type":"int","value":2}]},{"id":1259,"name":"tree_1212","type":"tree","x":4832,"y":3392,"width":48,"height":64,"properties":[{"name":"variant","type":"int","value":0}]},{"id":1260,"name":"tree_1213","type":"tree","x":4960,"y":3392,"width":48,"height":64,"properties":[{"name":"variant","type":"int","value":1}]},{"id":1261,"name":"tree_1214","type":"tree","x":5248,"y":3392,"width":48,"height":64,"properties":[{"name":"variant","type":"int","value":2}]},{"id":1262,"name":"tree_1215","type":"tree","x":5280,"y":3392,"width":48,"height":64,"properties":[{"name":"variant","type":"int","value":0}]},{"id":1263,"name":"tree_1216","type":"tree","x":5344,"y":3392,"width":48,"height":64,"properties":[{"name":"variant","type":"int","value":1}]},{"id":1264,"name":"tree_1217","type":"tree","x":6208,"y":3392,"width":48,"height":64,"properties":[{"name":"variant","type":"int","value":2}]},{"id":1265,"name":"tree_1218","type":"tree","x":1984,"y":3424,"width":48,"height":64,"properties":[{"name":"variant","type":"int","value":0}]},{"id":1266,"name":"tree_1219","type":"tree","x":2016,"y":3424,"width":48,"height":64,"properties":[{"name":"variant","type":"int","value":1}]},{"id":1267,"name":"tree_1220","type":"tree","x":2112,"y":3424,"width":48,"height":64,"properties":[{"name":"variant","type":"int","value":2}]},{"id":1268,"name":"tree_1221","type":"tree","x":2208,"y":3424,"width":48,"height":64,"properties":[{"name":"variant","type":"int","value":0}]},{"id":1269,"name":"tree_1222","type":"tree","x":2272,"y":3424,"width":48,"height":64,"properties":[{"name":"variant","type":"int","value":1}]},{"id":1270,"name":"tree_1223","type":"tree","x":2720,"y":3424,"width":48,"height":64,"properties":[{"name":"variant","type":"int","value":2}]},{"id":1271,"name":"tree_1224","type":"tree","x":2752,"y":3424,"width":48,"height":64,"properties":[{"name":"variant","type":"int","value":0}]},{"id":1272,"name":"tree_1225","type":"tree","x":2816,"y":3424,"width":48,"height":64,"properties":[{"name":"variant","type":"int","value":1}]},{"id":1273,"name":"tree_1226","type":"tree","x":2880,"y":3424,"width":48,"height":64,"properties":[{"name":"variant","type":"int","value":2}]},{"id":1274,"name":"tree_1227","type":"tree","x":3008,"y":3424,"width":48,"height":64,"properties":[{"name":"variant","type":"int","value":0}]},{"id":1275,"name":"tree_1228","type":"tree","x":3104,"y":3424,"width":48,"height":64,"properties":[{"name":"variant","type":"int","value":1}]},{"id":1276,"name":"tree_1229","type":"tree","x":3136,"y":3424,"width":48,"height":64,"properties":[{"name":"variant","type":"int","value":2}]},{"id":1277,"name":"tree_1230","type":"tree","x":3168,"y":3424,"width":48,"height":64,"properties":[{"name":"variant","type":"int","value":0}]},{"id":1278,"name":"tree_1231","type":"tree","x":3488,"y":3424,"width":48,"height":64,"properties":[{"name":"variant","type":"int","value":1}]},{"id":1279,"name":"tree_1232","type":"tree","x":3584,"y":3424,"width":48,"height":64,"properties":[{"name":"variant","type":"int","value":2}]},{"id":1280,"name":"tree_1233","type":"tree","x":3616,"y":3424,"width":48,"height":64,"properties":[{"name":"variant","type":"int","value":0}]},{"id":1281,"name":"tree_1234","type":"tree","x":3648,"y":3424,"width":48,"height":64,"properties":[{"name":"variant","type":"int","value":1}]},{"id":1282,"name":"tree_1235","type":"tree","x":3680,"y":3424,"width":48,"height":64,"properties":[{"name":"variant","type":"int","value":2}]},{"id":1283,"name":"tree_1236","type":"tree","x":3744,"y":3424,"width":48,"height":64,"properties":[{"name":"variant","type":"int","value":0}]},{"id":1284,"name":"tree_1237","type":"tree","x":3808,"y":3424,"width":48,"height":64,"properties":[{"name":"variant","type":"int","value":1}]},{"id":1285,"name":"tree_1238","type":"tree","x":3936,"y":3424,"width":48,"height":64,"properties":[{"name":"variant","type":"int","value":2}]},{"id":1286,"name":"tree_1239","type":"tree","x":4064,"y":3424,"width":48,"height":64,"properties":[{"name":"variant","type":"int","value":0}]},{"id":1287,"name":"tree_1240","type":"tree","x":4160,"y":3424,"width":48,"height":64,"properties":[{"name":"variant","type":"int","value":1}]},{"id":1288,"name":"tree_1241","type":"tree","x":4256,"y":3424,"width":48,"height":64,"properties":[{"name":"variant","type":"int","value":2}]},{"id":1289,"name":"tree_1242","type":"tree","x":4320,"y":3424,"width":48,"height":64,"properties":[{"name":"variant","type":"int","value":0}]},{"id":1290,"name":"tree_1243","type":"tree","x":4512,"y":3424,"width":48,"height":64,"properties":[{"name":"variant","type":"int","value":1}]},{"id":1291,"name":"tree_1244","type":"tree","x":4704,"y":3424,"width":48,"height":64,"properties":[{"name":"variant","type":"int","value":2}]},{"id":1292,"name":"tree_1245","type":"tree","x":4736,"y":3424,"width":48,"height":64,"properties":[{"name":"variant","type":"int","value":0}]},{"id":1293,"name":"tree_1246","type":"tree","x":4800,"y":3424,"width":48,"height":64,"properties":[{"name":"variant","type":"int","value":1}]},{"id":1294,"name":"tree_1247","type":"tree","x":4992,"y":3424,"width":48,"height":64,"properties":[{"name":"variant","type":"int","value":2}]},{"id":1295,"name":"tree_1248","type":"tree","x":5024,"y":3424,"width":48,"height":64,"properties":[{"name":"variant","type":"int","value":0}]},{"id":1296,"name":"tree_1249","type":"tree","x":5056,"y":3424,"width":48,"height":64,"properties":[{"name":"variant","type":"int","value":1}]},{"id":1297,"name":"tree_1250","type":"tree","x":6048,"y":3424,"width":48,"height":64,"properties":[{"name":"variant","type":"int","value":2}]},{"id":1298,"name":"tree_1251","type":"tree","x":6112,"y":3424,"width":48,"height":64,"properties":[{"name":"variant","type":"int","value":0}]},{"id":1299,"name":"tree_1252","type":"tree","x":6144,"y":3424,"width":48,"height":64,"properties":[{"name":"variant","type":"int","value":1}]},{"id":1300,"name":"tree_1253","type":"tree","x":6240,"y":3424,"width":48,"height":64,"properties":[{"name":"variant","type":"int","value":2}]},{"id":1301,"name":"tree_1254","type":"tree","x":1920,"y":3456,"width":48,"height":64,"properties":[{"name":"variant","type":"int","value":0}]},{"id":1302,"name":"tree_1255","type":"tree","x":2048,"y":3456,"width":48,"height":64,"properties":[{"name":"variant","type":"int","value":1}]},{"id":1303,"name":"tree_1256","type":"tree","x":2176,"y":3456,"width":48,"height":64,"properties":[{"name":"variant","type":"int","value":2}]},{"id":1304,"name":"tree_1257","type":"tree","x":2272,"y":3456,"width":48,"height":64,"properties":[{"name":"variant","type":"int","value":0}]},{"id":1305,"name":"tree_1258","type":"tree","x":2336,"y":3456,"width":48,"height":64,"properties":[{"name":"variant","type":"int","value":1}]},{"id":1306,"name":"tree_1259","type":"tree","x":2720,"y":3456,"width":48,"height":64,"properties":[{"name":"variant","type":"int","value":2}]},{"id":1307,"name":"tree_1260","type":"tree","x":2784,"y":3456,"width":48,"height":64,"properties":[{"name":"variant","type":"int","value":0}]},{"id":1308,"name":"tree_1261","type":"tree","x":2912,"y":3456,"width":48,"height":64,"properties":[{"name":"variant","type":"int","value":1}]},{"id":1309,"name":"tree_1262","type":"tree","x":2944,"y":3456,"width":48,"height":64,"properties":[{"name":"variant","type":"int","value":2}]},{"id":1310,"name":"tree_1263","type":"tree","x":3104,"y":3456,"width":48,"height":64,"properties":[{"name":"variant","type":"int","value":0}]},{"id":1311,"name":"tree_1264","type":"tree","x":3136,"y":3456,"width":48,"height":64,"properties":[{"name":"variant","type":"int","value":1}]},{"id":1312,"name":"tree_1265","type":"tree","x":3168,"y":3456,"width":48,"height":64,"properties":[{"name":"variant","type":"int","value":2}]},{"id":1313,"name":"tree_1266","type":"tree","x":3232,"y":3456,"width":48,"height":64,"properties":[{"name":"variant","type":"int","value":0}]},{"id":1314,"name":"tree_1267","type":"tree","x":3456,"y":3456,"width":48,"height":64,"properties":[{"name":"variant","type":"int","value":1}]},{"id":1315,"name":"tree_1268","type":"tree","x":3552,"y":3456,"width":48,"height":64,"properties":[{"name":"variant","type":"int","value":2}]},{"id":1316,"name":"tree_1269","type":"tree","x":3584,"y":3456,"width":48,"height":64,"properties":[{"name":"variant","type":"int","value":0}]},{"id":1317,"name":"tree_1270","type":"tree","x":3616,"y":3456,"width":48,"height":64,"properties":[{"name":"variant","type":"int","value":1}]},{"id":1318,"name":"tree_1271","type":"tree","x":3648,"y":3456,"width":48,"height":64,"properties":[{"name":"variant","type":"int","value":2}]},{"id":1319,"name":"tree_1272","type":"tree","x":3840,"y":3456,"width":48,"height":64,"properties":[{"name":"variant","type":"int","value":0}]},{"id":1320,"name":"tree_1273","type":"tree","x":3872,"y":3456,"width":48,"height":64,"properties":[{"name":"variant","type":"int","value":1}]},{"id":1321,"name":"tree_1274","type":"tree","x":3968,"y":3456,"width":48,"height":64,"properties":[{"name":"variant","type":"int","value":2}]},{"id":1322,"name":"tree_1275","type":"tree","x":4128,"y":3456,"width":48,"height":64,"properties":[{"name":"variant","type":"int","value":0}]},{"id":1323,"name":"tree_1276","type":"tree","x":4288,"y":3456,"width":48,"height":64,"properties":[{"name":"variant","type":"int","value":1}]},{"id":1324,"name":"tree_1277","type":"tree","x":4352,"y":3456,"width":48,"height":64,"properties":[{"name":"variant","type":"int","value":2}]},{"id":1325,"name":"tree_1278","type":"tree","x":4512,"y":3456,"width":48,"height":64,"properties":[{"name":"variant","type":"int","value":0}]},{"id":1326,"name":"tree_1279","type":"tree","x":4544,"y":3456,"width":48,"height":64,"properties":[{"name":"variant","type":"int","value":1}]},{"id":1327,"name":"tree_1280","type":"tree","x":4576,"y":3456,"width":48,"height":64,"properties":[{"name":"variant","type":"int","value":2}]},{"id":1328,"name":"tree_1281","type":"tree","x":4640,"y":3456,"width":48,"height":64,"properties":[{"name":"variant","type":"int","value":0}]},{"id":1329,"name":"tree_1282","type":"tree","x":4736,"y":3456,"width":48,"height":64,"properties":[{"name":"variant","type":"int","value":1}]},{"id":1330,"name":"tree_1283","type":"tree","x":4832,"y":3456,"width":48,"height":64,"properties":[{"name":"variant","type":"int","value":2}]},{"id":1331,"name":"tree_1284","type":"tree","x":4928,"y":3456,"width":48,"height":64,"properties":[{"name":"variant","type":"int","value":0}]},{"id":1332,"name":"tree_1285","type":"tree","x":5024,"y":3456,"width":48,"height":64,"properties":[{"name":"variant","type":"int","value":1}]},{"id":1333,"name":"tree_1286","type":"tree","x":5600,"y":3456,"width":48,"height":64,"properties":[{"name":"variant","type":"int","value":2}]},{"id":1334,"name":"tree_1287","type":"tree","x":5632,"y":3456,"width":48,"height":64,"properties":[{"name":"variant","type":"int","value":0}]},{"id":1335,"name":"tree_1288","type":"tree","x":5888,"y":3456,"width":48,"height":64,"properties":[{"name":"variant","type":"int","value":1}]},{"id":1336,"name":"tree_1289","type":"tree","x":6080,"y":3456,"width":48,"height":64,"properties":[{"name":"variant","type":"int","value":2}]},{"id":1337,"name":"tree_1290","type":"tree","x":6144,"y":3456,"width":48,"height":64,"properties":[{"name":"variant","type":"int","value":0}]},{"id":1338,"name":"tree_1291","type":"tree","x":6208,"y":3456,"width":48,"height":64,"properties":[{"name":"variant","type":"int","value":1}]},{"id":1339,"name":"tree_1292","type":"tree","x":2176,"y":3488,"width":48,"height":64,"properties":[{"name":"variant","type":"int","value":2}]},{"id":1340,"name":"tree_1293","type":"tree","x":2208,"y":3488,"width":48,"height":64,"properties":[{"name":"variant","type":"int","value":0}]},{"id":1341,"name":"tree_1294","type":"tree","x":2304,"y":3488,"width":48,"height":64,"properties":[{"name":"variant","type":"int","value":1}]},{"id":1342,"name":"tree_1295","type":"tree","x":2336,"y":3488,"width":48,"height":64,"properties":[{"name":"variant","type":"int","value":2}]},{"id":1343,"name":"tree_1296","type":"tree","x":2848,"y":3488,"width":48,"height":64,"properties":[{"name":"variant","type":"int","value":0}]},{"id":1344,"name":"tree_1297","type":"tree","x":2912,"y":3488,"width":48,"height":64,"properties":[{"name":"variant","type":"int","value":1}]},{"id":1345,"name":"tree_1298","type":"tree","x":2976,"y":3488,"width":48,"height":64,"properties":[{"name":"variant","type":"int","value":2}]},{"id":1346,"name":"tree_1299","type":"tree","x":3136,"y":3488,"width":48,"height":64,"properties":[{"name":"variant","type":"int","value":0}]},{"id":1347,"name":"tree_1300","type":"tree","x":3296,"y":3488,"width":48,"height":64,"properties":[{"name":"variant","type":"int","value":1}]},{"id":1348,"name":"tree_1301","type":"tree","x":3328,"y":3488,"width":48,"height":64,"properties":[{"name":"variant","type":"int","value":2}]},{"id":1349,"name":"tree_1302","type":"tree","x":3360,"y":3488,"width":48,"height":64,"properties":[{"name":"variant","type":"int","value":0}]},{"id":1350,"name":"tree_1303","type":"tree","x":3424,"y":3488,"width":48,"height":64,"properties":[{"name":"variant","type":"int","value":1}]},{"id":1351,"name":"tree_1304","type":"tree","x":3616,"y":3488,"width":48,"height":64,"properties":[{"name":"variant","type":"int","value":2}]},{"id":1352,"name":"tree_1305","type":"tree","x":3712,"y":3488,"width":48,"height":64,"properties":[{"name":"variant","type":"int","value":0}]},{"id":1353,"name":"tree_1306","type":"tree","x":3904,"y":3488,"width":48,"height":64,"properties":[{"name":"variant","type":"int","value":1}]},{"id":1354,"name":"tree_1307","type":"tree","x":3936,"y":3488,"width":48,"height":64,"properties":[{"name":"variant","type":"int","value":2}]},{"id":1355,"name":"tree_1308","type":"tree","x":3968,"y":3488,"width":48,"height":64,"properties":[{"name":"variant","type":"int","value":0}]},{"id":1356,"name":"tree_1309","type":"tree","x":4000,"y":3488,"width":48,"height":64,"properties":[{"name":"variant","type":"int","value":1}]},{"id":1357,"name":"tree_1310","type":"tree","x":4128,"y":3488,"width":48,"height":64,"properties":[{"name":"variant","type":"int","value":2}]},{"id":1358,"name":"tree_1311","type":"tree","x":4192,"y":3488,"width":48,"height":64,"properties":[{"name":"variant","type":"int","value":0}]},{"id":1359,"name":"tree_1312","type":"tree","x":4224,"y":3488,"width":48,"height":64,"properties":[{"name":"variant","type":"int","value":1}]},{"id":1360,"name":"tree_1313","type":"tree","x":4480,"y":3488,"width":48,"height":64,"properties":[{"name":"variant","type":"int","value":2}]},{"id":1361,"name":"tree_1314","type":"tree","x":4704,"y":3488,"width":48,"height":64,"properties":[{"name":"variant","type":"int","value":0}]},{"id":1362,"name":"tree_1315","type":"tree","x":4736,"y":3488,"width":48,"height":64,"properties":[{"name":"variant","type":"int","value":1}]},{"id":1363,"name":"tree_1316","type":"tree","x":4768,"y":3488,"width":48,"height":64,"properties":[{"name":"variant","type":"int","value":2}]},{"id":1364,"name":"tree_1317","type":"tree","x":4832,"y":3488,"width":48,"height":64,"properties":[{"name":"variant","type":"int","value":0}]},{"id":1365,"name":"tree_1318","type":"tree","x":4864,"y":3488,"width":48,"height":64,"properties":[{"name":"variant","type":"int","value":1}]},{"id":1366,"name":"tree_1319","type":"tree","x":4896,"y":3488,"width":48,"height":64,"properties":[{"name":"variant","type":"int","value":2}]},{"id":1367,"name":"tree_1320","type":"tree","x":4928,"y":3488,"width":48,"height":64,"properties":[{"name":"variant","type":"int","value":0}]},{"id":1368,"name":"tree_1321","type":"tree","x":4992,"y":3488,"width":48,"height":64,"properties":[{"name":"variant","type":"int","value":1}]},{"id":1369,"name":"tree_1322","type":"tree","x":5024,"y":3488,"width":48,"height":64,"properties":[{"name":"variant","type":"int","value":2}]},{"id":1370,"name":"tree_1323","type":"tree","x":5440,"y":3488,"width":48,"height":64,"properties":[{"name":"variant","type":"int","value":0}]},{"id":1371,"name":"tree_1324","type":"tree","x":5472,"y":3488,"width":48,"height":64,"properties":[{"name":"variant","type":"int","value":1}]},{"id":1372,"name":"tree_1325","type":"tree","x":5536,"y":3488,"width":48,"height":64,"properties":[{"name":"variant","type":"int","value":2}]},{"id":1373,"name":"tree_1326","type":"tree","x":5632,"y":3488,"width":48,"height":64,"properties":[{"name":"variant","type":"int","value":0}]},{"id":1374,"name":"tree_1327","type":"tree","x":5696,"y":3488,"width":48,"height":64,"properties":[{"name":"variant","type":"int","value":1}]},{"id":1375,"name":"tree_1328","type":"tree","x":5728,"y":3488,"width":48,"height":64,"properties":[{"name":"variant","type":"int","value":2}]},{"id":1376,"name":"tree_1329","type":"tree","x":5920,"y":3488,"width":48,"height":64,"properties":[{"name":"variant","type":"int","value":0}]},{"id":1377,"name":"tree_1330","type":"tree","x":6048,"y":3488,"width":48,"height":64,"properties":[{"name":"variant","type":"int","value":1}]},{"id":1378,"name":"tree_1331","type":"tree","x":6080,"y":3488,"width":48,"height":64,"properties":[{"name":"variant","type":"int","value":2}]},{"id":1379,"name":"tree_1332","type":"tree","x":2048,"y":3520,"width":48,"height":64,"properties":[{"name":"variant","type":"int","value":0}]},{"id":1380,"name":"tree_1333","type":"tree","x":2176,"y":3520,"width":48,"height":64,"properties":[{"name":"variant","type":"int","value":1}]},{"id":1381,"name":"tree_1334","type":"tree","x":2240,"y":3520,"width":48,"height":64,"properties":[{"name":"variant","type":"int","value":2}]},{"id":1382,"name":"tree_1335","type":"tree","x":2400,"y":3520,"width":48,"height":64,"properties":[{"name":"variant","type":"int","value":0}]},{"id":1383,"name":"tree_1336","type":"tree","x":2624,"y":3520,"width":48,"height":64,"properties":[{"name":"variant","type":"int","value":1}]},{"id":1384,"name":"tree_1337","type":"tree","x":2656,"y":3520,"width":48,"height":64,"properties":[{"name":"variant","type":"int","value":2}]},{"id":1385,"name":"tree_1338","type":"tree","x":2848,"y":3520,"width":48,"height":64,"properties":[{"name":"variant","type":"int","value":0}]},{"id":1386,"name":"tree_1339","type":"tree","x":3008,"y":3520,"width":48,"height":64,"properties":[{"name":"variant","type":"int","value":1}]},{"id":1387,"name":"tree_1340","type":"tree","x":3232,"y":3520,"width":48,"height":64,"properties":[{"name":"variant","type":"int","value":2}]},{"id":1388,"name":"tree_1341","type":"tree","x":3584,"y":3520,"width":48,"height":64,"properties":[{"name":"variant","type":"int","value":0}]},{"id":1389,"name":"tree_1342","type":"tree","x":3680,"y":3520,"width":48,"height":64,"properties":[{"name":"variant","type":"int","value":1}]},{"id":1390,"name":"tree_1343","type":"tree","x":3744,"y":3520,"width":48,"height":64,"properties":[{"name":"variant","type":"int","value":2}]},{"id":1391,"name":"tree_1344","type":"tree","x":3840,"y":3520,"width":48,"height":64,"properties":[{"name":"variant","type":"int","value":0}]},{"id":1392,"name":"tree_1345","type":"tree","x":3872,"y":3520,"width":48,"height":64,"properties":[{"name":"variant","type":"int","value":1}]},{"id":1393,"name":"tree_1346","type":"tree","x":3936,"y":3520,"width":48,"height":64,"properties":[{"name":"variant","type":"int","value":2}]},{"id":1394,"name":"tree_1347","type":"tree","x":4000,"y":3520,"width":48,"height":64,"properties":[{"name":"variant","type":"int","value":0}]},{"id":1395,"name":"tree_1348","type":"tree","x":4032,"y":3520,"width":48,"height":64,"properties":[{"name":"variant","type":"int","value":1}]},{"id":1396,"name":"tree_1349","type":"tree","x":4096,"y":3520,"width":48,"height":64,"properties":[{"name":"variant","type":"int","value":2}]},{"id":1397,"name":"tree_1350","type":"tree","x":4160,"y":3520,"width":48,"height":64,"properties":[{"name":"variant","type":"int","value":0}]},{"id":1398,"name":"tree_1351","type":"tree","x":4192,"y":3520,"width":48,"height":64,"properties":[{"name":"variant","type":"int","value":1}]},{"id":1399,"name":"tree_1352","type":"tree","x":4320,"y":3520,"width":48,"height":64,"properties":[{"name":"variant","type":"int","value":2}]},{"id":1400,"name":"tree_1353","type":"tree","x":4704,"y":3520,"width":48,"height":64,"properties":[{"name":"variant","type":"int","value":0}]},{"id":1401,"name":"tree_1354","type":"tree","x":4800,"y":3520,"width":48,"height":64,"properties":[{"name":"variant","type":"int","value":1}]},{"id":1402,"name":"tree_1355","type":"tree","x":5408,"y":3520,"width":48,"height":64,"properties":[{"name":"variant","type":"int","value":2}]},{"id":1403,"name":"tree_1356","type":"tree","x":5504,"y":3520,"width":48,"height":64,"properties":[{"name":"variant","type":"int","value":0}]},{"id":1404,"name":"tree_1357","type":"tree","x":5536,"y":3520,"width":48,"height":64,"properties":[{"name":"variant","type":"int","value":1}]},{"id":1405,"name":"tree_1358","type":"tree","x":5600,"y":3520,"width":48,"height":64,"properties":[{"name":"variant","type":"int","value":2}]},{"id":1406,"name":"tree_1359","type":"tree","x":5664,"y":3520,"width":48,"height":64,"properties":[{"name":"variant","type":"int","value":0}]},{"id":1407,"name":"tree_1360","type":"tree","x":5728,"y":3520,"width":48,"height":64,"properties":[{"name":"variant","type":"int","value":1}]},{"id":1408,"name":"tree_1361","type":"tree","x":5760,"y":3520,"width":48,"height":64,"properties":[{"name":"variant","type":"int","value":2}]},{"id":1409,"name":"tree_1362","type":"tree","x":5792,"y":3520,"width":48,"height":64,"properties":[{"name":"variant","type":"int","value":0}]},{"id":1410,"name":"tree_1363","type":"tree","x":5952,"y":3520,"width":48,"height":64,"properties":[{"name":"variant","type":"int","value":1}]},{"id":1411,"name":"tree_1364","type":"tree","x":6112,"y":3520,"width":48,"height":64,"properties":[{"name":"variant","type":"int","value":2}]},{"id":1412,"name":"tree_1365","type":"tree","x":6144,"y":3520,"width":48,"height":64,"properties":[{"name":"variant","type":"int","value":0}]},{"id":1413,"name":"tree_1366","type":"tree","x":2272,"y":3552,"width":48,"height":64,"properties":[{"name":"variant","type":"int","value":1}]},{"id":1414,"name":"tree_1367","type":"tree","x":2304,"y":3552,"width":48,"height":64,"properties":[{"name":"variant","type":"int","value":2}]},{"id":1415,"name":"tree_1368","type":"tree","x":2432,"y":3552,"width":48,"height":64,"properties":[{"name":"variant","type":"int","value":0}]},{"id":1416,"name":"tree_1369","type":"tree","x":2688,"y":3552,"width":48,"height":64,"properties":[{"name":"variant","type":"int","value":1}]},{"id":1417,"name":"tree_1370","type":"tree","x":2720,"y":3552,"width":48,"height":64,"properties":[{"name":"variant","type":"int","value":2}]},{"id":1418,"name":"tree_1371","type":"tree","x":2784,"y":3552,"width":48,"height":64,"properties":[{"name":"variant","type":"int","value":0}]},{"id":1419,"name":"tree_1372","type":"tree","x":2912,"y":3552,"width":48,"height":64,"properties":[{"name":"variant","type":"int","value":1}]},{"id":1420,"name":"tree_1373","type":"tree","x":2976,"y":3552,"width":48,"height":64,"properties":[{"name":"variant","type":"int","value":2}]},{"id":1421,"name":"tree_1374","type":"tree","x":3008,"y":3552,"width":48,"height":64,"properties":[{"name":"variant","type":"int","value":0}]},{"id":1422,"name":"tree_1375","type":"tree","x":3136,"y":3552,"width":48,"height":64,"properties":[{"name":"variant","type":"int","value":1}]},{"id":1423,"name":"tree_1376","type":"tree","x":3168,"y":3552,"width":48,"height":64,"properties":[{"name":"variant","type":"int","value":2}]},{"id":1424,"name":"tree_1377","type":"tree","x":3264,"y":3552,"width":48,"height":64,"properties":[{"name":"variant","type":"int","value":0}]},{"id":1425,"name":"tree_1378","type":"tree","x":3616,"y":3552,"width":48,"height":64,"properties":[{"name":"variant","type":"int","value":1}]},{"id":1426,"name":"tree_1379","type":"tree","x":3648,"y":3552,"width":48,"height":64,"properties":[{"name":"variant","type":"int","value":2}]},{"id":1427,"name":"tree_1380","type":"tree","x":3680,"y":3552,"width":48,"height":64,"properties":[{"name":"variant","type":"int","value":0}]},{"id":1428,"name":"tree_1381","type":"tree","x":3776,"y":3552,"width":48,"height":64,"properties":[{"name":"variant","type":"int","value":1}]},{"id":1429,"name":"tree_1382","type":"tree","x":3808,"y":3552,"width":48,"height":64,"properties":[{"name":"variant","type":"int","value":2}]},{"id":1430,"name":"tree_1383","type":"tree","x":3936,"y":3552,"width":48,"height":64,"properties":[{"name":"variant","type":"int","value":0}]},{"id":1431,"name":"tree_1384","type":"tree","x":4064,"y":3552,"width":48,"height":64,"properties":[{"name":"variant","type":"int","value":1}]},{"id":1432,"name":"tree_1385","type":"tree","x":4096,"y":3552,"width":48,"height":64,"properties":[{"name":"variant","type":"int","value":2}]},{"id":1433,"name":"tree_1386","type":"tree","x":4192,"y":3552,"width":48,"height":64,"properties":[{"name":"variant","type":"int","value":0}]},{"id":1434,"name":"tree_1387","type":"tree","x":4224,"y":3552,"width":48,"height":64,"properties":[{"name":"variant","type":"int","value":1}]},{"id":1435,"name":"tree_1388","type":"tree","x":4320,"y":3552,"width":48,"height":64,"properties":[{"name":"variant","type":"int","value":2}]},{"id":1436,"name":"tree_1389","type":"tree","x":4352,"y":3552,"width":48,"height":64,"properties":[{"name":"variant","type":"int","value":0}]},{"id":1437,"name":"tree_1390","type":"tree","x":4480,"y":3552,"width":48,"height":64,"properties":[{"name":"variant","type":"int","value":1}]},{"id":1438,"name":"tree_1391","type":"tree","x":4512,"y":3552,"width":48,"height":64,"properties":[{"name":"variant","type":"int","value":2}]},{"id":1439,"name":"tree_1392","type":"tree","x":4608,"y":3552,"width":48,"height":64,"properties":[{"name":"variant","type":"int","value":0}]},{"id":1440,"name":"tree_1393","type":"tree","x":4800,"y":3552,"width":48,"height":64,"properties":[{"name":"variant","type":"int","value":1}]},{"id":1441,"name":"tree_1394","type":"tree","x":5408,"y":3552,"width":48,"height":64,"properties":[{"name":"variant","type":"int","value":2}]},{"id":1442,"name":"tree_1395","type":"tree","x":5440,"y":3552,"width":48,"height":64,"properties":[{"name":"variant","type":"int","value":0}]},{"id":1443,"name":"tree_1396","type":"tree","x":5472,"y":3552,"width":48,"height":64,"properties":[{"name":"variant","type":"int","value":1}]},{"id":1444,"name":"tree_1397","type":"tree","x":5504,"y":3552,"width":48,"height":64,"properties":[{"name":"variant","type":"int","value":2}]},{"id":1445,"name":"tree_1398","type":"tree","x":5600,"y":3552,"width":48,"height":64,"properties":[{"name":"variant","type":"int","value":0}]},{"id":1446,"name":"tree_1399","type":"tree","x":5696,"y":3552,"width":48,"height":64,"properties":[{"name":"variant","type":"int","value":1}]},{"id":1447,"name":"tree_1400","type":"tree","x":5728,"y":3552,"width":48,"height":64,"properties":[{"name":"variant","type":"int","value":2}]},{"id":1448,"name":"tree_1401","type":"tree","x":5760,"y":3552,"width":48,"height":64,"properties":[{"name":"variant","type":"int","value":0}]},{"id":1449,"name":"tree_1402","type":"tree","x":5792,"y":3552,"width":48,"height":64,"properties":[{"name":"variant","type":"int","value":1}]},{"id":1450,"name":"tree_1403","type":"tree","x":5824,"y":3552,"width":48,"height":64,"properties":[{"name":"variant","type":"int","value":2}]},{"id":1451,"name":"tree_1404","type":"tree","x":5856,"y":3552,"width":48,"height":64,"properties":[{"name":"variant","type":"int","value":0}]},{"id":1452,"name":"tree_1405","type":"tree","x":6240,"y":3552,"width":48,"height":64,"properties":[{"name":"variant","type":"int","value":1}]},{"id":1453,"name":"tree_1406","type":"tree","x":2080,"y":3584,"width":48,"height":64,"properties":[{"name":"variant","type":"int","value":2}]},{"id":1454,"name":"tree_1407","type":"tree","x":2144,"y":3584,"width":48,"height":64,"properties":[{"name":"variant","type":"int","value":0}]},{"id":1455,"name":"tree_1408","type":"tree","x":2176,"y":3584,"width":48,"height":64,"properties":[{"name":"variant","type":"int","value":1}]},{"id":1456,"name":"tree_1409","type":"tree","x":2304,"y":3584,"width":48,"height":64,"properties":[{"name":"variant","type":"int","value":2}]},{"id":1457,"name":"tree_1410","type":"tree","x":2336,"y":3584,"width":48,"height":64,"properties":[{"name":"variant","type":"int","value":0}]},{"id":1458,"name":"tree_1411","type":"tree","x":2368,"y":3584,"width":48,"height":64,"properties":[{"name":"variant","type":"int","value":1}]},{"id":1459,"name":"tree_1412","type":"tree","x":2624,"y":3584,"width":48,"height":64,"properties":[{"name":"variant","type":"int","value":2}]},{"id":1460,"name":"tree_1413","type":"tree","x":2752,"y":3584,"width":48,"height":64,"properties":[{"name":"variant","type":"int","value":0}]},{"id":1461,"name":"tree_1414","type":"tree","x":2944,"y":3584,"width":48,"height":64,"properties":[{"name":"variant","type":"int","value":1}]},{"id":1462,"name":"tree_1415","type":"tree","x":3008,"y":3584,"width":48,"height":64,"properties":[{"name":"variant","type":"int","value":2}]},{"id":1463,"name":"tree_1416","type":"tree","x":3072,"y":3584,"width":48,"height":64,"properties":[{"name":"variant","type":"int","value":0}]},{"id":1464,"name":"tree_1417","type":"tree","x":3104,"y":3584,"width":48,"height":64,"properties":[{"name":"variant","type":"int","value":1}]},{"id":1465,"name":"tree_1418","type":"tree","x":3136,"y":3584,"width":48,"height":64,"properties":[{"name":"variant","type":"int","value":2}]},{"id":1466,"name":"tree_1419","type":"tree","x":3200,"y":3584,"width":48,"height":64,"properties":[{"name":"variant","type":"int","value":0}]},{"id":1467,"name":"tree_1420","type":"tree","x":3296,"y":3584,"width":48,"height":64,"properties":[{"name":"variant","type":"int","value":1}]},{"id":1468,"name":"tree_1421","type":"tree","x":3424,"y":3584,"width":48,"height":64,"properties":[{"name":"variant","type":"int","value":2}]},{"id":1469,"name":"tree_1422","type":"tree","x":3456,"y":3584,"width":48,"height":64,"properties":[{"name":"variant","type":"int","value":0}]},{"id":1470,"name":"tree_1423","type":"tree","x":3648,"y":3584,"width":48,"height":64,"properties":[{"name":"variant","type":"int","value":1}]},{"id":1471,"name":"tree_1424","type":"tree","x":3712,"y":3584,"width":48,"height":64,"properties":[{"name":"variant","type":"int","value":2}]},{"id":1472,"name":"tree_1425","type":"tree","x":3744,"y":3584,"width":48,"height":64,"properties":[{"name":"variant","type":"int","value":0}]},{"id":1473,"name":"tree_1426","type":"tree","x":3808,"y":3584,"width":48,"height":64,"properties":[{"name":"variant","type":"int","value":1}]},{"id":1474,"name":"tree_1427","type":"tree","x":3840,"y":3584,"width":48,"height":64,"properties":[{"name":"variant","type":"int","value":2}]},{"id":1475,"name":"tree_1428","type":"tree","x":3904,"y":3584,"width":48,"height":64,"properties":[{"name":"variant","type":"int","value":0}]},{"id":1476,"name":"tree_1429","type":"tree","x":4128,"y":3584,"width":48,"height":64,"properties":[{"name":"variant","type":"int","value":1}]},{"id":1477,"name":"tree_1430","type":"tree","x":4224,"y":3584,"width":48,"height":64,"properties":[{"name":"variant","type":"int","value":2}]},{"id":1478,"name":"tree_1431","type":"tree","x":4352,"y":3584,"width":48,"height":64,"properties":[{"name":"variant","type":"int","value":0}]},{"id":1479,"name":"tree_1432","type":"tree","x":4480,"y":3584,"width":48,"height":64,"properties":[{"name":"variant","type":"int","value":1}]},{"id":1480,"name":"tree_1433","type":"tree","x":4544,"y":3584,"width":48,"height":64,"properties":[{"name":"variant","type":"int","value":2}]},{"id":1481,"name":"tree_1434","type":"tree","x":4576,"y":3584,"width":48,"height":64,"properties":[{"name":"variant","type":"int","value":0}]},{"id":1482,"name":"tree_1435","type":"tree","x":4672,"y":3584,"width":48,"height":64,"properties":[{"name":"variant","type":"int","value":1}]},{"id":1483,"name":"tree_1436","type":"tree","x":4704,"y":3584,"width":48,"height":64,"properties":[{"name":"variant","type":"int","value":2}]},{"id":1484,"name":"tree_1437","type":"tree","x":4736,"y":3584,"width":48,"height":64,"properties":[{"name":"variant","type":"int","value":0}]},{"id":1485,"name":"tree_1438","type":"tree","x":5408,"y":3584,"width":48,"height":64,"properties":[{"name":"variant","type":"int","value":1}]},{"id":1486,"name":"tree_1439","type":"tree","x":5472,"y":3584,"width":48,"height":64,"properties":[{"name":"variant","type":"int","value":2}]},{"id":1487,"name":"tree_1440","type":"tree","x":5504,"y":3584,"width":48,"height":64,"properties":[{"name":"variant","type":"int","value":0}]},{"id":1488,"name":"tree_1441","type":"tree","x":5600,"y":3584,"width":48,"height":64,"properties":[{"name":"variant","type":"int","value":1}]},{"id":1489,"name":"tree_1442","type":"tree","x":5728,"y":3584,"width":48,"height":64,"properties":[{"name":"variant","type":"int","value":2}]},{"id":1490,"name":"tree_1443","type":"tree","x":5792,"y":3584,"width":48,"height":64,"properties":[{"name":"variant","type":"int","value":0}]},{"id":1491,"name":"tree_1444","type":"tree","x":5856,"y":3584,"width":48,"height":64,"properties":[{"name":"variant","type":"int","value":1}]},{"id":1492,"name":"tree_1445","type":"tree","x":5920,"y":3584,"width":48,"height":64,"properties":[{"name":"variant","type":"int","value":2}]},{"id":1493,"name":"tree_1446","type":"tree","x":5952,"y":3584,"width":48,"height":64,"properties":[{"name":"variant","type":"int","value":0}]},{"id":1494,"name":"tree_1447","type":"tree","x":6176,"y":3584,"width":48,"height":64,"properties":[{"name":"variant","type":"int","value":1}]},{"id":1495,"name":"tree_1448","type":"tree","x":6208,"y":3584,"width":48,"height":64,"properties":[{"name":"variant","type":"int","value":2}]},{"id":1496,"name":"tree_1449","type":"tree","x":6240,"y":3584,"width":48,"height":64,"properties":[{"name":"variant","type":"int","value":0}]},{"id":1497,"name":"tree_1450","type":"tree","x":6272,"y":3584,"width":48,"height":64,"properties":[{"name":"variant","type":"int","value":1}]},{"id":1498,"name":"tree_1451","type":"tree","x":2144,"y":3616,"width":48,"height":64,"properties":[{"name":"variant","type":"int","value":2}]},{"id":1499,"name":"tree_1452","type":"tree","x":2176,"y":3616,"width":48,"height":64,"properties":[{"name":"variant","type":"int","value":0}]},{"id":1500,"name":"tree_1453","type":"tree","x":2304,"y":3616,"width":48,"height":64,"properties":[{"name":"variant","type":"int","value":1}]},{"id":1501,"name":"tree_1454","type":"tree","x":2336,"y":3616,"width":48,"height":64,"properties":[{"name":"variant","type":"int","value":2}]},{"id":1502,"name":"tree_1455","type":"tree","x":2816,"y":3616,"width":48,"height":64,"properties":[{"name":"variant","type":"int","value":0}]},{"id":1503,"name":"tree_1456","type":"tree","x":2880,"y":3616,"width":48,"height":64,"properties":[{"name":"variant","type":"int","value":1}]},{"id":1504,"name":"tree_1457","type":"tree","x":2944,"y":3616,"width":48,"height":64,"properties":[{"name":"variant","type":"int","value":2}]},{"id":1505,"name":"tree_1458","type":"tree","x":2976,"y":3616,"width":48,"height":64,"properties":[{"name":"variant","type":"int","value":0}]},{"id":1506,"name":"tree_1459","type":"tree","x":3104,"y":3616,"width":48,"height":64,"properties":[{"name":"variant","type":"int","value":1}]},{"id":1507,"name":"tree_1460","type":"tree","x":3168,"y":3616,"width":48,"height":64,"properties":[{"name":"variant","type":"int","value":2}]},{"id":1508,"name":"tree_1461","type":"tree","x":3232,"y":3616,"width":48,"height":64,"properties":[{"name":"variant","type":"int","value":0}]},{"id":1509,"name":"tree_1462","type":"tree","x":3264,"y":3616,"width":48,"height":64,"properties":[{"name":"variant","type":"int","value":1}]},{"id":1510,"name":"tree_1463","type":"tree","x":3296,"y":3616,"width":48,"height":64,"properties":[{"name":"variant","type":"int","value":2}]},{"id":1511,"name":"tree_1464","type":"tree","x":3360,"y":3616,"width":48,"height":64,"properties":[{"name":"variant","type":"int","value":0}]},{"id":1512,"name":"tree_1465","type":"tree","x":3392,"y":3616,"width":48,"height":64,"properties":[{"name":"variant","type":"int","value":1}]},{"id":1513,"name":"tree_1466","type":"tree","x":3520,"y":3616,"width":48,"height":64,"properties":[{"name":"variant","type":"int","value":2}]},{"id":1514,"name":"tree_1467","type":"tree","x":3808,"y":3616,"width":48,"height":64,"properties":[{"name":"variant","type":"int","value":0}]},{"id":1515,"name":"tree_1468","type":"tree","x":3968,"y":3616,"width":48,"height":64,"properties":[{"name":"variant","type":"int","value":1}]},{"id":1516,"name":"tree_1469","type":"tree","x":4064,"y":3616,"width":48,"height":64,"properties":[{"name":"variant","type":"int","value":2}]},{"id":1517,"name":"tree_1470","type":"tree","x":4160,"y":3616,"width":48,"height":64,"properties":[{"name":"variant","type":"int","value":0}]},{"id":1518,"name":"tree_1471","type":"tree","x":4320,"y":3616,"width":48,"height":64,"properties":[{"name":"variant","type":"int","value":1}]},{"id":1519,"name":"tree_1472","type":"tree","x":4576,"y":3616,"width":48,"height":64,"properties":[{"name":"variant","type":"int","value":2}]},{"id":1520,"name":"tree_1473","type":"tree","x":4608,"y":3616,"width":48,"height":64,"properties":[{"name":"variant","type":"int","value":0}]},{"id":1521,"name":"tree_1474","type":"tree","x":4704,"y":3616,"width":48,"height":64,"properties":[{"name":"variant","type":"int","value":1}]},{"id":1522,"name":"tree_1475","type":"tree","x":5440,"y":3616,"width":48,"height":64,"properties":[{"name":"variant","type":"int","value":2}]},{"id":1523,"name":"tree_1476","type":"tree","x":5536,"y":3616,"width":48,"height":64,"properties":[{"name":"variant","type":"int","value":0}]},{"id":1524,"name":"tree_1477","type":"tree","x":5568,"y":3616,"width":48,"height":64,"properties":[{"name":"variant","type":"int","value":1}]},{"id":1525,"name":"tree_1478","type":"tree","x":5600,"y":3616,"width":48,"height":64,"properties":[{"name":"variant","type":"int","value":2}]},{"id":1526,"name":"tree_1479","type":"tree","x":5664,"y":3616,"width":48,"height":64,"properties":[{"name":"variant","type":"int","value":0}]},{"id":1527,"name":"tree_1480","type":"tree","x":5760,"y":3616,"width":48,"height":64,"properties":[{"name":"variant","type":"int","value":1}]},{"id":1528,"name":"tree_1481","type":"tree","x":5824,"y":3616,"width":48,"height":64,"properties":[{"name":"variant","type":"int","value":2}]},{"id":1529,"name":"tree_1482","type":"tree","x":5856,"y":3616,"width":48,"height":64,"properties":[{"name":"variant","type":"int","value":0}]},{"id":1530,"name":"tree_1483","type":"tree","x":6240,"y":3616,"width":48,"height":64,"properties":[{"name":"variant","type":"int","value":1}]},{"id":1531,"name":"tree_1484","type":"tree","x":6272,"y":3616,"width":48,"height":64,"properties":[{"name":"variant","type":"int","value":2}]},{"id":1532,"name":"tree_1485","type":"tree","x":2272,"y":3648,"width":48,"height":64,"properties":[{"name":"variant","type":"int","value":0}]},{"id":1533,"name":"tree_1486","type":"tree","x":2368,"y":3648,"width":48,"height":64,"properties":[{"name":"variant","type":"int","value":1}]},{"id":1534,"name":"tree_1487","type":"tree","x":2400,"y":3648,"width":48,"height":64,"properties":[{"name":"variant","type":"int","value":2}]},{"id":1535,"name":"tree_1488","type":"tree","x":2560,"y":3648,"width":48,"height":64,"properties":[{"name":"variant","type":"int","value":0}]},{"id":1536,"name":"tree_1489","type":"tree","x":2624,"y":3648,"width":48,"height":64,"properties":[{"name":"variant","type":"int","value":1}]},{"id":1537,"name":"tree_1490","type":"tree","x":2656,"y":3648,"width":48,"height":64,"properties":[{"name":"variant","type":"int","value":2}]},{"id":1538,"name":"tree_1491","type":"tree","x":2912,"y":3648,"width":48,"height":64,"properties":[{"name":"variant","type":"int","value":0}]},{"id":1539,"name":"tree_1492","type":"tree","x":2944,"y":3648,"width":48,"height":64,"properties":[{"name":"variant","type":"int","value":1}]},{"id":1540,"name":"tree_1493","type":"tree","x":2976,"y":3648,"width":48,"height":64,"properties":[{"name":"variant","type":"int","value":2}]},{"id":1541,"name":"tree_1494","type":"tree","x":3040,"y":3648,"width":48,"height":64,"properties":[{"name":"variant","type":"int","value":0}]},{"id":1542,"name":"tree_1495","type":"tree","x":3072,"y":3648,"width":48,"height":64,"properties":[{"name":"variant","type":"int","value":1}]},{"id":1543,"name":"tree_1496","type":"tree","x":3136,"y":3648,"width":48,"height":64,"properties":[{"name":"variant","type":"int","value":2}]},{"id":1544,"name":"tree_1497","type":"tree","x":3168,"y":3648,"width":48,"height":64,"properties":[{"name":"variant","type":"int","value":0}]},{"id":1545,"name":"tree_1498","type":"tree","x":3392,"y":3648,"width":48,"height":64,"properties":[{"name":"variant","type":"int","value":1}]},{"id":1546,"name":"tree_1499","type":"tree","x":3552,"y":3648,"width":48,"height":64,"properties":[{"name":"variant","type":"int","value":2}]},{"id":1547,"name":"tree_1500","type":"tree","x":3648,"y":3648,"width":48,"height":64,"properties":[{"name":"variant","type":"int","value":0}]},{"id":1548,"name":"tree_1501","type":"tree","x":3776,"y":3648,"width":48,"height":64,"properties":[{"name":"variant","type":"int","value":1}]},{"id":1549,"name":"tree_1502","type":"tree","x":3808,"y":3648,"width":48,"height":64,"properties":[{"name":"variant","type":"int","value":2}]},{"id":1550,"name":"tree_1503","type":"tree","x":3840,"y":3648,"width":48,"height":64,"properties":[{"name":"variant","type":"int","value":0}]},{"id":1551,"name":"tree_1504","type":"tree","x":3872,"y":3648,"width":48,"height":64,"properties":[{"name":"variant","type":"int","value":1}]},{"id":1552,"name":"tree_1505","type":"tree","x":4000,"y":3648,"width":48,"height":64,"properties":[{"name":"variant","type":"int","value":2}]},{"id":1553,"name":"tree_1506","type":"tree","x":4064,"y":3648,"width":48,"height":64,"properties":[{"name":"variant","type":"int","value":0}]},{"id":1554,"name":"tree_1507","type":"tree","x":4096,"y":3648,"width":48,"height":64,"properties":[{"name":"variant","type":"int","value":1}]},{"id":1555,"name":"tree_1508","type":"tree","x":4128,"y":3648,"width":48,"height":64,"properties":[{"name":"variant","type":"int","value":2}]},{"id":1556,"name":"tree_1509","type":"tree","x":4160,"y":3648,"width":48,"height":64,"properties":[{"name":"variant","type":"int","value":0}]},{"id":1557,"name":"tree_1510","type":"tree","x":4288,"y":3648,"width":48,"height":64,"properties":[{"name":"variant","type":"int","value":1}]},{"id":1558,"name":"tree_1511","type":"tree","x":4544,"y":3648,"width":48,"height":64,"properties":[{"name":"variant","type":"int","value":2}]},{"id":1559,"name":"tree_1512","type":"tree","x":5376,"y":3648,"width":48,"height":64,"properties":[{"name":"variant","type":"int","value":0}]},{"id":1560,"name":"tree_1513","type":"tree","x":5472,"y":3648,"width":48,"height":64,"properties":[{"name":"variant","type":"int","value":1}]},{"id":1561,"name":"tree_1514","type":"tree","x":5504,"y":3648,"width":48,"height":64,"properties":[{"name":"variant","type":"int","value":2}]},{"id":1562,"name":"tree_1515","type":"tree","x":5600,"y":3648,"width":48,"height":64,"properties":[{"name":"variant","type":"int","value":0}]},{"id":1563,"name":"tree_1516","type":"tree","x":5728,"y":3648,"width":48,"height":64,"properties":[{"name":"variant","type":"int","value":1}]},{"id":1564,"name":"tree_1517","type":"tree","x":5760,"y":3648,"width":48,"height":64,"properties":[{"name":"variant","type":"int","value":2}]},{"id":1565,"name":"tree_1518","type":"tree","x":5856,"y":3648,"width":48,"height":64,"properties":[{"name":"variant","type":"int","value":0}]},{"id":1566,"name":"tree_1519","type":"tree","x":2112,"y":3680,"width":48,"height":64,"properties":[{"name":"variant","type":"int","value":1}]},{"id":1567,"name":"tree_1520","type":"tree","x":2144,"y":3680,"width":48,"height":64,"properties":[{"name":"variant","type":"int","value":2}]},{"id":1568,"name":"tree_1521","type":"tree","x":2176,"y":3680,"width":48,"height":64,"properties":[{"name":"variant","type":"int","value":0}]},{"id":1569,"name":"tree_1522","type":"tree","x":2272,"y":3680,"width":48,"height":64,"properties":[{"name":"variant","type":"int","value":1}]},{"id":1570,"name":"tree_1523","type":"tree","x":2336,"y":3680,"width":48,"height":64,"properties":[{"name":"variant","type":"int","value":2}]},{"id":1571,"name":"tree_1524","type":"tree","x":2432,"y":3680,"width":48,"height":64,"properties":[{"name":"variant","type":"int","value":0}]},{"id":1572,"name":"tree_1525","type":"tree","x":2592,"y":3680,"width":48,"height":64,"properties":[{"name":"variant","type":"int","value":1}]},{"id":1573,"name":"tree_1526","type":"tree","x":2720,"y":3680,"width":48,"height":64,"properties":[{"name":"variant","type":"int","value":2}]},{"id":1574,"name":"tree_1527","type":"tree","x":2752,"y":3680,"width":48,"height":64,"properties":[{"name":"variant","type":"int","value":0}]},{"id":1575,"name":"tree_1528","type":"tree","x":2912,"y":3680,"width":48,"height":64,"properties":[{"name":"variant","type":"int","value":1}]},{"id":1576,"name":"tree_1529","type":"tree","x":2976,"y":3680,"width":48,"height":64,"properties":[{"name":"variant","type":"int","value":2}]},{"id":1577,"name":"tree_1530","type":"tree","x":3008,"y":3680,"width":48,"height":64,"properties":[{"name":"variant","type":"int","value":0}]},{"id":1578,"name":"tree_1531","type":"tree","x":3040,"y":3680,"width":48,"height":64,"properties":[{"name":"variant","type":"int","value":1}]},{"id":1579,"name":"tree_1532","type":"tree","x":3136,"y":3680,"width":48,"height":64,"properties":[{"name":"variant","type":"int","value":2}]},{"id":1580,"name":"tree_1533","type":"tree","x":3200,"y":3680,"width":48,"height":64,"properties":[{"name":"variant","type":"int","value":0}]},{"id":1581,"name":"tree_1534","type":"tree","x":3328,"y":3680,"width":48,"height":64,"properties":[{"name":"variant","type":"int","value":1}]},{"id":1582,"name":"tree_1535","type":"tree","x":3360,"y":3680,"width":48,"height":64,"properties":[{"name":"variant","type":"int","value":2}]},{"id":1583,"name":"tree_1536","type":"tree","x":3520,"y":3680,"width":48,"height":64,"properties":[{"name":"variant","type":"int","value":0}]},{"id":1584,"name":"tree_1537","type":"tree","x":3872,"y":3680,"width":48,"height":64,"properties":[{"name":"variant","type":"int","value":1}]},{"id":1585,"name":"tree_1538","type":"tree","x":3968,"y":3680,"width":48,"height":64,"properties":[{"name":"variant","type":"int","value":2}]},{"id":1586,"name":"tree_1539","type":"tree","x":4000,"y":3680,"width":48,"height":64,"properties":[{"name":"variant","type":"int","value":0}]},{"id":1587,"name":"tree_1540","type":"tree","x":4032,"y":3680,"width":48,"height":64,"properties":[{"name":"variant","type":"int","value":1}]},{"id":1588,"name":"tree_1541","type":"tree","x":4160,"y":3680,"width":48,"height":64,"properties":[{"name":"variant","type":"int","value":2}]},{"id":1589,"name":"tree_1542","type":"tree","x":4256,"y":3680,"width":48,"height":64,"properties":[{"name":"variant","type":"int","value":0}]},{"id":1590,"name":"tree_1543","type":"tree","x":4288,"y":3680,"width":48,"height":64,"properties":[{"name":"variant","type":"int","value":1}]},{"id":1591,"name":"tree_1544","type":"tree","x":4320,"y":3680,"width":48,"height":64,"properties":[{"name":"variant","type":"int","value":2}]},{"id":1592,"name":"tree_1545","type":"tree","x":4352,"y":3680,"width":48,"height":64,"properties":[{"name":"variant","type":"int","value":0}]},{"id":1593,"name":"tree_1546","type":"tree","x":4480,"y":3680,"width":48,"height":64,"properties":[{"name":"variant","type":"int","value":1}]},{"id":1594,"name":"tree_1547","type":"tree","x":4544,"y":3680,"width":48,"height":64,"properties":[{"name":"variant","type":"int","value":2}]},{"id":1595,"name":"tree_1548","type":"tree","x":5472,"y":3680,"width":48,"height":64,"properties":[{"name":"variant","type":"int","value":0}]},{"id":1596,"name":"tree_1549","type":"tree","x":5504,"y":3680,"width":48,"height":64,"properties":[{"name":"variant","type":"int","value":1}]},{"id":1597,"name":"tree_1550","type":"tree","x":5536,"y":3680,"width":48,"height":64,"properties":[{"name":"variant","type":"int","value":2}]},{"id":1598,"name":"tree_1551","type":"tree","x":5600,"y":3680,"width":48,"height":64,"properties":[{"name":"variant","type":"int","value":0}]},{"id":1599,"name":"tree_1552","type":"tree","x":5696,"y":3680,"width":48,"height":64,"properties":[{"name":"variant","type":"int","value":1}]},{"id":1600,"name":"tree_1553","type":"tree","x":5728,"y":3680,"width":48,"height":64,"properties":[{"name":"variant","type":"int","value":2}]},{"id":1601,"name":"tree_1554","type":"tree","x":6272,"y":3680,"width":48,"height":64,"properties":[{"name":"variant","type":"int","value":0}]},{"id":1602,"name":"tree_1555","type":"tree","x":6304,"y":3680,"width":48,"height":64,"properties":[{"name":"variant","type":"int","value":1}]},{"id":1603,"name":"tree_1556","type":"tree","x":6336,"y":3680,"width":48,"height":64,"properties":[{"name":"variant","type":"int","value":2}]},{"id":1604,"name":"tree_1557","type":"tree","x":2176,"y":3712,"width":48,"height":64,"properties":[{"name":"variant","type":"int","value":0}]},{"id":1605,"name":"tree_1558","type":"tree","x":2208,"y":3712,"width":48,"height":64,"properties":[{"name":"variant","type":"int","value":1}]},{"id":1606,"name":"tree_1559","type":"tree","x":2368,"y":3712,"width":48,"height":64,"properties":[{"name":"variant","type":"int","value":2}]},{"id":1607,"name":"tree_1560","type":"tree","x":2400,"y":3712,"width":48,"height":64,"properties":[{"name":"variant","type":"int","value":0}]},{"id":1608,"name":"tree_1561","type":"tree","x":2432,"y":3712,"width":48,"height":64,"properties":[{"name":"variant","type":"int","value":1}]},{"id":1609,"name":"tree_1562","type":"tree","x":2464,"y":3712,"width":48,"height":64,"properties":[{"name":"variant","type":"int","value":2}]},{"id":1610,"name":"tree_1563","type":"tree","x":2592,"y":3712,"width":48,"height":64,"properties":[{"name":"variant","type":"int","value":0}]},{"id":1611,"name":"tree_1564","type":"tree","x":2752,"y":3712,"width":48,"height":64,"properties":[{"name":"variant","type":"int","value":1}]},{"id":1612,"name":"tree_1565","type":"tree","x":2848,"y":3712,"width":48,"height":64,"properties":[{"name":"variant","type":"int","value":2}]},{"id":1613,"name":"tree_1566","type":"tree","x":2944,"y":3712,"width":48,"height":64,"properties":[{"name":"variant","type":"int","value":0}]},{"id":1614,"name":"tree_1567","type":"tree","x":3008,"y":3712,"width":48,"height":64,"properties":[{"name":"variant","type":"int","value":1}]},{"id":1615,"name":"tree_1568","type":"tree","x":3040,"y":3712,"width":48,"height":64,"properties":[{"name":"variant","type":"int","value":2}]},{"id":1616,"name":"tree_1569","type":"tree","x":3104,"y":3712,"width":48,"height":64,"properties":[{"name":"variant","type":"int","value":0}]},{"id":1617,"name":"tree_1570","type":"tree","x":3136,"y":3712,"width":48,"height":64,"properties":[{"name":"variant","type":"int","value":1}]},{"id":1618,"name":"tree_1571","type":"tree","x":3168,"y":3712,"width":48,"height":64,"properties":[{"name":"variant","type":"int","value":2}]},{"id":1619,"name":"tree_1572","type":"tree","x":3232,"y":3712,"width":48,"height":64,"properties":[{"name":"variant","type":"int","value":0}]},{"id":1620,"name":"tree_1573","type":"tree","x":3264,"y":3712,"width":48,"height":64,"properties":[{"name":"variant","type":"int","value":1}]},{"id":1621,"name":"tree_1574","type":"tree","x":3456,"y":3712,"width":48,"height":64,"properties":[{"name":"variant","type":"int","value":2}]},{"id":1622,"name":"tree_1575","type":"tree","x":3776,"y":3712,"width":48,"height":64,"properties":[{"name":"variant","type":"int","value":0}]},{"id":1623,"name":"tree_1576","type":"tree","x":3808,"y":3712,"width":48,"height":64,"properties":[{"name":"variant","type":"int","value":1}]},{"id":1624,"name":"tree_1577","type":"tree","x":3840,"y":3712,"width":48,"height":64,"properties":[{"name":"variant","type":"int","value":2}]},{"id":1625,"name":"tree_1578","type":"tree","x":4000,"y":3712,"width":48,"height":64,"properties":[{"name":"variant","type":"int","value":0}]},{"id":1626,"name":"tree_1579","type":"tree","x":4096,"y":3712,"width":48,"height":64,"properties":[{"name":"variant","type":"int","value":1}]},{"id":1627,"name":"tree_1580","type":"tree","x":4128,"y":3712,"width":48,"height":64,"properties":[{"name":"variant","type":"int","value":2}]},{"id":1628,"name":"tree_1581","type":"tree","x":4160,"y":3712,"width":48,"height":64,"properties":[{"name":"variant","type":"int","value":0}]},{"id":1629,"name":"tree_1582","type":"tree","x":4480,"y":3712,"width":48,"height":64,"properties":[{"name":"variant","type":"int","value":1}]},{"id":1630,"name":"tree_1583","type":"tree","x":4512,"y":3712,"width":48,"height":64,"properties":[{"name":"variant","type":"int","value":2}]},{"id":1631,"name":"tree_1584","type":"tree","x":5408,"y":3712,"width":48,"height":64,"properties":[{"name":"variant","type":"int","value":0}]},{"id":1632,"name":"tree_1585","type":"tree","x":5440,"y":3712,"width":48,"height":64,"properties":[{"name":"variant","type":"int","value":1}]},{"id":1633,"name":"tree_1586","type":"tree","x":5472,"y":3712,"width":48,"height":64,"properties":[{"name":"variant","type":"int","value":2}]},{"id":1634,"name":"tree_1587","type":"tree","x":5504,"y":3712,"width":48,"height":64,"properties":[{"name":"variant","type":"int","value":0}]},{"id":1635,"name":"tree_1588","type":"tree","x":5568,"y":3712,"width":48,"height":64,"properties":[{"name":"variant","type":"int","value":1}]},{"id":1636,"name":"tree_1589","type":"tree","x":5664,"y":3712,"width":48,"height":64,"properties":[{"name":"variant","type":"int","value":2}]},{"id":1637,"name":"tree_1590","type":"tree","x":5728,"y":3712,"width":48,"height":64,"properties":[{"name":"variant","type":"int","value":0}]},{"id":1638,"name":"tree_1591","type":"tree","x":5760,"y":3712,"width":48,"height":64,"properties":[{"name":"variant","type":"int","value":1}]},{"id":1639,"name":"tree_1592","type":"tree","x":6336,"y":3712,"width":48,"height":64,"properties":[{"name":"variant","type":"int","value":2}]},{"id":1640,"name":"tree_1593","type":"tree","x":2176,"y":3744,"width":48,"height":64,"properties":[{"name":"variant","type":"int","value":0}]},{"id":1641,"name":"tree_1594","type":"tree","x":2272,"y":3744,"width":48,"height":64,"properties":[{"name":"variant","type":"int","value":1}]},{"id":1642,"name":"tree_1595","type":"tree","x":2336,"y":3744,"width":48,"height":64,"properties":[{"name":"variant","type":"int","value":2}]},{"id":1643,"name":"tree_1596","type":"tree","x":2368,"y":3744,"width":48,"height":64,"properties":[{"name":"variant","type":"int","value":0}]},{"id":1644,"name":"tree_1597","type":"tree","x":2400,"y":3744,"width":48,"height":64,"properties":[{"name":"variant","type":"int","value":1}]},{"id":1645,"name":"tree_1598","type":"tree","x":2496,"y":3744,"width":48,"height":64,"properties":[{"name":"variant","type":"int","value":2}]},{"id":1646,"name":"tree_1599","type":"tree","x":2592,"y":3744,"width":48,"height":64,"properties":[{"name":"variant","type":"int","value":0}]},{"id":1647,"name":"tree_1600","type":"tree","x":2624,"y":3744,"width":48,"height":64,"properties":[{"name":"variant","type":"int","value":1}]},{"id":1648,"name":"tree_1601","type":"tree","x":2752,"y":3744,"width":48,"height":64,"properties":[{"name":"variant","type":"int","value":2}]},{"id":1649,"name":"tree_1602","type":"tree","x":2816,"y":3744,"width":48,"height":64,"properties":[{"name":"variant","type":"int","value":0}]},{"id":1650,"name":"tree_1603","type":"tree","x":2880,"y":3744,"width":48,"height":64,"properties":[{"name":"variant","type":"int","value":1}]},{"id":1651,"name":"tree_1604","type":"tree","x":2944,"y":3744,"width":48,"height":64,"properties":[{"name":"variant","type":"int","value":2}]},{"id":1652,"name":"tree_1605","type":"tree","x":2976,"y":3744,"width":48,"height":64,"properties":[{"name":"variant","type":"int","value":0}]},{"id":1653,"name":"tree_1606","type":"tree","x":3008,"y":3744,"width":48,"height":64,"properties":[{"name":"variant","type":"int","value":1}]},{"id":1654,"name":"tree_1607","type":"tree","x":3040,"y":3744,"width":48,"height":64,"properties":[{"name":"variant","type":"int","value":2}]},{"id":1655,"name":"tree_1608","type":"tree","x":3136,"y":3744,"width":48,"height":64,"properties":[{"name":"variant","type":"int","value":0}]},{"id":1656,"name":"tree_1609","type":"tree","x":3264,"y":3744,"width":48,"height":64,"properties":[{"name":"variant","type":"int","value":1}]},{"id":1657,"name":"tree_1610","type":"tree","x":3392,"y":3744,"width":48,"height":64,"properties":[{"name":"variant","type":"int","value":2}]},{"id":1658,"name":"tree_1611","type":"tree","x":3680,"y":3744,"width":48,"height":64,"properties":[{"name":"variant","type":"int","value":0}]},{"id":1659,"name":"tree_1612","type":"tree","x":3872,"y":3744,"width":48,"height":64,"properties":[{"name":"variant","type":"int","value":1}]},{"id":1660,"name":"tree_1613","type":"tree","x":3904,"y":3744,"width":48,"height":64,"properties":[{"name":"variant","type":"int","value":2}]},{"id":1661,"name":"tree_1614","type":"tree","x":4064,"y":3744,"width":48,"height":64,"properties":[{"name":"variant","type":"int","value":0}]},{"id":1662,"name":"tree_1615","type":"tree","x":4096,"y":3744,"width":48,"height":64,"properties":[{"name":"variant","type":"int","value":1}]},{"id":1663,"name":"tree_1616","type":"tree","x":4352,"y":3744,"width":48,"height":64,"properties":[{"name":"variant","type":"int","value":2}]},{"id":1664,"name":"tree_1617","type":"tree","x":5376,"y":3744,"width":48,"height":64,"properties":[{"name":"variant","type":"int","value":0}]},{"id":1665,"name":"tree_1618","type":"tree","x":5440,"y":3744,"width":48,"height":64,"properties":[{"name":"variant","type":"int","value":1}]},{"id":1666,"name":"tree_1619","type":"tree","x":5504,"y":3744,"width":48,"height":64,"properties":[{"name":"variant","type":"int","value":2}]},{"id":1667,"name":"tree_1620","type":"tree","x":5536,"y":3744,"width":48,"height":64,"properties":[{"name":"variant","type":"int","value":0}]},{"id":1668,"name":"tree_1621","type":"tree","x":5568,"y":3744,"width":48,"height":64,"properties":[{"name":"variant","type":"int","value":1}]},{"id":1669,"name":"tree_1622","type":"tree","x":5632,"y":3744,"width":48,"height":64,"properties":[{"name":"variant","type":"int","value":2}]},{"id":1670,"name":"tree_1623","type":"tree","x":5696,"y":3744,"width":48,"height":64,"properties":[{"name":"variant","type":"int","value":0}]},{"id":1671,"name":"tree_1624","type":"tree","x":5824,"y":3744,"width":48,"height":64,"properties":[{"name":"variant","type":"int","value":1}]},{"id":1672,"name":"tree_1625","type":"tree","x":5856,"y":3744,"width":48,"height":64,"properties":[{"name":"variant","type":"int","value":2}]},{"id":1673,"name":"tree_1626","type":"tree","x":2272,"y":3776,"width":48,"height":64,"properties":[{"name":"variant","type":"int","value":0}]},{"id":1674,"name":"tree_1627","type":"tree","x":2336,"y":3776,"width":48,"height":64,"properties":[{"name":"variant","type":"int","value":1}]},{"id":1675,"name":"tree_1628","type":"tree","x":2368,"y":3776,"width":48,"height":64,"properties":[{"name":"variant","type":"int","value":2}]},{"id":1676,"name":"tree_1629","type":"tree","x":2496,"y":3776,"width":48,"height":64,"properties":[{"name":"variant","type":"int","value":0}]},{"id":1677,"name":"tree_1630","type":"tree","x":2528,"y":3776,"width":48,"height":64,"properties":[{"name":"variant","type":"int","value":1}]},{"id":1678,"name":"tree_1631","type":"tree","x":2560,"y":3776,"width":48,"height":64,"properties":[{"name":"variant","type":"int","value":2}]},{"id":1679,"name":"tree_1632","type":"tree","x":2656,"y":3776,"width":48,"height":64,"properties":[{"name":"variant","type":"int","value":0}]},{"id":1680,"name":"tree_1633","type":"tree","x":2752,"y":3776,"width":48,"height":64,"properties":[{"name":"variant","type":"int","value":1}]},{"id":1681,"name":"tree_1634","type":"tree","x":2784,"y":3776,"width":48,"height":64,"properties":[{"name":"variant","type":"int","value":2}]},{"id":1682,"name":"tree_1635","type":"tree","x":2880,"y":3776,"width":48,"height":64,"properties":[{"name":"variant","type":"int","value":0}]},{"id":1683,"name":"tree_1636","type":"tree","x":2976,"y":3776,"width":48,"height":64,"properties":[{"name":"variant","type":"int","value":1}]},{"id":1684,"name":"tree_1637","type":"tree","x":3232,"y":3776,"width":48,"height":64,"properties":[{"name":"variant","type":"int","value":2}]},{"id":1685,"name":"tree_1638","type":"tree","x":3264,"y":3776,"width":48,"height":64,"properties":[{"name":"variant","type":"int","value":0}]},{"id":1686,"name":"tree_1639","type":"tree","x":3392,"y":3776,"width":48,"height":64,"properties":[{"name":"variant","type":"int","value":1}]},{"id":1687,"name":"tree_1640","type":"tree","x":3456,"y":3776,"width":48,"height":64,"properties":[{"name":"variant","type":"int","value":2}]},{"id":1688,"name":"tree_1641","type":"tree","x":3552,"y":3776,"width":48,"height":64,"properties":[{"name":"variant","type":"int","value":0}]},{"id":1689,"name":"tree_1642","type":"tree","x":3616,"y":3776,"width":48,"height":64,"properties":[{"name":"variant","type":"int","value":1}]},{"id":1690,"name":"tree_1643","type":"tree","x":3680,"y":3776,"width":48,"height":64,"properties":[{"name":"variant","type":"int","value":2}]},{"id":1691,"name":"tree_1644","type":"tree","x":3840,"y":3776,"width":48,"height":64,"properties":[{"name":"variant","type":"int","value":0}]},{"id":1692,"name":"tree_1645","type":"tree","x":3872,"y":3776,"width":48,"height":64,"properties":[{"name":"variant","type":"int","value":1}]},{"id":1693,"name":"tree_1646","type":"tree","x":3904,"y":3776,"width":48,"height":64,"properties":[{"name":"variant","type":"int","value":2}]},{"id":1694,"name":"tree_1647","type":"tree","x":4160,"y":3776,"width":48,"height":64,"properties":[{"name":"variant","type":"int","value":0}]},{"id":1695,"name":"tree_1648","type":"tree","x":4416,"y":3776,"width":48,"height":64,"properties":[{"name":"variant","type":"int","value":1}]},{"id":1696,"name":"tree_1649","type":"tree","x":5408,"y":3776,"width":48,"height":64,"properties":[{"name":"variant","type":"int","value":2}]},{"id":1697,"name":"tree_1650","type":"tree","x":5504,"y":3776,"width":48,"height":64,"properties":[{"name":"variant","type":"int","value":0}]},{"id":1698,"name":"tree_1651","type":"tree","x":5568,"y":3776,"width":48,"height":64,"properties":[{"name":"variant","type":"int","value":1}]},{"id":1699,"name":"tree_1652","type":"tree","x":5600,"y":3776,"width":48,"height":64,"properties":[{"name":"variant","type":"int","value":2}]},{"id":1700,"name":"tree_1653","type":"tree","x":5728,"y":3776,"width":48,"height":64,"properties":[{"name":"variant","type":"int","value":0}]},{"id":1701,"name":"tree_1654","type":"tree","x":5792,"y":3776,"width":48,"height":64,"properties":[{"name":"variant","type":"int","value":1}]},{"id":1702,"name":"tree_1655","type":"tree","x":5824,"y":3776,"width":48,"height":64,"properties":[{"name":"variant","type":"int","value":2}]},{"id":1703,"name":"tree_1656","type":"tree","x":5888,"y":3776,"width":48,"height":64,"properties":[{"name":"variant","type":"int","value":0}]},{"id":1704,"name":"tree_1657","type":"tree","x":2240,"y":3808,"width":48,"height":64,"properties":[{"name":"variant","type":"int","value":1}]},{"id":1705,"name":"tree_1658","type":"tree","x":2272,"y":3808,"width":48,"height":64,"properties":[{"name":"variant","type":"int","value":2}]},{"id":1706,"name":"tree_1659","type":"tree","x":2304,"y":3808,"width":48,"height":64,"properties":[{"name":"variant","type":"int","value":0}]},{"id":1707,"name":"tree_1660","type":"tree","x":2496,"y":3808,"width":48,"height":64,"properties":[{"name":"variant","type":"int","value":1}]},{"id":1708,"name":"tree_1661","type":"tree","x":2528,"y":3808,"width":48,"height":64,"properties":[{"name":"variant","type":"int","value":2}]},{"id":1709,"name":"tree_1662","type":"tree","x":2752,"y":3808,"width":48,"height":64,"properties":[{"name":"variant","type":"int","value":0}]},{"id":1710,"name":"tree_1663","type":"tree","x":2784,"y":3808,"width":48,"height":64,"properties":[{"name":"variant","type":"int","value":1}]},{"id":1711,"name":"tree_1664","type":"tree","x":2816,"y":3808,"width":48,"height":64,"properties":[{"name":"variant","type":"int","value":2}]},{"id":1712,"name":"tree_1665","type":"tree","x":2848,"y":3808,"width":48,"height":64,"properties":[{"name":"variant","type":"int","value":0}]},{"id":1713,"name":"tree_1666","type":"tree","x":2944,"y":3808,"width":48,"height":64,"properties":[{"name":"variant","type":"int","value":1}]},{"id":1714,"name":"tree_1667","type":"tree","x":3200,"y":3808,"width":48,"height":64,"properties":[{"name":"variant","type":"int","value":2}]},{"id":1715,"name":"tree_1668","type":"tree","x":3264,"y":3808,"width":48,"height":64,"properties":[{"name":"variant","type":"int","value":0}]},{"id":1716,"name":"tree_1669","type":"tree","x":3328,"y":3808,"width":48,"height":64,"properties":[{"name":"variant","type":"int","value":1}]},{"id":1717,"name":"tree_1670","type":"tree","x":3360,"y":3808,"width":48,"height":64,"properties":[{"name":"variant","type":"int","value":2}]},{"id":1718,"name":"tree_1671","type":"tree","x":3392,"y":3808,"width":48,"height":64,"properties":[{"name":"variant","type":"int","value":0}]},{"id":1719,"name":"tree_1672","type":"tree","x":3488,"y":3808,"width":48,"height":64,"properties":[{"name":"variant","type":"int","value":1}]},{"id":1720,"name":"tree_1673","type":"tree","x":3520,"y":3808,"width":48,"height":64,"properties":[{"name":"variant","type":"int","value":2}]},{"id":1721,"name":"tree_1674","type":"tree","x":3744,"y":3808,"width":48,"height":64,"properties":[{"name":"variant","type":"int","value":0}]},{"id":1722,"name":"tree_1675","type":"tree","x":3776,"y":3808,"width":48,"height":64,"properties":[{"name":"variant","type":"int","value":1}]},{"id":1723,"name":"tree_1676","type":"tree","x":3808,"y":3808,"width":48,"height":64,"properties":[{"name":"variant","type":"int","value":2}]},{"id":1724,"name":"tree_1677","type":"tree","x":4128,"y":3808,"width":48,"height":64,"properties":[{"name":"variant","type":"int","value":0}]},{"id":1725,"name":"tree_1678","type":"tree","x":4160,"y":3808,"width":48,"height":64,"properties":[{"name":"variant","type":"int","value":1}]},{"id":1726,"name":"tree_1679","type":"tree","x":4192,"y":3808,"width":48,"height":64,"properties":[{"name":"variant","type":"int","value":2}]},{"id":1727,"name":"tree_1680","type":"tree","x":4256,"y":3808,"width":48,"height":64,"properties":[{"name":"variant","type":"int","value":0}]},{"id":1728,"name":"tree_1681","type":"tree","x":4288,"y":3808,"width":48,"height":64,"properties":[{"name":"variant","type":"int","value":1}]},{"id":1729,"name":"tree_1682","type":"tree","x":4320,"y":3808,"width":48,"height":64,"properties":[{"name":"variant","type":"int","value":2}]},{"id":1730,"name":"tree_1683","type":"tree","x":4352,"y":3808,"width":48,"height":64,"properties":[{"name":"variant","type":"int","value":0}]},{"id":1731,"name":"tree_1684","type":"tree","x":4416,"y":3808,"width":48,"height":64,"properties":[{"name":"variant","type":"int","value":1}]},{"id":1732,"name":"tree_1685","type":"tree","x":4448,"y":3808,"width":48,"height":64,"properties":[{"name":"variant","type":"int","value":2}]},{"id":1733,"name":"tree_1686","type":"tree","x":5408,"y":3808,"width":48,"height":64,"properties":[{"name":"variant","type":"int","value":0}]},{"id":1734,"name":"tree_1687","type":"tree","x":5472,"y":3808,"width":48,"height":64,"properties":[{"name":"variant","type":"int","value":1}]},{"id":1735,"name":"tree_1688","type":"tree","x":5504,"y":3808,"width":48,"height":64,"properties":[{"name":"variant","type":"int","value":2}]},{"id":1736,"name":"tree_1689","type":"tree","x":5536,"y":3808,"width":48,"height":64,"properties":[{"name":"variant","type":"int","value":0}]},{"id":1737,"name":"tree_1690","type":"tree","x":5568,"y":3808,"width":48,"height":64,"properties":[{"name":"variant","type":"int","value":1}]},{"id":1738,"name":"tree_1691","type":"tree","x":5664,"y":3808,"width":48,"height":64,"properties":[{"name":"variant","type":"int","value":2}]},{"id":1739,"name":"tree_1692","type":"tree","x":5728,"y":3808,"width":48,"height":64,"properties":[{"name":"variant","type":"int","value":0}]},{"id":1740,"name":"tree_1693","type":"tree","x":5824,"y":3808,"width":48,"height":64,"properties":[{"name":"variant","type":"int","value":1}]},{"id":1741,"name":"tree_1694","type":"tree","x":5888,"y":3808,"width":48,"height":64,"properties":[{"name":"variant","type":"int","value":2}]},{"id":1742,"name":"tree_1695","type":"tree","x":2272,"y":3840,"width":48,"height":64,"properties":[{"name":"variant","type":"int","value":0}]},{"id":1743,"name":"tree_1696","type":"tree","x":2304,"y":3840,"width":48,"height":64,"properties":[{"name":"variant","type":"int","value":1}]},{"id":1744,"name":"tree_1697","type":"tree","x":2368,"y":3840,"width":48,"height":64,"properties":[{"name":"variant","type":"int","value":2}]},{"id":1745,"name":"tree_1698","type":"tree","x":2464,"y":3840,"width":48,"height":64,"properties":[{"name":"variant","type":"int","value":0}]},{"id":1746,"name":"tree_1699","type":"tree","x":2528,"y":3840,"width":48,"height":64,"properties":[{"name":"variant","type":"int","value":1}]},{"id":1747,"name":"tree_1700","type":"tree","x":2592,"y":3840,"width":48,"height":64,"properties":[{"name":"variant","type":"int","value":2}]},{"id":1748,"name":"tree_1701","type":"tree","x":2624,"y":3840,"width":48,"height":64,"properties":[{"name":"variant","type":"int","value":0}]},{"id":1749,"name":"tree_1702","type":"tree","x":2688,"y":3840,"width":48,"height":64,"properties":[{"name":"variant","type":"int","value":1}]},{"id":1750,"name":"tree_1703","type":"tree","x":2752,"y":3840,"width":48,"height":64,"properties":[{"name":"variant","type":"int","value":2}]},{"id":1751,"name":"tree_1704","type":"tree","x":2848,"y":3840,"width":48,"height":64,"properties":[{"name":"variant","type":"int","value":0}]},{"id":1752,"name":"tree_1705","type":"tree","x":2912,"y":3840,"width":48,"height":64,"properties":[{"name":"variant","type":"int","value":1}]},{"id":1753,"name":"tree_1706","type":"tree","x":2944,"y":3840,"width":48,"height":64,"properties":[{"name":"variant","type":"int","value":2}]},{"id":1754,"name":"tree_1707","type":"tree","x":3008,"y":3840,"width":48,"height":64,"properties":[{"name":"variant","type":"int","value":0}]},{"id":1755,"name":"tree_1708","type":"tree","x":3296,"y":3840,"width":48,"height":64,"properties":[{"name":"variant","type":"int","value":1}]},{"id":1756,"name":"tree_1709","type":"tree","x":3360,"y":3840,"width":48,"height":64,"properties":[{"name":"variant","type":"int","value":2}]},{"id":1757,"name":"tree_1710","type":"tree","x":3616,"y":3840,"width":48,"height":64,"properties":[{"name":"variant","type":"int","value":0}]},{"id":1758,"name":"tree_1711","type":"tree","x":3744,"y":3840,"width":48,"height":64,"properties":[{"name":"variant","type":"int","value":1}]},{"id":1759,"name":"tree_1712","type":"tree","x":3840,"y":3840,"width":48,"height":64,"properties":[{"name":"variant","type":"int","value":2}]},{"id":1760,"name":"tree_1713","type":"tree","x":4096,"y":3840,"width":48,"height":64,"properties":[{"name":"variant","type":"int","value":0}]},{"id":1761,"name":"tree_1714","type":"tree","x":4192,"y":3840,"width":48,"height":64,"properties":[{"name":"variant","type":"int","value":1}]},{"id":1762,"name":"tree_1715","type":"tree","x":4256,"y":3840,"width":48,"height":64,"properties":[{"name":"variant","type":"int","value":2}]},{"id":1763,"name":"tree_1716","type":"tree","x":4352,"y":3840,"width":48,"height":64,"properties":[{"name":"variant","type":"int","value":0}]},{"id":1764,"name":"tree_1717","type":"tree","x":4448,"y":3840,"width":48,"height":64,"properties":[{"name":"variant","type":"int","value":1}]},{"id":1765,"name":"tree_1718","type":"tree","x":5408,"y":3840,"width":48,"height":64,"properties":[{"name":"variant","type":"int","value":2}]},{"id":1766,"name":"tree_1719","type":"tree","x":5472,"y":3840,"width":48,"height":64,"properties":[{"name":"variant","type":"int","value":0}]},{"id":1767,"name":"tree_1720","type":"tree","x":5504,"y":3840,"width":48,"height":64,"properties":[{"name":"variant","type":"int","value":1}]},{"id":1768,"name":"tree_1721","type":"tree","x":5664,"y":3840,"width":48,"height":64,"properties":[{"name":"variant","type":"int","value":2}]},{"id":1769,"name":"tree_1722","type":"tree","x":5760,"y":3840,"width":48,"height":64,"properties":[{"name":"variant","type":"int","value":0}]},{"id":1770,"name":"tree_1723","type":"tree","x":5824,"y":3840,"width":48,"height":64,"properties":[{"name":"variant","type":"int","value":1}]},{"id":1771,"name":"tree_1724","type":"tree","x":5984,"y":3840,"width":48,"height":64,"properties":[{"name":"variant","type":"int","value":2}]},{"id":1772,"name":"tree_1725","type":"tree","x":2272,"y":3872,"width":48,"height":64,"properties":[{"name":"variant","type":"int","value":0}]},{"id":1773,"name":"tree_1726","type":"tree","x":2336,"y":3872,"width":48,"height":64,"properties":[{"name":"variant","type":"int","value":1}]},{"id":1774,"name":"tree_1727","type":"tree","x":2528,"y":3872,"width":48,"height":64,"properties":[{"name":"variant","type":"int","value":2}]},{"id":1775,"name":"tree_1728","type":"tree","x":2560,"y":3872,"width":48,"height":64,"properties":[{"name":"variant","type":"int","value":0}]},{"id":1776,"name":"tree_1729","type":"tree","x":2592,"y":3872,"width":48,"height":64,"properties":[{"name":"variant","type":"int","value":1}]},{"id":1777,"name":"tree_1730","type":"tree","x":2624,"y":3872,"width":48,"height":64,"properties":[{"name":"variant","type":"int","value":2}]},{"id":1778,"name":"tree_1731","type":"tree","x":2688,"y":3872,"width":48,"height":64,"properties":[{"name":"variant","type":"int","value":0}]},{"id":1779,"name":"tree_1732","type":"tree","x":2720,"y":3872,"width":48,"height":64,"properties":[{"name":"variant","type":"int","value":1}]},{"id":1780,"name":"tree_1733","type":"tree","x":2784,"y":3872,"width":48,"height":64,"properties":[{"name":"variant","type":"int","value":2}]},{"id":1781,"name":"tree_1734","type":"tree","x":2816,"y":3872,"width":48,"height":64,"properties":[{"name":"variant","type":"int","value":0}]},{"id":1782,"name":"tree_1735","type":"tree","x":2848,"y":3872,"width":48,"height":64,"properties":[{"name":"variant","type":"int","value":1}]},{"id":1783,"name":"tree_1736","type":"tree","x":2912,"y":3872,"width":48,"height":64,"properties":[{"name":"variant","type":"int","value":2}]},{"id":1784,"name":"tree_1737","type":"tree","x":3040,"y":3872,"width":48,"height":64,"properties":[{"name":"variant","type":"int","value":0}]},{"id":1785,"name":"tree_1738","type":"tree","x":3072,"y":3872,"width":48,"height":64,"properties":[{"name":"variant","type":"int","value":1}]},{"id":1786,"name":"tree_1739","type":"tree","x":3104,"y":3872,"width":48,"height":64,"properties":[{"name":"variant","type":"int","value":2}]},{"id":1787,"name":"tree_1740","type":"tree","x":3232,"y":3872,"width":48,"height":64,"properties":[{"name":"variant","type":"int","value":0}]},{"id":1788,"name":"tree_1741","type":"tree","x":3328,"y":3872,"width":48,"height":64,"properties":[{"name":"variant","type":"int","value":1}]},{"id":1789,"name":"tree_1742","type":"tree","x":3456,"y":3872,"width":48,"height":64,"properties":[{"name":"variant","type":"int","value":2}]},{"id":1790,"name":"tree_1743","type":"tree","x":3552,"y":3872,"width":48,"height":64,"properties":[{"name":"variant","type":"int","value":0}]},{"id":1791,"name":"tree_1744","type":"tree","x":3616,"y":3872,"width":48,"height":64,"properties":[{"name":"variant","type":"int","value":1}]},{"id":1792,"name":"tree_1745","type":"tree","x":3936,"y":3872,"width":48,"height":64,"properties":[{"name":"variant","type":"int","value":2}]},{"id":1793,"name":"tree_1746","type":"tree","x":4032,"y":3872,"width":48,"height":64,"properties":[{"name":"variant","type":"int","value":0}]},{"id":1794,"name":"tree_1747","type":"tree","x":4096,"y":3872,"width":48,"height":64,"properties":[{"name":"variant","type":"int","value":1}]},{"id":1795,"name":"tree_1748","type":"tree","x":4224,"y":3872,"width":48,"height":64,"properties":[{"name":"variant","type":"int","value":2}]},{"id":1796,"name":"tree_1749","type":"tree","x":4320,"y":3872,"width":48,"height":64,"properties":[{"name":"variant","type":"int","value":0}]},{"id":1797,"name":"tree_1750","type":"tree","x":4384,"y":3872,"width":48,"height":64,"properties":[{"name":"variant","type":"int","value":1}]},{"id":1798,"name":"tree_1751","type":"tree","x":5248,"y":3872,"width":48,"height":64,"properties":[{"name":"variant","type":"int","value":2}]},{"id":1799,"name":"tree_1752","type":"tree","x":5376,"y":3872,"width":48,"height":64,"properties":[{"name":"variant","type":"int","value":0}]},{"id":1800,"name":"tree_1753","type":"tree","x":5472,"y":3872,"width":48,"height":64,"properties":[{"name":"variant","type":"int","value":1}]},{"id":1801,"name":"tree_1754","type":"tree","x":5504,"y":3872,"width":48,"height":64,"properties":[{"name":"variant","type":"int","value":2}]},{"id":1802,"name":"tree_1755","type":"tree","x":5536,"y":3872,"width":48,"height":64,"properties":[{"name":"variant","type":"int","value":0}]},{"id":1803,"name":"tree_1756","type":"tree","x":5568,"y":3872,"width":48,"height":64,"properties":[{"name":"variant","type":"int","value":1}]},{"id":1804,"name":"tree_1757","type":"tree","x":5600,"y":3872,"width":48,"height":64,"properties":[{"name":"variant","type":"int","value":2}]},{"id":1805,"name":"tree_1758","type":"tree","x":5632,"y":3872,"width":48,"height":64,"properties":[{"name":"variant","type":"int","value":0}]},{"id":1806,"name":"tree_1759","type":"tree","x":5824,"y":3872,"width":48,"height":64,"properties":[{"name":"variant","type":"int","value":1}]},{"id":1807,"name":"tree_1760","type":"tree","x":5856,"y":3872,"width":48,"height":64,"properties":[{"name":"variant","type":"int","value":2}]},{"id":1808,"name":"tree_1761","type":"tree","x":5952,"y":3872,"width":48,"height":64,"properties":[{"name":"variant","type":"int","value":0}]},{"id":1809,"name":"tree_1762","type":"tree","x":2560,"y":3904,"width":48,"height":64,"properties":[{"name":"variant","type":"int","value":1}]},{"id":1810,"name":"tree_1763","type":"tree","x":2880,"y":3904,"width":48,"height":64,"properties":[{"name":"variant","type":"int","value":2}]},{"id":1811,"name":"tree_1764","type":"tree","x":2976,"y":3904,"width":48,"height":64,"properties":[{"name":"variant","type":"int","value":0}]},{"id":1812,"name":"tree_1765","type":"tree","x":3008,"y":3904,"width":48,"height":64,"properties":[{"name":"variant","type":"int","value":1}]},{"id":1813,"name":"tree_1766","type":"tree","x":3136,"y":3904,"width":48,"height":64,"properties":[{"name":"variant","type":"int","value":2}]},{"id":1814,"name":"tree_1767","type":"tree","x":3232,"y":3904,"width":48,"height":64,"properties":[{"name":"variant","type":"int","value":0}]},{"id":1815,"name":"tree_1768","type":"tree","x":3296,"y":3904,"width":48,"height":64,"properties":[{"name":"variant","type":"int","value":1}]},{"id":1816,"name":"tree_1769","type":"tree","x":3328,"y":3904,"width":48,"height":64,"properties":[{"name":"variant","type":"int","value":2}]},{"id":1817,"name":"tree_1770","type":"tree","x":3360,"y":3904,"width":48,"height":64,"properties":[{"name":"variant","type":"int","value":0}]},{"id":1818,"name":"tree_1771","type":"tree","x":3392,"y":3904,"width":48,"height":64,"properties":[{"name":"variant","type":"int","value":1}]},{"id":1819,"name":"tree_1772","type":"tree","x":3904,"y":3904,"width":48,"height":64,"properties":[{"name":"variant","type":"int","value":2}]},{"id":1820,"name":"tree_1773","type":"tree","x":4032,"y":3904,"width":48,"height":64,"properties":[{"name":"variant","type":"int","value":0}]},{"id":1821,"name":"tree_1774","type":"tree","x":4064,"y":3904,"width":48,"height":64,"properties":[{"name":"variant","type":"int","value":1}]},{"id":1822,"name":"tree_1775","type":"tree","x":4096,"y":3904,"width":48,"height":64,"properties":[{"name":"variant","type":"int","value":2}]},{"id":1823,"name":"tree_1776","type":"tree","x":4128,"y":3904,"width":48,"height":64,"properties":[{"name":"variant","type":"int","value":0}]},{"id":1824,"name":"tree_1777","type":"tree","x":4192,"y":3904,"width":48,"height":64,"properties":[{"name":"variant","type":"int","value":1}]},{"id":1825,"name":"tree_1778","type":"tree","x":4256,"y":3904,"width":48,"height":64,"properties":[{"name":"variant","type":"int","value":2}]},{"id":1826,"name":"tree_1779","type":"tree","x":4320,"y":3904,"width":48,"height":64,"properties":[{"name":"variant","type":"int","value":0}]},{"id":1827,"name":"tree_1780","type":"tree","x":5312,"y":3904,"width":48,"height":64,"properties":[{"name":"variant","type":"int","value":1}]},{"id":1828,"name":"tree_1781","type":"tree","x":5344,"y":3904,"width":48,"height":64,"properties":[{"name":"variant","type":"int","value":2}]},{"id":1829,"name":"tree_1782","type":"tree","x":5408,"y":3904,"width":48,"height":64,"properties":[{"name":"variant","type":"int","value":0}]},{"id":1830,"name":"tree_1783","type":"tree","x":5472,"y":3904,"width":48,"height":64,"properties":[{"name":"variant","type":"int","value":1}]},{"id":1831,"name":"tree_1784","type":"tree","x":5536,"y":3904,"width":48,"height":64,"properties":[{"name":"variant","type":"int","value":2}]},{"id":1832,"name":"tree_1785","type":"tree","x":5568,"y":3904,"width":48,"height":64,"properties":[{"name":"variant","type":"int","value":0}]},{"id":1833,"name":"tree_1786","type":"tree","x":5600,"y":3904,"width":48,"height":64,"properties":[{"name":"variant","type":"int","value":1}]},{"id":1834,"name":"tree_1787","type":"tree","x":5696,"y":3904,"width":48,"height":64,"properties":[{"name":"variant","type":"int","value":2}]},{"id":1835,"name":"tree_1788","type":"tree","x":5856,"y":3904,"width":48,"height":64,"properties":[{"name":"variant","type":"int","value":0}]},{"id":1836,"name":"tree_1789","type":"tree","x":5888,"y":3904,"width":48,"height":64,"properties":[{"name":"variant","type":"int","value":1}]},{"id":1837,"name":"tree_1790","type":"tree","x":5920,"y":3904,"width":48,"height":64,"properties":[{"name":"variant","type":"int","value":2}]},{"id":1838,"name":"tree_1791","type":"tree","x":5984,"y":3904,"width":48,"height":64,"properties":[{"name":"variant","type":"int","value":0}]},{"id":1839,"name":"tree_1792","type":"tree","x":6080,"y":3904,"width":48,"height":64,"properties":[{"name":"variant","type":"int","value":1}]},{"id":1840,"name":"tree_1793","type":"tree","x":2592,"y":3936,"width":48,"height":64,"properties":[{"name":"variant","type":"int","value":2}]},{"id":1841,"name":"tree_1794","type":"tree","x":2624,"y":3936,"width":48,"height":64,"properties":[{"name":"variant","type":"int","value":0}]},{"id":1842,"name":"tree_1795","type":"tree","x":2688,"y":3936,"width":48,"height":64,"properties":[{"name":"variant","type":"int","value":1}]},{"id":1843,"name":"tree_1796","type":"tree","x":2848,"y":3936,"width":48,"height":64,"properties":[{"name":"variant","type":"int","value":2}]},{"id":1844,"name":"tree_1797","type":"tree","x":2944,"y":3936,"width":48,"height":64,"properties":[{"name":"variant","type":"int","value":0}]},{"id":1845,"name":"tree_1798","type":"tree","x":2976,"y":3936,"width":48,"height":64,"properties":[{"name":"variant","type":"int","value":1}]},{"id":1846,"name":"tree_1799","type":"tree","x":3296,"y":3936,"width":48,"height":64,"properties":[{"name":"variant","type":"int","value":2}]},{"id":1847,"name":"tree_1800","type":"tree","x":3328,"y":3936,"width":48,"height":64,"properties":[{"name":"variant","type":"int","value":0}]},{"id":1848,"name":"tree_1801","type":"tree","x":3392,"y":3936,"width":48,"height":64,"properties":[{"name":"variant","type":"int","value":1}]},{"id":1849,"name":"tree_1802","type":"tree","x":3424,"y":3936,"width":48,"height":64,"properties":[{"name":"variant","type":"int","value":2}]},{"id":1850,"name":"tree_1803","type":"tree","x":3680,"y":3936,"width":48,"height":64,"properties":[{"name":"variant","type":"int","value":0}]},{"id":1851,"name":"tree_1804","type":"tree","x":4000,"y":3936,"width":48,"height":64,"properties":[{"name":"variant","type":"int","value":1}]},{"id":1852,"name":"tree_1805","type":"tree","x":4032,"y":3936,"width":48,"height":64,"properties":[{"name":"variant","type":"int","value":2}]},{"id":1853,"name":"tree_1806","type":"tree","x":4192,"y":3936,"width":48,"height":64,"properties":[{"name":"variant","type":"int","value":0}]},{"id":1854,"name":"tree_1807","type":"tree","x":4256,"y":3936,"width":48,"height":64,"properties":[{"name":"variant","type":"int","value":1}]},{"id":1855,"name":"tree_1808","type":"tree","x":4448,"y":3936,"width":48,"height":64,"properties":[{"name":"variant","type":"int","value":2}]},{"id":1856,"name":"tree_1809","type":"tree","x":4672,"y":3936,"width":48,"height":64,"properties":[{"name":"variant","type":"int","value":0}]},{"id":1857,"name":"tree_1810","type":"tree","x":5152,"y":3936,"width":48,"height":64,"properties":[{"name":"variant","type":"int","value":1}]},{"id":1858,"name":"tree_1811","type":"tree","x":5568,"y":3936,"width":48,"height":64,"properties":[{"name":"variant","type":"int","value":2}]},{"id":1859,"name":"tree_1812","type":"tree","x":5760,"y":3936,"width":48,"height":64,"properties":[{"name":"variant","type":"int","value":0}]},{"id":1860,"name":"tree_1813","type":"tree","x":5792,"y":3936,"width":48,"height":64,"properties":[{"name":"variant","type":"int","value":1}]},{"id":1861,"name":"tree_1814","type":"tree","x":5952,"y":3936,"width":48,"height":64,"properties":[{"name":"variant","type":"int","value":2}]},{"id":1862,"name":"tree_1815","type":"tree","x":5984,"y":3936,"width":48,"height":64,"properties":[{"name":"variant","type":"int","value":0}]},{"id":1863,"name":"tree_1816","type":"tree","x":6048,"y":3936,"width":48,"height":64,"properties":[{"name":"variant","type":"int","value":1}]},{"id":1864,"name":"tree_1817","type":"tree","x":2560,"y":3968,"width":48,"height":64,"properties":[{"name":"variant","type":"int","value":2}]},{"id":1865,"name":"tree_1818","type":"tree","x":2656,"y":3968,"width":48,"height":64,"properties":[{"name":"variant","type":"int","value":0}]},{"id":1866,"name":"tree_1819","type":"tree","x":2688,"y":3968,"width":48,"height":64,"properties":[{"name":"variant","type":"int","value":1}]},{"id":1867,"name":"tree_1820","type":"tree","x":2720,"y":3968,"width":48,"height":64,"properties":[{"name":"variant","type":"int","value":2}]},{"id":1868,"name":"tree_1821","type":"tree","x":2816,"y":3968,"width":48,"height":64,"properties":[{"name":"variant","type":"int","value":0}]},{"id":1869,"name":"tree_1822","type":"tree","x":2848,"y":3968,"width":48,"height":64,"properties":[{"name":"variant","type":"int","value":1}]},{"id":1870,"name":"tree_1823","type":"tree","x":2912,"y":3968,"width":48,"height":64,"properties":[{"name":"variant","type":"int","value":2}]},{"id":1871,"name":"tree_1824","type":"tree","x":2976,"y":3968,"width":48,"height":64,"properties":[{"name":"variant","type":"int","value":0}]},{"id":1872,"name":"tree_1825","type":"tree","x":3040,"y":3968,"width":48,"height":64,"properties":[{"name":"variant","type":"int","value":1}]},{"id":1873,"name":"tree_1826","type":"tree","x":3072,"y":3968,"width":48,"height":64,"properties":[{"name":"variant","type":"int","value":2}]},{"id":1874,"name":"tree_1827","type":"tree","x":3296,"y":3968,"width":48,"height":64,"properties":[{"name":"variant","type":"int","value":0}]},{"id":1875,"name":"tree_1828","type":"tree","x":3392,"y":3968,"width":48,"height":64,"properties":[{"name":"variant","type":"int","value":1}]},{"id":1876,"name":"tree_1829","type":"tree","x":3424,"y":3968,"width":48,"height":64,"properties":[{"name":"variant","type":"int","value":2}]},{"id":1877,"name":"tree_1830","type":"tree","x":3520,"y":3968,"width":48,"height":64,"properties":[{"name":"variant","type":"int","value":0}]},{"id":1878,"name":"tree_1831","type":"tree","x":3776,"y":3968,"width":48,"height":64,"properties":[{"name":"variant","type":"int","value":1}]},{"id":1879,"name":"tree_1832","type":"tree","x":3872,"y":3968,"width":48,"height":64,"properties":[{"name":"variant","type":"int","value":2}]},{"id":1880,"name":"tree_1833","type":"tree","x":4000,"y":3968,"width":48,"height":64,"properties":[{"name":"variant","type":"int","value":0}]},{"id":1881,"name":"tree_1834","type":"tree","x":4032,"y":3968,"width":48,"height":64,"properties":[{"name":"variant","type":"int","value":1}]},{"id":1882,"name":"tree_1835","type":"tree","x":4064,"y":3968,"width":48,"height":64,"properties":[{"name":"variant","type":"int","value":2}]},{"id":1883,"name":"tree_1836","type":"tree","x":4128,"y":3968,"width":48,"height":64,"properties":[{"name":"variant","type":"int","value":0}]},{"id":1884,"name":"tree_1837","type":"tree","x":4192,"y":3968,"width":48,"height":64,"properties":[{"name":"variant","type":"int","value":1}]},{"id":1885,"name":"tree_1838","type":"tree","x":4256,"y":3968,"width":48,"height":64,"properties":[{"name":"variant","type":"int","value":2}]},{"id":1886,"name":"tree_1839","type":"tree","x":4320,"y":3968,"width":48,"height":64,"properties":[{"name":"variant","type":"int","value":0}]},{"id":1887,"name":"tree_1840","type":"tree","x":4384,"y":3968,"width":48,"height":64,"properties":[{"name":"variant","type":"int","value":1}]},{"id":1888,"name":"tree_1841","type":"tree","x":4480,"y":3968,"width":48,"height":64,"properties":[{"name":"variant","type":"int","value":2}]},{"id":1889,"name":"tree_1842","type":"tree","x":4512,"y":3968,"width":48,"height":64,"properties":[{"name":"variant","type":"int","value":0}]},{"id":1890,"name":"tree_1843","type":"tree","x":4544,"y":3968,"width":48,"height":64,"properties":[{"name":"variant","type":"int","value":1}]},{"id":1891,"name":"tree_1844","type":"tree","x":4608,"y":3968,"width":48,"height":64,"properties":[{"name":"variant","type":"int","value":2}]},{"id":1892,"name":"tree_1845","type":"tree","x":5088,"y":3968,"width":48,"height":64,"properties":[{"name":"variant","type":"int","value":0}]},{"id":1893,"name":"tree_1846","type":"tree","x":5408,"y":3968,"width":48,"height":64,"properties":[{"name":"variant","type":"int","value":1}]},{"id":1894,"name":"tree_1847","type":"tree","x":5440,"y":3968,"width":48,"height":64,"properties":[{"name":"variant","type":"int","value":2}]},{"id":1895,"name":"tree_1848","type":"tree","x":5504,"y":3968,"width":48,"height":64,"properties":[{"name":"variant","type":"int","value":0}]},{"id":1896,"name":"tree_1849","type":"tree","x":5568,"y":3968,"width":48,"height":64,"properties":[{"name":"variant","type":"int","value":1}]},{"id":1897,"name":"tree_1850","type":"tree","x":5696,"y":3968,"width":48,"height":64,"properties":[{"name":"variant","type":"int","value":2}]},{"id":1898,"name":"tree_1851","type":"tree","x":5728,"y":3968,"width":48,"height":64,"properties":[{"name":"variant","type":"int","value":0}]},{"id":1899,"name":"tree_1852","type":"tree","x":5760,"y":3968,"width":48,"height":64,"properties":[{"name":"variant","type":"int","value":1}]},{"id":1900,"name":"tree_1853","type":"tree","x":5920,"y":3968,"width":48,"height":64,"properties":[{"name":"variant","type":"int","value":2}]},{"id":1901,"name":"tree_1854","type":"tree","x":2688,"y":4000,"width":48,"height":64,"properties":[{"name":"variant","type":"int","value":0}]},{"id":1902,"name":"tree_1855","type":"tree","x":2976,"y":4000,"width":48,"height":64,"properties":[{"name":"variant","type":"int","value":1}]},{"id":1903,"name":"tree_1856","type":"tree","x":3040,"y":4000,"width":48,"height":64,"properties":[{"name":"variant","type":"int","value":2}]},{"id":1904,"name":"tree_1857","type":"tree","x":3168,"y":4000,"width":48,"height":64,"properties":[{"name":"variant","type":"int","value":0}]},{"id":1905,"name":"tree_1858","type":"tree","x":3264,"y":4000,"width":48,"height":64,"properties":[{"name":"variant","type":"int","value":1}]},{"id":1906,"name":"tree_1859","type":"tree","x":3296,"y":4000,"width":48,"height":64,"properties":[{"name":"variant","type":"int","value":2}]},{"id":1907,"name":"tree_1860","type":"tree","x":3584,"y":4000,"width":48,"height":64,"properties":[{"name":"variant","type":"int","value":0}]},{"id":1908,"name":"tree_1861","type":"tree","x":3616,"y":4000,"width":48,"height":64,"properties":[{"name":"variant","type":"int","value":1}]},{"id":1909,"name":"tree_1862","type":"tree","x":3680,"y":4000,"width":48,"height":64,"properties":[{"name":"variant","type":"int","value":2}]},{"id":1910,"name":"tree_1863","type":"tree","x":3712,"y":4000,"width":48,"height":64,"properties":[{"name":"variant","type":"int","value":0}]},{"id":1911,"name":"tree_1864","type":"tree","x":3808,"y":4000,"width":48,"height":64,"properties":[{"name":"variant","type":"int","value":1}]},{"id":1912,"name":"tree_1865","type":"tree","x":3904,"y":4000,"width":48,"height":64,"properties":[{"name":"variant","type":"int","value":2}]},{"id":1913,"name":"tree_1866","type":"tree","x":3936,"y":4000,"width":48,"height":64,"properties":[{"name":"variant","type":"int","value":0}]},{"id":1914,"name":"tree_1867","type":"tree","x":4000,"y":4000,"width":48,"height":64,"properties":[{"name":"variant","type":"int","value":1}]},{"id":1915,"name":"tree_1868","type":"tree","x":4032,"y":4000,"width":48,"height":64,"properties":[{"name":"variant","type":"int","value":2}]},{"id":1916,"name":"tree_1869","type":"tree","x":4128,"y":4000,"width":48,"height":64,"properties":[{"name":"variant","type":"int","value":0}]},{"id":1917,"name":"tree_1870","type":"tree","x":4352,"y":4000,"width":48,"height":64,"properties":[{"name":"variant","type":"int","value":1}]},{"id":1918,"name":"tree_1871","type":"tree","x":4416,"y":4000,"width":48,"height":64,"properties":[{"name":"variant","type":"int","value":2}]},{"id":1919,"name":"tree_1872","type":"tree","x":4448,"y":4000,"width":48,"height":64,"properties":[{"name":"variant","type":"int","value":0}]},{"id":1920,"name":"tree_1873","type":"tree","x":5088,"y":4000,"width":48,"height":64,"properties":[{"name":"variant","type":"int","value":1}]},{"id":1921,"name":"tree_1874","type":"tree","x":5248,"y":4000,"width":48,"height":64,"properties":[{"name":"variant","type":"int","value":2}]},{"id":1922,"name":"tree_1875","type":"tree","x":5312,"y":4000,"width":48,"height":64,"properties":[{"name":"variant","type":"int","value":0}]},{"id":1923,"name":"tree_1876","type":"tree","x":5472,"y":4000,"width":48,"height":64,"properties":[{"name":"variant","type":"int","value":1}]},{"id":1924,"name":"tree_1877","type":"tree","x":5504,"y":4000,"width":48,"height":64,"properties":[{"name":"variant","type":"int","value":2}]},{"id":1925,"name":"tree_1878","type":"tree","x":5536,"y":4000,"width":48,"height":64,"properties":[{"name":"variant","type":"int","value":0}]},{"id":1926,"name":"tree_1879","type":"tree","x":5568,"y":4000,"width":48,"height":64,"properties":[{"name":"variant","type":"int","value":1}]},{"id":1927,"name":"tree_1880","type":"tree","x":5600,"y":4000,"width":48,"height":64,"properties":[{"name":"variant","type":"int","value":2}]},{"id":1928,"name":"tree_1881","type":"tree","x":5632,"y":4000,"width":48,"height":64,"properties":[{"name":"variant","type":"int","value":0}]},{"id":1929,"name":"tree_1882","type":"tree","x":5792,"y":4000,"width":48,"height":64,"properties":[{"name":"variant","type":"int","value":1}]},{"id":1930,"name":"tree_1883","type":"tree","x":5824,"y":4000,"width":48,"height":64,"properties":[{"name":"variant","type":"int","value":2}]},{"id":1931,"name":"tree_1884","type":"tree","x":6016,"y":4000,"width":48,"height":64,"properties":[{"name":"variant","type":"int","value":0}]},{"id":1932,"name":"tree_1885","type":"tree","x":2720,"y":4032,"width":48,"height":64,"properties":[{"name":"variant","type":"int","value":1}]},{"id":1933,"name":"tree_1886","type":"tree","x":2752,"y":4032,"width":48,"height":64,"properties":[{"name":"variant","type":"int","value":2}]},{"id":1934,"name":"tree_1887","type":"tree","x":2912,"y":4032,"width":48,"height":64,"properties":[{"name":"variant","type":"int","value":0}]},{"id":1935,"name":"tree_1888","type":"tree","x":3008,"y":4032,"width":48,"height":64,"properties":[{"name":"variant","type":"int","value":1}]},{"id":1936,"name":"tree_1889","type":"tree","x":3040,"y":4032,"width":48,"height":64,"properties":[{"name":"variant","type":"int","value":2}]},{"id":1937,"name":"tree_1890","type":"tree","x":3232,"y":4032,"width":48,"height":64,"properties":[{"name":"variant","type":"int","value":0}]},{"id":1938,"name":"tree_1891","type":"tree","x":3264,"y":4032,"width":48,"height":64,"properties":[{"name":"variant","type":"int","value":1}]},{"id":1939,"name":"tree_1892","type":"tree","x":3296,"y":4032,"width":48,"height":64,"properties":[{"name":"variant","type":"int","value":2}]},{"id":1940,"name":"tree_1893","type":"tree","x":3328,"y":4032,"width":48,"height":64,"properties":[{"name":"variant","type":"int","value":0}]},{"id":1941,"name":"tree_1894","type":"tree","x":3360,"y":4032,"width":48,"height":64,"properties":[{"name":"variant","type":"int","value":1}]},{"id":1942,"name":"tree_1895","type":"tree","x":3392,"y":4032,"width":48,"height":64,"properties":[{"name":"variant","type":"int","value":2}]},{"id":1943,"name":"tree_1896","type":"tree","x":3424,"y":4032,"width":48,"height":64,"properties":[{"name":"variant","type":"int","value":0}]},{"id":1944,"name":"tree_1897","type":"tree","x":3488,"y":4032,"width":48,"height":64,"properties":[{"name":"variant","type":"int","value":1}]},{"id":1945,"name":"tree_1898","type":"tree","x":3584,"y":4032,"width":48,"height":64,"properties":[{"name":"variant","type":"int","value":2}]},{"id":1946,"name":"tree_1899","type":"tree","x":3616,"y":4032,"width":48,"height":64,"properties":[{"name":"variant","type":"int","value":0}]},{"id":1947,"name":"tree_1900","type":"tree","x":3648,"y":4032,"width":48,"height":64,"properties":[{"name":"variant","type":"int","value":1}]},{"id":1948,"name":"tree_1901","type":"tree","x":3712,"y":4032,"width":48,"height":64,"properties":[{"name":"variant","type":"int","value":2}]},{"id":1949,"name":"tree_1902","type":"tree","x":3744,"y":4032,"width":48,"height":64,"properties":[{"name":"variant","type":"int","value":0}]},{"id":1950,"name":"tree_1903","type":"tree","x":3808,"y":4032,"width":48,"height":64,"properties":[{"name":"variant","type":"int","value":1}]},{"id":1951,"name":"tree_1904","type":"tree","x":3840,"y":4032,"width":48,"height":64,"properties":[{"name":"variant","type":"int","value":2}]},{"id":1952,"name":"tree_1905","type":"tree","x":3872,"y":4032,"width":48,"height":64,"properties":[{"name":"variant","type":"int","value":0}]},{"id":1953,"name":"tree_1906","type":"tree","x":3936,"y":4032,"width":48,"height":64,"properties":[{"name":"variant","type":"int","value":1}]},{"id":1954,"name":"tree_1907","type":"tree","x":3968,"y":4032,"width":48,"height":64,"properties":[{"name":"variant","type":"int","value":2}]},{"id":1955,"name":"tree_1908","type":"tree","x":4000,"y":4032,"width":48,"height":64,"properties":[{"name":"variant","type":"int","value":0}]},{"id":1956,"name":"tree_1909","type":"tree","x":4224,"y":4032,"width":48,"height":64,"properties":[{"name":"variant","type":"int","value":1}]},{"id":1957,"name":"tree_1910","type":"tree","x":4320,"y":4032,"width":48,"height":64,"properties":[{"name":"variant","type":"int","value":2}]},{"id":1958,"name":"tree_1911","type":"tree","x":4352,"y":4032,"width":48,"height":64,"properties":[{"name":"variant","type":"int","value":0}]},{"id":1959,"name":"tree_1912","type":"tree","x":4416,"y":4032,"width":48,"height":64,"properties":[{"name":"variant","type":"int","value":1}]},{"id":1960,"name":"tree_1913","type":"tree","x":4448,"y":4032,"width":48,"height":64,"properties":[{"name":"variant","type":"int","value":2}]},{"id":1961,"name":"tree_1914","type":"tree","x":4480,"y":4032,"width":48,"height":64,"properties":[{"name":"variant","type":"int","value":0}]},{"id":1962,"name":"tree_1915","type":"tree","x":4576,"y":4032,"width":48,"height":64,"properties":[{"name":"variant","type":"int","value":1}]},{"id":1963,"name":"tree_1916","type":"tree","x":4608,"y":4032,"width":48,"height":64,"properties":[{"name":"variant","type":"int","value":2}]},{"id":1964,"name":"tree_1917","type":"tree","x":4640,"y":4032,"width":48,"height":64,"properties":[{"name":"variant","type":"int","value":0}]},{"id":1965,"name":"tree_1918","type":"tree","x":4672,"y":4032,"width":48,"height":64,"properties":[{"name":"variant","type":"int","value":1}]},{"id":1966,"name":"tree_1919","type":"tree","x":4768,"y":4032,"width":48,"height":64,"properties":[{"name":"variant","type":"int","value":2}]},{"id":1967,"name":"tree_1920","type":"tree","x":5376,"y":4032,"width":48,"height":64,"properties":[{"name":"variant","type":"int","value":0}]},{"id":1968,"name":"tree_1921","type":"tree","x":5408,"y":4032,"width":48,"height":64,"properties":[{"name":"variant","type":"int","value":1}]},{"id":1969,"name":"tree_1922","type":"tree","x":5440,"y":4032,"width":48,"height":64,"properties":[{"name":"variant","type":"int","value":2}]},{"id":1970,"name":"tree_1923","type":"tree","x":5536,"y":4032,"width":48,"height":64,"properties":[{"name":"variant","type":"int","value":0}]},{"id":1971,"name":"tree_1924","type":"tree","x":5728,"y":4032,"width":48,"height":64,"properties":[{"name":"variant","type":"int","value":1}]},{"id":1972,"name":"tree_1925","type":"tree","x":5760,"y":4032,"width":48,"height":64,"properties":[{"name":"variant","type":"int","value":2}]},{"id":1973,"name":"tree_1926","type":"tree","x":2720,"y":4064,"width":48,"height":64,"properties":[{"name":"variant","type":"int","value":0}]},{"id":1974,"name":"tree_1927","type":"tree","x":2752,"y":4064,"width":48,"height":64,"properties":[{"name":"variant","type":"int","value":1}]},{"id":1975,"name":"tree_1928","type":"tree","x":2880,"y":4064,"width":48,"height":64,"properties":[{"name":"variant","type":"int","value":2}]},{"id":1976,"name":"tree_1929","type":"tree","x":3232,"y":4064,"width":48,"height":64,"properties":[{"name":"variant","type":"int","value":0}]},{"id":1977,"name":"tree_1930","type":"tree","x":3264,"y":4064,"width":48,"height":64,"properties":[{"name":"variant","type":"int","value":1}]},{"id":1978,"name":"tree_1931","type":"tree","x":3424,"y":4064,"width":48,"height":64,"properties":[{"name":"variant","type":"int","value":2}]},{"id":1979,"name":"tree_1932","type":"tree","x":3488,"y":4064,"width":48,"height":64,"properties":[{"name":"variant","type":"int","value":0}]},{"id":1980,"name":"tree_1933","type":"tree","x":3552,"y":4064,"width":48,"height":64,"properties":[{"name":"variant","type":"int","value":1}]},{"id":1981,"name":"tree_1934","type":"tree","x":3648,"y":4064,"width":48,"height":64,"properties":[{"name":"variant","type":"int","value":2}]},{"id":1982,"name":"tree_1935","type":"tree","x":3744,"y":4064,"width":48,"height":64,"properties":[{"name":"variant","type":"int","value":0}]},{"id":1983,"name":"tree_1936","type":"tree","x":3808,"y":4064,"width":48,"height":64,"properties":[{"name":"variant","type":"int","value":1}]},{"id":1984,"name":"tree_1937","type":"tree","x":3840,"y":4064,"width":48,"height":64,"properties":[{"name":"variant","type":"int","value":2}]},{"id":1985,"name":"tree_1938","type":"tree","x":3968,"y":4064,"width":48,"height":64,"properties":[{"name":"variant","type":"int","value":0}]},{"id":1986,"name":"tree_1939","type":"tree","x":4128,"y":4064,"width":48,"height":64,"properties":[{"name":"variant","type":"int","value":1}]},{"id":1987,"name":"tree_1940","type":"tree","x":4352,"y":4064,"width":48,"height":64,"properties":[{"name":"variant","type":"int","value":2}]},{"id":1988,"name":"tree_1941","type":"tree","x":4384,"y":4064,"width":48,"height":64,"properties":[{"name":"variant","type":"int","value":0}]},{"id":1989,"name":"tree_1942","type":"tree","x":4416,"y":4064,"width":48,"height":64,"properties":[{"name":"variant","type":"int","value":1}]},{"id":1990,"name":"tree_1943","type":"tree","x":4480,"y":4064,"width":48,"height":64,"properties":[{"name":"variant","type":"int","value":2}]},{"id":1991,"name":"tree_1944","type":"tree","x":4512,"y":4064,"width":48,"height":64,"properties":[{"name":"variant","type":"int","value":0}]},{"id":1992,"name":"tree_1945","type":"tree","x":4640,"y":4064,"width":48,"height":64,"properties":[{"name":"variant","type":"int","value":1}]},{"id":1993,"name":"tree_1946","type":"tree","x":4672,"y":4064,"width":48,"height":64,"properties":[{"name":"variant","type":"int","value":2}]},{"id":1994,"name":"tree_1947","type":"tree","x":4704,"y":4064,"width":48,"height":64,"properties":[{"name":"variant","type":"int","value":0}]},{"id":1995,"name":"tree_1948","type":"tree","x":4736,"y":4064,"width":48,"height":64,"properties":[{"name":"variant","type":"int","value":1}]},{"id":1996,"name":"tree_1949","type":"tree","x":5312,"y":4064,"width":48,"height":64,"properties":[{"name":"variant","type":"int","value":2}]},{"id":1997,"name":"tree_1950","type":"tree","x":5408,"y":4064,"width":48,"height":64,"properties":[{"name":"variant","type":"int","value":0}]},{"id":1998,"name":"tree_1951","type":"tree","x":5696,"y":4064,"width":48,"height":64,"properties":[{"name":"variant","type":"int","value":1}]},{"id":1999,"name":"tree_1952","type":"tree","x":5728,"y":4064,"width":48,"height":64,"properties":[{"name":"variant","type":"int","value":2}]},{"id":2000,"name":"tree_1953","type":"tree","x":5760,"y":4064,"width":48,"height":64,"properties":[{"name":"variant","type":"int","value":0}]},{"id":2001,"name":"tree_1954","type":"tree","x":2880,"y":4096,"width":48,"height":64,"properties":[{"name":"variant","type":"int","value":1}]},{"id":2002,"name":"tree_1955","type":"tree","x":3136,"y":4096,"width":48,"height":64,"properties":[{"name":"variant","type":"int","value":2}]},{"id":2003,"name":"tree_1956","type":"tree","x":3232,"y":4096,"width":48,"height":64,"properties":[{"name":"variant","type":"int","value":0}]},{"id":2004,"name":"tree_1957","type":"tree","x":3488,"y":4096,"width":48,"height":64,"properties":[{"name":"variant","type":"int","value":1}]},{"id":2005,"name":"tree_1958","type":"tree","x":3520,"y":4096,"width":48,"height":64,"properties":[{"name":"variant","type":"int","value":2}]},{"id":2006,"name":"tree_1959","type":"tree","x":3552,"y":4096,"width":48,"height":64,"properties":[{"name":"variant","type":"int","value":0}]},{"id":2007,"name":"tree_1960","type":"tree","x":3616,"y":4096,"width":48,"height":64,"properties":[{"name":"variant","type":"int","value":1}]},{"id":2008,"name":"tree_1961","type":"tree","x":3648,"y":4096,"width":48,"height":64,"properties":[{"name":"variant","type":"int","value":2}]},{"id":2009,"name":"tree_1962","type":"tree","x":3712,"y":4096,"width":48,"height":64,"properties":[{"name":"variant","type":"int","value":0}]},{"id":2010,"name":"tree_1963","type":"tree","x":3776,"y":4096,"width":48,"height":64,"properties":[{"name":"variant","type":"int","value":1}]},{"id":2011,"name":"tree_1964","type":"tree","x":3808,"y":4096,"width":48,"height":64,"properties":[{"name":"variant","type":"int","value":2}]},{"id":2012,"name":"tree_1965","type":"tree","x":3872,"y":4096,"width":48,"height":64,"properties":[{"name":"variant","type":"int","value":0}]},{"id":2013,"name":"tree_1966","type":"tree","x":3936,"y":4096,"width":48,"height":64,"properties":[{"name":"variant","type":"int","value":1}]},{"id":2014,"name":"tree_1967","type":"tree","x":3968,"y":4096,"width":48,"height":64,"properties":[{"name":"variant","type":"int","value":2}]},{"id":2015,"name":"tree_1968","type":"tree","x":4256,"y":4096,"width":48,"height":64,"properties":[{"name":"variant","type":"int","value":0}]},{"id":2016,"name":"tree_1969","type":"tree","x":4288,"y":4096,"width":48,"height":64,"properties":[{"name":"variant","type":"int","value":1}]},{"id":2017,"name":"tree_1970","type":"tree","x":4320,"y":4096,"width":48,"height":64,"properties":[{"name":"variant","type":"int","value":2}]},{"id":2018,"name":"tree_1971","type":"tree","x":4384,"y":4096,"width":48,"height":64,"properties":[{"name":"variant","type":"int","value":0}]},{"id":2019,"name":"tree_1972","type":"tree","x":4512,"y":4096,"width":48,"height":64,"properties":[{"name":"variant","type":"int","value":1}]},{"id":2020,"name":"tree_1973","type":"tree","x":4640,"y":4096,"width":48,"height":64,"properties":[{"name":"variant","type":"int","value":2}]},{"id":2021,"name":"tree_1974","type":"tree","x":4672,"y":4096,"width":48,"height":64,"properties":[{"name":"variant","type":"int","value":0}]},{"id":2022,"name":"tree_1975","type":"tree","x":4704,"y":4096,"width":48,"height":64,"properties":[{"name":"variant","type":"int","value":1}]},{"id":2023,"name":"tree_1976","type":"tree","x":4864,"y":4096,"width":48,"height":64,"properties":[{"name":"variant","type":"int","value":2}]},{"id":2024,"name":"tree_1977","type":"tree","x":4928,"y":4096,"width":48,"height":64,"properties":[{"name":"variant","type":"int","value":0}]},{"id":2025,"name":"tree_1978","type":"tree","x":5184,"y":4096,"width":48,"height":64,"properties":[{"name":"variant","type":"int","value":1}]},{"id":2026,"name":"tree_1979","type":"tree","x":5248,"y":4096,"width":48,"height":64,"properties":[{"name":"variant","type":"int","value":2}]},{"id":2027,"name":"tree_1980","type":"tree","x":5280,"y":4096,"width":48,"height":64,"properties":[{"name":"variant","type":"int","value":0}]},{"id":2028,"name":"tree_1981","type":"tree","x":5312,"y":4096,"width":48,"height":64,"properties":[{"name":"variant","type":"int","value":1}]},{"id":2029,"name":"tree_1982","type":"tree","x":5344,"y":4096,"width":48,"height":64,"properties":[{"name":"variant","type":"int","value":2}]},{"id":2030,"name":"tree_1983","type":"tree","x":5408,"y":4096,"width":48,"height":64,"properties":[{"name":"variant","type":"int","value":0}]},{"id":2031,"name":"tree_1984","type":"tree","x":5440,"y":4096,"width":48,"height":64,"properties":[{"name":"variant","type":"int","value":1}]},{"id":2032,"name":"tree_1985","type":"tree","x":5632,"y":4096,"width":48,"height":64,"properties":[{"name":"variant","type":"int","value":2}]},{"id":2033,"name":"tree_1986","type":"tree","x":5664,"y":4096,"width":48,"height":64,"properties":[{"name":"variant","type":"int","value":0}]},{"id":2034,"name":"tree_1987","type":"tree","x":3136,"y":4128,"width":48,"height":64,"properties":[{"name":"variant","type":"int","value":1}]},{"id":2035,"name":"tree_1988","type":"tree","x":3456,"y":4128,"width":48,"height":64,"properties":[{"name":"variant","type":"int","value":2}]},{"id":2036,"name":"tree_1989","type":"tree","x":3520,"y":4128,"width":48,"height":64,"properties":[{"name":"variant","type":"int","value":0}]},{"id":2037,"name":"tree_1990","type":"tree","x":3584,"y":4128,"width":48,"height":64,"properties":[{"name":"variant","type":"int","value":1}]},{"id":2038,"name":"tree_1991","type":"tree","x":3616,"y":4128,"width":48,"height":64,"properties":[{"name":"variant","type":"int","value":2}]},{"id":2039,"name":"tree_1992","type":"tree","x":3712,"y":4128,"width":48,"height":64,"properties":[{"name":"variant","type":"int","value":0}]},{"id":2040,"name":"tree_1993","type":"tree","x":3872,"y":4128,"width":48,"height":64,"properties":[{"name":"variant","type":"int","value":1}]},{"id":2041,"name":"tree_1994","type":"tree","x":3968,"y":4128,"width":48,"height":64,"properties":[{"name":"variant","type":"int","value":2}]},{"id":2042,"name":"tree_1995","type":"tree","x":4096,"y":4128,"width":48,"height":64,"properties":[{"name":"variant","type":"int","value":0}]},{"id":2043,"name":"tree_1996","type":"tree","x":4160,"y":4128,"width":48,"height":64,"properties":[{"name":"variant","type":"int","value":1}]},{"id":2044,"name":"tree_1997","type":"tree","x":4352,"y":4128,"width":48,"height":64,"properties":[{"name":"variant","type":"int","value":2}]},{"id":2045,"name":"tree_1998","type":"tree","x":4416,"y":4128,"width":48,"height":64,"properties":[{"name":"variant","type":"int","value":0}]},{"id":2046,"name":"tree_1999","type":"tree","x":4512,"y":4128,"width":48,"height":64,"properties":[{"name":"variant","type":"int","value":1}]},{"id":2047,"name":"tree_2000","type":"tree","x":4576,"y":4128,"width":48,"height":64,"properties":[{"name":"variant","type":"int","value":2}]},{"id":2048,"name":"tree_2001","type":"tree","x":4640,"y":4128,"width":48,"height":64,"properties":[{"name":"variant","type":"int","value":0}]},{"id":2049,"name":"tree_2002","type":"tree","x":4704,"y":4128,"width":48,"height":64,"properties":[{"name":"variant","type":"int","value":1}]},{"id":2050,"name":"tree_2003","type":"tree","x":4864,"y":4128,"width":48,"height":64,"properties":[{"name":"variant","type":"int","value":2}]},{"id":2051,"name":"tree_2004","type":"tree","x":4928,"y":4128,"width":48,"height":64,"properties":[{"name":"variant","type":"int","value":0}]},{"id":2052,"name":"tree_2005","type":"tree","x":4992,"y":4128,"width":48,"height":64,"properties":[{"name":"variant","type":"int","value":1}]},{"id":2053,"name":"tree_2006","type":"tree","x":5024,"y":4128,"width":48,"height":64,"properties":[{"name":"variant","type":"int","value":2}]},{"id":2054,"name":"tree_2007","type":"tree","x":5152,"y":4128,"width":48,"height":64,"properties":[{"name":"variant","type":"int","value":0}]},{"id":2055,"name":"tree_2008","type":"tree","x":5184,"y":4128,"width":48,"height":64,"properties":[{"name":"variant","type":"int","value":1}]},{"id":2056,"name":"tree_2009","type":"tree","x":5216,"y":4128,"width":48,"height":64,"properties":[{"name":"variant","type":"int","value":2}]},{"id":2057,"name":"tree_2010","type":"tree","x":5248,"y":4128,"width":48,"height":64,"properties":[{"name":"variant","type":"int","value":0}]},{"id":2058,"name":"tree_2011","type":"tree","x":5312,"y":4128,"width":48,"height":64,"properties":[{"name":"variant","type":"int","value":1}]},{"id":2059,"name":"tree_2012","type":"tree","x":5344,"y":4128,"width":48,"height":64,"properties":[{"name":"variant","type":"int","value":2}]},{"id":2060,"name":"tree_2013","type":"tree","x":5408,"y":4128,"width":48,"height":64,"properties":[{"name":"variant","type":"int","value":0}]},{"id":2061,"name":"tree_2014","type":"tree","x":3168,"y":4160,"width":48,"height":64,"properties":[{"name":"variant","type":"int","value":1}]},{"id":2062,"name":"tree_2015","type":"tree","x":3200,"y":4160,"width":48,"height":64,"properties":[{"name":"variant","type":"int","value":2}]},{"id":2063,"name":"tree_2016","type":"tree","x":3232,"y":4160,"width":48,"height":64,"properties":[{"name":"variant","type":"int","value":0}]},{"id":2064,"name":"tree_2017","type":"tree","x":3296,"y":4160,"width":48,"height":64,"properties":[{"name":"variant","type":"int","value":1}]},{"id":2065,"name":"tree_2018","type":"tree","x":3488,"y":4160,"width":48,"height":64,"properties":[{"name":"variant","type":"int","value":2}]},{"id":2066,"name":"tree_2019","type":"tree","x":3552,"y":4160,"width":48,"height":64,"properties":[{"name":"variant","type":"int","value":0}]},{"id":2067,"name":"tree_2020","type":"tree","x":3584,"y":4160,"width":48,"height":64,"properties":[{"name":"variant","type":"int","value":1}]},{"id":2068,"name":"tree_2021","type":"tree","x":3616,"y":4160,"width":48,"height":64,"properties":[{"name":"variant","type":"int","value":2}]},{"id":2069,"name":"tree_2022","type":"tree","x":3712,"y":4160,"width":48,"height":64,"properties":[{"name":"variant","type":"int","value":0}]},{"id":2070,"name":"tree_2023","type":"tree","x":3744,"y":4160,"width":48,"height":64,"properties":[{"name":"variant","type":"int","value":1}]},{"id":2071,"name":"tree_2024","type":"tree","x":3840,"y":4160,"width":48,"height":64,"properties":[{"name":"variant","type":"int","value":2}]},{"id":2072,"name":"tree_2025","type":"tree","x":4064,"y":4160,"width":48,"height":64,"properties":[{"name":"variant","type":"int","value":0}]},{"id":2073,"name":"tree_2026","type":"tree","x":4160,"y":4160,"width":48,"height":64,"properties":[{"name":"variant","type":"int","value":1}]},{"id":2074,"name":"tree_2027","type":"tree","x":4256,"y":4160,"width":48,"height":64,"properties":[{"name":"variant","type":"int","value":2}]},{"id":2075,"name":"tree_2028","type":"tree","x":4320,"y":4160,"width":48,"height":64,"properties":[{"name":"variant","type":"int","value":0}]},{"id":2076,"name":"tree_2029","type":"tree","x":4352,"y":4160,"width":48,"height":64,"properties":[{"name":"variant","type":"int","value":1}]},{"id":2077,"name":"tree_2030","type":"tree","x":4512,"y":4160,"width":48,"height":64,"properties":[{"name":"variant","type":"int","value":2}]},{"id":2078,"name":"tree_2031","type":"tree","x":4576,"y":4160,"width":48,"height":64,"properties":[{"name":"variant","type":"int","value":0}]},{"id":2079,"name":"tree_2032","type":"tree","x":4608,"y":4160,"width":48,"height":64,"properties":[{"name":"variant","type":"int","value":1}]},{"id":2080,"name":"tree_2033","type":"tree","x":4640,"y":4160,"width":48,"height":64,"properties":[{"name":"variant","type":"int","value":2}]},{"id":2081,"name":"tree_2034","type":"tree","x":4768,"y":4160,"width":48,"height":64,"properties":[{"name":"variant","type":"int","value":0}]},{"id":2082,"name":"tree_2035","type":"tree","x":4896,"y":4160,"width":48,"height":64,"properties":[{"name":"variant","type":"int","value":1}]},{"id":2083,"name":"tree_2036","type":"tree","x":4992,"y":4160,"width":48,"height":64,"properties":[{"name":"variant","type":"int","value":2}]},{"id":2084,"name":"tree_2037","type":"tree","x":5120,"y":4160,"width":48,"height":64,"properties":[{"name":"variant","type":"int","value":0}]},{"id":2085,"name":"tree_2038","type":"tree","x":5184,"y":4160,"width":48,"height":64,"properties":[{"name":"variant","type":"int","value":1}]},{"id":2086,"name":"tree_2039","type":"tree","x":5248,"y":4160,"width":48,"height":64,"properties":[{"name":"variant","type":"int","value":2}]},{"id":2087,"name":"tree_2040","type":"tree","x":5312,"y":4160,"width":48,"height":64,"properties":[{"name":"variant","type":"int","value":0}]},{"id":2088,"name":"tree_2041","type":"tree","x":2784,"y":4192,"width":48,"height":64,"properties":[{"name":"variant","type":"int","value":1}]},{"id":2089,"name":"tree_2042","type":"tree","x":3200,"y":4192,"width":48,"height":64,"properties":[{"name":"variant","type":"int","value":2}]},{"id":2090,"name":"tree_2043","type":"tree","x":3456,"y":4192,"width":48,"height":64,"properties":[{"name":"variant","type":"int","value":0}]},{"id":2091,"name":"tree_2044","type":"tree","x":3488,"y":4192,"width":48,"height":64,"properties":[{"name":"variant","type":"int","value":1}]},{"id":2092,"name":"tree_2045","type":"tree","x":3616,"y":4192,"width":48,"height":64,"properties":[{"name":"variant","type":"int","value":2}]},{"id":2093,"name":"tree_2046","type":"tree","x":3648,"y":4192,"width":48,"height":64,"properties":[{"name":"variant","type":"int","value":0}]},{"id":2094,"name":"tree_2047","type":"tree","x":3744,"y":4192,"width":48,"height":64,"properties":[{"name":"variant","type":"int","value":1}]},{"id":2095,"name":"tree_2048","type":"tree","x":3808,"y":4192,"width":48,"height":64,"properties":[{"name":"variant","type":"int","value":2}]},{"id":2096,"name":"tree_2049","type":"tree","x":3872,"y":4192,"width":48,"height":64,"properties":[{"name":"variant","type":"int","value":0}]},{"id":2097,"name":"tree_2050","type":"tree","x":3904,"y":4192,"width":48,"height":64,"properties":[{"name":"variant","type":"int","value":1}]},{"id":2098,"name":"tree_2051","type":"tree","x":3936,"y":4192,"width":48,"height":64,"properties":[{"name":"variant","type":"int","value":2}]},{"id":2099,"name":"tree_2052","type":"tree","x":4000,"y":4192,"width":48,"height":64,"properties":[{"name":"variant","type":"int","value":0}]},{"id":2100,"name":"tree_2053","type":"tree","x":4032,"y":4192,"width":48,"height":64,"properties":[{"name":"variant","type":"int","value":1}]},{"id":2101,"name":"tree_2054","type":"tree","x":4064,"y":4192,"width":48,"height":64,"properties":[{"name":"variant","type":"int","value":2}]},{"id":2102,"name":"tree_2055","type":"tree","x":4128,"y":4192,"width":48,"height":64,"properties":[{"name":"variant","type":"int","value":0}]},{"id":2103,"name":"tree_2056","type":"tree","x":4160,"y":4192,"width":48,"height":64,"properties":[{"name":"variant","type":"int","value":1}]},{"id":2104,"name":"tree_2057","type":"tree","x":4192,"y":4192,"width":48,"height":64,"properties":[{"name":"variant","type":"int","value":2}]},{"id":2105,"name":"tree_2058","type":"tree","x":4256,"y":4192,"width":48,"height":64,"properties":[{"name":"variant","type":"int","value":0}]},{"id":2106,"name":"tree_2059","type":"tree","x":4288,"y":4192,"width":48,"height":64,"properties":[{"name":"variant","type":"int","value":1}]},{"id":2107,"name":"tree_2060","type":"tree","x":4352,"y":4192,"width":48,"height":64,"properties":[{"name":"variant","type":"int","value":2}]},{"id":2108,"name":"tree_2061","type":"tree","x":4384,"y":4192,"width":48,"height":64,"properties":[{"name":"variant","type":"int","value":0}]},{"id":2109,"name":"tree_2062","type":"tree","x":4448,"y":4192,"width":48,"height":64,"properties":[{"name":"variant","type":"int","value":1}]},{"id":2110,"name":"tree_2063","type":"tree","x":4480,"y":4192,"width":48,"height":64,"properties":[{"name":"variant","type":"int","value":2}]},{"id":2111,"name":"tree_2064","type":"tree","x":4544,"y":4192,"width":48,"height":64,"properties":[{"name":"variant","type":"int","value":0}]},{"id":2112,"name":"tree_2065","type":"tree","x":4576,"y":4192,"width":48,"height":64,"properties":[{"name":"variant","type":"int","value":1}]},{"id":2113,"name":"tree_2066","type":"tree","x":4608,"y":4192,"width":48,"height":64,"properties":[{"name":"variant","type":"int","value":2}]},{"id":2114,"name":"tree_2067","type":"tree","x":4640,"y":4192,"width":48,"height":64,"properties":[{"name":"variant","type":"int","value":0}]},{"id":2115,"name":"tree_2068","type":"tree","x":4832,"y":4192,"width":48,"height":64,"properties":[{"name":"variant","type":"int","value":1}]},{"id":2116,"name":"tree_2069","type":"tree","x":4960,"y":4192,"width":48,"height":64,"properties":[{"name":"variant","type":"int","value":2}]},{"id":2117,"name":"tree_2070","type":"tree","x":5056,"y":4192,"width":48,"height":64,"properties":[{"name":"variant","type":"int","value":0}]},{"id":2118,"name":"tree_2071","type":"tree","x":5184,"y":4192,"width":48,"height":64,"properties":[{"name":"variant","type":"int","value":1}]},{"id":2119,"name":"tree_2072","type":"tree","x":5216,"y":4192,"width":48,"height":64,"properties":[{"name":"variant","type":"int","value":2}]},{"id":2120,"name":"tree_2073","type":"tree","x":3040,"y":4224,"width":48,"height":64,"properties":[{"name":"variant","type":"int","value":0}]},{"id":2121,"name":"tree_2074","type":"tree","x":3072,"y":4224,"width":48,"height":64,"properties":[{"name":"variant","type":"int","value":1}]},{"id":2122,"name":"tree_2075","type":"tree","x":3168,"y":4224,"width":48,"height":64,"properties":[{"name":"variant","type":"int","value":2}]},{"id":2123,"name":"tree_2076","type":"tree","x":3200,"y":4224,"width":48,"height":64,"properties":[{"name":"variant","type":"int","value":0}]},{"id":2124,"name":"tree_2077","type":"tree","x":3232,"y":4224,"width":48,"height":64,"properties":[{"name":"variant","type":"int","value":1}]},{"id":2125,"name":"tree_2078","type":"tree","x":3296,"y":4224,"width":48,"height":64,"properties":[{"name":"variant","type":"int","value":2}]},{"id":2126,"name":"tree_2079","type":"tree","x":3392,"y":4224,"width":48,"height":64,"properties":[{"name":"variant","type":"int","value":0}]},{"id":2127,"name":"tree_2080","type":"tree","x":3424,"y":4224,"width":48,"height":64,"properties":[{"name":"variant","type":"int","value":1}]},{"id":2128,"name":"tree_2081","type":"tree","x":3520,"y":4224,"width":48,"height":64,"properties":[{"name":"variant","type":"int","value":2}]},{"id":2129,"name":"tree_2082","type":"tree","x":3648,"y":4224,"width":48,"height":64,"properties":[{"name":"variant","type":"int","value":0}]},{"id":2130,"name":"tree_2083","type":"tree","x":3744,"y":4224,"width":48,"height":64,"properties":[{"name":"variant","type":"int","value":1}]},{"id":2131,"name":"tree_2084","type":"tree","x":3776,"y":4224,"width":48,"height":64,"properties":[{"name":"variant","type":"int","value":2}]},{"id":2132,"name":"tree_2085","type":"tree","x":3808,"y":4224,"width":48,"height":64,"properties":[{"name":"variant","type":"int","value":0}]},{"id":2133,"name":"tree_2086","type":"tree","x":3936,"y":4224,"width":48,"height":64,"properties":[{"name":"variant","type":"int","value":1}]},{"id":2134,"name":"tree_2087","type":"tree","x":4032,"y":4224,"width":48,"height":64,"properties":[{"name":"variant","type":"int","value":2}]},{"id":2135,"name":"tree_2088","type":"tree","x":4096,"y":4224,"width":48,"height":64,"properties":[{"name":"variant","type":"int","value":0}]},{"id":2136,"name":"tree_2089","type":"tree","x":4128,"y":4224,"width":48,"height":64,"properties":[{"name":"variant","type":"int","value":1}]},{"id":2137,"name":"tree_2090","type":"tree","x":4224,"y":4224,"width":48,"height":64,"properties":[{"name":"variant","type":"int","value":2}]},{"id":2138,"name":"tree_2091","type":"tree","x":4480,"y":4224,"width":48,"height":64,"properties":[{"name":"variant","type":"int","value":0}]},{"id":2139,"name":"tree_2092","type":"tree","x":4512,"y":4224,"width":48,"height":64,"properties":[{"name":"variant","type":"int","value":1}]},{"id":2140,"name":"tree_2093","type":"tree","x":4704,"y":4224,"width":48,"height":64,"properties":[{"name":"variant","type":"int","value":2}]},{"id":2141,"name":"tree_2094","type":"tree","x":4800,"y":4224,"width":48,"height":64,"properties":[{"name":"variant","type":"int","value":0}]},{"id":2142,"name":"tree_2095","type":"tree","x":4992,"y":4224,"width":48,"height":64,"properties":[{"name":"variant","type":"int","value":1}]},{"id":2143,"name":"tree_2096","type":"tree","x":5024,"y":4224,"width":48,"height":64,"properties":[{"name":"variant","type":"int","value":2}]},{"id":2144,"name":"tree_2097","type":"tree","x":2784,"y":4256,"width":48,"height":64,"properties":[{"name":"variant","type":"int","value":0}]},{"id":2145,"name":"tree_2098","type":"tree","x":2880,"y":4256,"width":48,"height":64,"properties":[{"name":"variant","type":"int","value":1}]},{"id":2146,"name":"tree_2099","type":"tree","x":2912,"y":4256,"width":48,"height":64,"properties":[{"name":"variant","type":"int","value":2}]},{"id":2147,"name":"tree_2100","type":"tree","x":2976,"y":4256,"width":48,"height":64,"properties":[{"name":"variant","type":"int","value":0}]},{"id":2148,"name":"tree_2101","type":"tree","x":3040,"y":4256,"width":48,"height":64,"properties":[{"name":"variant","type":"int","value":1}]},{"id":2149,"name":"tree_2102","type":"tree","x":3072,"y":4256,"width":48,"height":64,"properties":[{"name":"variant","type":"int","value":2}]},{"id":2150,"name":"tree_2103","type":"tree","x":3104,"y":4256,"width":48,"height":64,"properties":[{"name":"variant","type":"int","value":0}]},{"id":2151,"name":"tree_2104","type":"tree","x":3136,"y":4256,"width":48,"height":64,"properties":[{"name":"variant","type":"int","value":1}]},{"id":2152,"name":"tree_2105","type":"tree","x":3168,"y":4256,"width":48,"height":64,"properties":[{"name":"variant","type":"int","value":2}]},{"id":2153,"name":"tree_2106","type":"tree","x":3200,"y":4256,"width":48,"height":64,"properties":[{"name":"variant","type":"int","value":0}]},{"id":2154,"name":"tree_2107","type":"tree","x":3232,"y":4256,"width":48,"height":64,"properties":[{"name":"variant","type":"int","value":1}]},{"id":2155,"name":"tree_2108","type":"tree","x":3264,"y":4256,"width":48,"height":64,"properties":[{"name":"variant","type":"int","value":2}]},{"id":2156,"name":"tree_2109","type":"tree","x":3328,"y":4256,"width":48,"height":64,"properties":[{"name":"variant","type":"int","value":0}]},{"id":2157,"name":"tree_2110","type":"tree","x":3360,"y":4256,"width":48,"height":64,"properties":[{"name":"variant","type":"int","value":1}]},{"id":2158,"name":"tree_2111","type":"tree","x":3392,"y":4256,"width":48,"height":64,"properties":[{"name":"variant","type":"int","value":2}]},{"id":2159,"name":"tree_2112","type":"tree","x":3424,"y":4256,"width":48,"height":64,"properties":[{"name":"variant","type":"int","value":0}]},{"id":2160,"name":"tree_2113","type":"tree","x":3488,"y":4256,"width":48,"height":64,"properties":[{"name":"variant","type":"int","value":1}]},{"id":2161,"name":"tree_2114","type":"tree","x":3520,"y":4256,"width":48,"height":64,"properties":[{"name":"variant","type":"int","value":2}]},{"id":2162,"name":"tree_2115","type":"tree","x":3552,"y":4256,"width":48,"height":64,"properties":[{"name":"variant","type":"int","value":0}]},{"id":2163,"name":"tree_2116","type":"tree","x":3584,"y":4256,"width":48,"height":64,"properties":[{"name":"variant","type":"int","value":1}]},{"id":2164,"name":"tree_2117","type":"tree","x":3680,"y":4256,"width":48,"height":64,"properties":[{"name":"variant","type":"int","value":2}]},{"id":2165,"name":"tree_2118","type":"tree","x":3776,"y":4256,"width":48,"height":64,"properties":[{"name":"variant","type":"int","value":0}]},{"id":2166,"name":"tree_2119","type":"tree","x":3904,"y":4256,"width":48,"height":64,"properties":[{"name":"variant","type":"int","value":1}]},{"id":2167,"name":"tree_2120","type":"tree","x":3936,"y":4256,"width":48,"height":64,"properties":[{"name":"variant","type":"int","value":2}]},{"id":2168,"name":"tree_2121","type":"tree","x":4032,"y":4256,"width":48,"height":64,"properties":[{"name":"variant","type":"int","value":0}]},{"id":2169,"name":"tree_2122","type":"tree","x":4160,"y":4256,"width":48,"height":64,"properties":[{"name":"variant","type":"int","value":1}]},{"id":2170,"name":"tree_2123","type":"tree","x":4192,"y":4256,"width":48,"height":64,"properties":[{"name":"variant","type":"int","value":2}]},{"id":2171,"name":"tree_2124","type":"tree","x":4320,"y":4256,"width":48,"height":64,"properties":[{"name":"variant","type":"int","value":0}]},{"id":2172,"name":"tree_2125","type":"tree","x":4384,"y":4256,"width":48,"height":64,"properties":[{"name":"variant","type":"int","value":1}]},{"id":2173,"name":"tree_2126","type":"tree","x":4416,"y":4256,"width":48,"height":64,"properties":[{"name":"variant","type":"int","value":2}]},{"id":2174,"name":"tree_2127","type":"tree","x":4448,"y":4256,"width":48,"height":64,"properties":[{"name":"variant","type":"int","value":0}]},{"id":2175,"name":"tree_2128","type":"tree","x":4480,"y":4256,"width":48,"height":64,"properties":[{"name":"variant","type":"int","value":1}]},{"id":2176,"name":"tree_2129","type":"tree","x":4576,"y":4256,"width":48,"height":64,"properties":[{"name":"variant","type":"int","value":2}]},{"id":2177,"name":"tree_2130","type":"tree","x":4672,"y":4256,"width":48,"height":64,"properties":[{"name":"variant","type":"int","value":0}]},{"id":2178,"name":"tree_2131","type":"tree","x":4704,"y":4256,"width":48,"height":64,"properties":[{"name":"variant","type":"int","value":1}]},{"id":2179,"name":"tree_2132","type":"tree","x":4736,"y":4256,"width":48,"height":64,"properties":[{"name":"variant","type":"int","value":2}]},{"id":2180,"name":"tree_2133","type":"tree","x":4768,"y":4256,"width":48,"height":64,"properties":[{"name":"variant","type":"int","value":0}]},{"id":2181,"name":"tree_2134","type":"tree","x":2912,"y":4288,"width":48,"height":64,"properties":[{"name":"variant","type":"int","value":1}]},{"id":2182,"name":"tree_2135","type":"tree","x":2944,"y":4288,"width":48,"height":64,"properties":[{"name":"variant","type":"int","value":2}]},{"id":2183,"name":"tree_2136","type":"tree","x":2976,"y":4288,"width":48,"height":64,"properties":[{"name":"variant","type":"int","value":0}]},{"id":2184,"name":"tree_2137","type":"tree","x":3008,"y":4288,"width":48,"height":64,"properties":[{"name":"variant","type":"int","value":1}]},{"id":2185,"name":"tree_2138","type":"tree","x":3040,"y":4288,"width":48,"height":64,"properties":[{"name":"variant","type":"int","value":2}]},{"id":2186,"name":"tree_2139","type":"tree","x":3104,"y":4288,"width":48,"height":64,"properties":[{"name":"variant","type":"int","value":0}]},{"id":2187,"name":"tree_2140","type":"tree","x":3232,"y":4288,"width":48,"height":64,"properties":[{"name":"variant","type":"int","value":1}]},{"id":2188,"name":"tree_2141","type":"tree","x":3392,"y":4288,"width":48,"height":64,"properties":[{"name":"variant","type":"int","value":2}]},{"id":2189,"name":"tree_2142","type":"tree","x":3456,"y":4288,"width":48,"height":64,"properties":[{"name":"variant","type":"int","value":0}]},{"id":2190,"name":"tree_2143","type":"tree","x":3520,"y":4288,"width":48,"height":64,"properties":[{"name":"variant","type":"int","value":1}]},{"id":2191,"name":"tree_2144","type":"tree","x":3552,"y":4288,"width":48,"height":64,"properties":[{"name":"variant","type":"int","value":2}]},{"id":2192,"name":"tree_2145","type":"tree","x":3744,"y":4288,"width":48,"height":64,"properties":[{"name":"variant","type":"int","value":0}]},{"id":2193,"name":"tree_2146","type":"tree","x":3904,"y":4288,"width":48,"height":64,"properties":[{"name":"variant","type":"int","value":1}]},{"id":2194,"name":"tree_2147","type":"tree","x":3968,"y":4288,"width":48,"height":64,"properties":[{"name":"variant","type":"int","value":2}]},{"id":2195,"name":"tree_2148","type":"tree","x":4160,"y":4288,"width":48,"height":64,"properties":[{"name":"variant","type":"int","value":0}]},{"id":2196,"name":"tree_2149","type":"tree","x":4224,"y":4288,"width":48,"height":64,"properties":[{"name":"variant","type":"int","value":1}]},{"id":2197,"name":"tree_2150","type":"tree","x":4256,"y":4288,"width":48,"height":64,"properties":[{"name":"variant","type":"int","value":2}]},{"id":2198,"name":"tree_2151","type":"tree","x":4320,"y":4288,"width":48,"height":64,"properties":[{"name":"variant","type":"int","value":0}]},{"id":2199,"name":"tree_2152","type":"tree","x":4512,"y":4288,"width":48,"height":64,"properties":[{"name":"variant","type":"int","value":1}]},{"id":2200,"name":"tree_2153","type":"tree","x":4544,"y":4288,"width":48,"height":64,"properties":[{"name":"variant","type":"int","value":2}]},{"id":2201,"name":"tree_2154","type":"tree","x":4640,"y":4288,"width":48,"height":64,"properties":[{"name":"variant","type":"int","value":0}]},{"id":2202,"name":"tree_2155","type":"tree","x":4736,"y":4288,"width":48,"height":64,"properties":[{"name":"variant","type":"int","value":1}]},{"id":2203,"name":"tree_2156","type":"tree","x":3040,"y":4320,"width":48,"height":64,"properties":[{"name":"variant","type":"int","value":2}]},{"id":2204,"name":"tree_2157","type":"tree","x":3072,"y":4320,"width":48,"height":64,"properties":[{"name":"variant","type":"int","value":0}]},{"id":2205,"name":"tree_2158","type":"tree","x":3168,"y":4320,"width":48,"height":64,"properties":[{"name":"variant","type":"int","value":1}]},{"id":2206,"name":"tree_2159","type":"tree","x":3200,"y":4320,"width":48,"height":64,"properties":[{"name":"variant","type":"int","value":2}]},{"id":2207,"name":"tree_2160","type":"tree","x":3296,"y":4320,"width":48,"height":64,"properties":[{"name":"variant","type":"int","value":0}]},{"id":2208,"name":"tree_2161","type":"tree","x":3328,"y":4320,"width":48,"height":64,"properties":[{"name":"variant","type":"int","value":1}]},{"id":2209,"name":"tree_2162","type":"tree","x":3360,"y":4320,"width":48,"height":64,"properties":[{"name":"variant","type":"int","value":2}]},{"id":2210,"name":"tree_2163","type":"tree","x":3392,"y":4320,"width":48,"height":64,"properties":[{"name":"variant","type":"int","value":0}]},{"id":2211,"name":"tree_2164","type":"tree","x":3488,"y":4320,"width":48,"height":64,"properties":[{"name":"variant","type":"int","value":1}]},{"id":2212,"name":"tree_2165","type":"tree","x":3520,"y":4320,"width":48,"height":64,"properties":[{"name":"variant","type":"int","value":2}]},{"id":2213,"name":"tree_2166","type":"tree","x":3808,"y":4320,"width":48,"height":64,"properties":[{"name":"variant","type":"int","value":0}]},{"id":2214,"name":"tree_2167","type":"tree","x":4032,"y":4320,"width":48,"height":64,"properties":[{"name":"variant","type":"int","value":1}]},{"id":2215,"name":"tree_2168","type":"tree","x":4128,"y":4320,"width":48,"height":64,"properties":[{"name":"variant","type":"int","value":2}]},{"id":2216,"name":"tree_2169","type":"tree","x":4192,"y":4320,"width":48,"height":64,"properties":[{"name":"variant","type":"int","value":0}]},{"id":2217,"name":"tree_2170","type":"tree","x":4256,"y":4320,"width":48,"height":64,"properties":[{"name":"variant","type":"int","value":1}]},{"id":2218,"name":"tree_2171","type":"tree","x":4416,"y":4320,"width":48,"height":64,"properties":[{"name":"variant","type":"int","value":2}]},{"id":2219,"name":"tree_2172","type":"tree","x":4448,"y":4320,"width":48,"height":64,"properties":[{"name":"variant","type":"int","value":0}]},{"id":2220,"name":"tree_2173","type":"tree","x":4576,"y":4320,"width":48,"height":64,"properties":[{"name":"variant","type":"int","value":1}]},{"id":2221,"name":"tree_2174","type":"tree","x":4608,"y":4320,"width":48,"height":64,"properties":[{"name":"variant","type":"int","value":2}]},{"id":2222,"name":"tree_2175","type":"tree","x":4704,"y":4320,"width":48,"height":64,"properties":[{"name":"variant","type":"int","value":0}]},{"id":2223,"name":"tree_2176","type":"tree","x":3072,"y":4352,"width":48,"height":64,"properties":[{"name":"variant","type":"int","value":1}]},{"id":2224,"name":"tree_2177","type":"tree","x":3136,"y":4352,"width":48,"height":64,"properties":[{"name":"variant","type":"int","value":2}]},{"id":2225,"name":"tree_2178","type":"tree","x":3200,"y":4352,"width":48,"height":64,"properties":[{"name":"variant","type":"int","value":0}]},{"id":2226,"name":"tree_2179","type":"tree","x":3296,"y":4352,"width":48,"height":64,"properties":[{"name":"variant","type":"int","value":1}]},{"id":2227,"name":"tree_2180","type":"tree","x":3328,"y":4352,"width":48,"height":64,"properties":[{"name":"variant","type":"int","value":2}]},{"id":2228,"name":"tree_2181","type":"tree","x":3392,"y":4352,"width":48,"height":64,"properties":[{"name":"variant","type":"int","value":0}]},{"id":2229,"name":"tree_2182","type":"tree","x":3712,"y":4352,"width":48,"height":64,"properties":[{"name":"variant","type":"int","value":1}]},{"id":2230,"name":"tree_2183","type":"tree","x":3968,"y":4352,"width":48,"height":64,"properties":[{"name":"variant","type":"int","value":2}]},{"id":2231,"name":"tree_2184","type":"tree","x":4096,"y":4352,"width":48,"height":64,"properties":[{"name":"variant","type":"int","value":0}]},{"id":2232,"name":"tree_2185","type":"tree","x":4192,"y":4352,"width":48,"height":64,"properties":[{"name":"variant","type":"int","value":1}]},{"id":2233,"name":"tree_2186","type":"tree","x":4224,"y":4352,"width":48,"height":64,"properties":[{"name":"variant","type":"int","value":2}]},{"id":2234,"name":"tree_2187","type":"tree","x":4352,"y":4352,"width":48,"height":64,"properties":[{"name":"variant","type":"int","value":0}]},{"id":2235,"name":"tree_2188","type":"tree","x":4448,"y":4352,"width":48,"height":64,"properties":[{"name":"variant","type":"int","value":1}]},{"id":2236,"name":"tree_2189","type":"tree","x":4544,"y":4352,"width":48,"height":64,"properties":[{"name":"variant","type":"int","value":2}]},{"id":2237,"name":"tree_2190","type":"tree","x":4608,"y":4352,"width":48,"height":64,"properties":[{"name":"variant","type":"int","value":0}]},{"id":2238,"name":"tree_2191","type":"tree","x":4672,"y":4352,"width":48,"height":64,"properties":[{"name":"variant","type":"int","value":1}]},{"id":2239,"name":"tree_2192","type":"tree","x":3168,"y":4384,"width":48,"height":64,"properties":[{"name":"variant","type":"int","value":2}]},{"id":2240,"name":"tree_2193","type":"tree","x":3200,"y":4384,"width":48,"height":64,"properties":[{"name":"variant","type":"int","value":0}]},{"id":2241,"name":"tree_2194","type":"tree","x":3232,"y":4384,"width":48,"height":64,"properties":[{"name":"variant","type":"int","value":1}]},{"id":2242,"name":"tree_2195","type":"tree","x":3296,"y":4384,"width":48,"height":64,"properties":[{"name":"variant","type":"int","value":2}]},{"id":2243,"name":"tree_2196","type":"tree","x":3328,"y":4384,"width":48,"height":64,"properties":[{"name":"variant","type":"int","value":0}]},{"id":2244,"name":"tree_2197","type":"tree","x":3840,"y":4384,"width":48,"height":64,"properties":[{"name":"variant","type":"int","value":1}]},{"id":2245,"name":"tree_2198","type":"tree","x":3904,"y":4384,"width":48,"height":64,"properties":[{"name":"variant","type":"int","value":2}]},{"id":2246,"name":"tree_2199","type":"tree","x":4160,"y":4384,"width":48,"height":64,"properties":[{"name":"variant","type":"int","value":0}]},{"id":2247,"name":"tree_2200","type":"tree","x":4192,"y":4384,"width":48,"height":64,"properties":[{"name":"variant","type":"int","value":1}]},{"id":2248,"name":"tree_2201","type":"tree","x":4224,"y":4384,"width":48,"height":64,"properties":[{"name":"variant","type":"int","value":2}]},{"id":2249,"name":"tree_2202","type":"tree","x":4288,"y":4384,"width":48,"height":64,"properties":[{"name":"variant","type":"int","value":0}]},{"id":2250,"name":"tree_2203","type":"tree","x":4352,"y":4384,"width":48,"height":64,"properties":[{"name":"variant","type":"int","value":1}]},{"id":2251,"name":"tree_2204","type":"tree","x":4384,"y":4384,"width":48,"height":64,"properties":[{"name":"variant","type":"int","value":2}]},{"id":2252,"name":"tree_2205","type":"tree","x":4448,"y":4384,"width":48,"height":64,"properties":[{"name":"variant","type":"int","value":0}]},{"id":2253,"name":"tree_2206","type":"tree","x":4576,"y":4384,"width":48,"height":64,"properties":[{"name":"variant","type":"int","value":1}]},{"id":2254,"name":"tree_2207","type":"tree","x":4608,"y":4384,"width":48,"height":64,"properties":[{"name":"variant","type":"int","value":2}]},{"id":2255,"name":"tree_2208","type":"tree","x":4672,"y":4384,"width":48,"height":64,"properties":[{"name":"variant","type":"int","value":0}]},{"id":2256,"name":"tree_2209","type":"tree","x":3200,"y":4416,"width":48,"height":64,"properties":[{"name":"variant","type":"int","value":1}]},{"id":2257,"name":"tree_2210","type":"tree","x":3232,"y":4416,"width":48,"height":64,"properties":[{"name":"variant","type":"int","value":2}]},{"id":2258,"name":"tree_2211","type":"tree","x":3360,"y":4416,"width":48,"height":64,"properties":[{"name":"variant","type":"int","value":0}]},{"id":2259,"name":"tree_2212","type":"tree","x":3456,"y":4416,"width":48,"height":64,"properties":[{"name":"variant","type":"int","value":1}]},{"id":2260,"name":"tree_2213","type":"tree","x":3648,"y":4416,"width":48,"height":64,"properties":[{"name":"variant","type":"int","value":2}]},{"id":2261,"name":"tree_2214","type":"tree","x":3808,"y":4416,"width":48,"height":64,"properties":[{"name":"variant","type":"int","value":0}]},{"id":2262,"name":"tree_2215","type":"tree","x":4064,"y":4416,"width":48,"height":64,"properties":[{"name":"variant","type":"int","value":1}]},{"id":2263,"name":"tree_2216","type":"tree","x":4096,"y":4416,"width":48,"height":64,"properties":[{"name":"variant","type":"int","value":2}]},{"id":2264,"name":"tree_2217","type":"tree","x":4160,"y":4416,"width":48,"height":64,"properties":[{"name":"variant","type":"int","value":0}]},{"id":2265,"name":"tree_2218","type":"tree","x":4288,"y":4416,"width":48,"height":64,"properties":[{"name":"variant","type":"int","value":1}]},{"id":2266,"name":"tree_2219","type":"tree","x":4416,"y":4416,"width":48,"height":64,"properties":[{"name":"variant","type":"int","value":2}]},{"id":2267,"name":"tree_2220","type":"tree","x":4576,"y":4416,"width":48,"height":64,"properties":[{"name":"variant","type":"int","value":0}]},{"id":2268,"name":"tree_2221","type":"tree","x":3328,"y":4448,"width":48,"height":64,"properties":[{"name":"variant","type":"int","value":1}]},{"id":2269,"name":"tree_2222","type":"tree","x":3424,"y":4448,"width":48,"height":64,"properties":[{"name":"variant","type":"int","value":2}]},{"id":2270,"name":"tree_2223","type":"tree","x":3520,"y":4448,"width":48,"height":64,"properties":[{"name":"variant","type":"int","value":0}]},{"id":2271,"name":"tree_2224","type":"tree","x":3552,"y":4448,"width":48,"height":64,"properties":[{"name":"variant","type":"int","value":1}]},{"id":2272,"name":"tree_2225","type":"tree","x":3616,"y":4448,"width":48,"height":64,"properties":[{"name":"variant","type":"int","value":2}]},{"id":2273,"name":"tree_2226","type":"tree","x":3840,"y":4448,"width":48,"height":64,"properties":[{"name":"variant","type":"int","value":0}]},{"id":2274,"name":"tree_2227","type":"tree","x":4032,"y":4448,"width":48,"height":64,"properties":[{"name":"variant","type":"int","value":1}]},{"id":2275,"name":"tree_2228","type":"tree","x":4192,"y":4448,"width":48,"height":64,"properties":[{"name":"variant","type":"int","value":2}]},{"id":2276,"name":"tree_2229","type":"tree","x":4256,"y":4448,"width":48,"height":64,"properties":[{"name":"variant","type":"int","value":0}]},{"id":2277,"name":"tree_2230","type":"tree","x":4288,"y":4448,"width":48,"height":64,"properties":[{"name":"variant","type":"int","value":1}]},{"id":2278,"name":"tree_2231","type":"tree","x":4320,"y":4448,"width":48,"height":64,"properties":[{"name":"variant","type":"int","value":2}]},{"id":2279,"name":"tree_2232","type":"tree","x":4416,"y":4448,"width":48,"height":64,"properties":[{"name":"variant","type":"int","value":0}]},{"id":2280,"name":"tree_2233","type":"tree","x":4448,"y":4448,"width":48,"height":64,"properties":[{"name":"variant","type":"int","value":1}]},{"id":2281,"name":"tree_2234","type":"tree","x":4576,"y":4448,"width":48,"height":64,"properties":[{"name":"variant","type":"int","value":2}]},{"id":2282,"name":"tree_2235","type":"tree","x":4608,"y":4448,"width":48,"height":64,"properties":[{"name":"variant","type":"int","value":0}]},{"id":2283,"name":"tree_2236","type":"tree","x":3296,"y":4480,"width":48,"height":64,"properties":[{"name":"variant","type":"int","value":1}]},{"id":2284,"name":"tree_2237","type":"tree","x":3328,"y":4480,"width":48,"height":64,"properties":[{"name":"variant","type":"int","value":2}]},{"id":2285,"name":"tree_2238","type":"tree","x":3456,"y":4480,"width":48,"height":64,"properties":[{"name":"variant","type":"int","value":0}]},{"id":2286,"name":"tree_2239","type":"tree","x":3520,"y":4480,"width":48,"height":64,"properties":[{"name":"variant","type":"int","value":1}]},{"id":2287,"name":"tree_2240","type":"tree","x":4224,"y":4480,"width":48,"height":64,"properties":[{"name":"variant","type":"int","value":2}]},{"id":2288,"name":"tree_2241","type":"tree","x":4352,"y":4480,"width":48,"height":64,"properties":[{"name":"variant","type":"int","value":0}]},{"id":2289,"name":"tree_2242","type":"tree","x":4640,"y":4480,"width":48,"height":64,"properties":[{"name":"variant","type":"int","value":1}]},{"id":2290,"name":"tree_2243","type":"tree","x":3328,"y":4512,"width":48,"height":64,"properties":[{"name":"variant","type":"int","value":2}]},{"id":2291,"name":"tree_2244","type":"tree","x":3360,"y":4512,"width":48,"height":64,"properties":[{"name":"variant","type":"int","value":0}]},{"id":2292,"name":"tree_2245","type":"tree","x":3424,"y":4512,"width":48,"height":64,"properties":[{"name":"variant","type":"int","value":1}]},{"id":2293,"name":"tree_2246","type":"tree","x":4000,"y":4512,"width":48,"height":64,"properties":[{"name":"variant","type":"int","value":2}]},{"id":2294,"name":"tree_2247","type":"tree","x":4384,"y":4512,"width":48,"height":64,"properties":[{"name":"variant","type":"int","value":0}]},{"id":2295,"name":"tree_2248","type":"tree","x":3456,"y":4544,"width":48,"height":64,"properties":[{"name":"variant","type":"int","value":1}]},{"id":2296,"name":"tree_2249","type":"tree","x":3616,"y":4544,"width":48,"height":64,"properties":[{"name":"variant","type":"int","value":2}]},{"id":2297,"name":"tree_2250","type":"tree","x":3648,"y":4544,"width":48,"height":64,"properties":[{"name":"variant","type":"int","value":0}]},{"id":2298,"name":"tree_2251","type":"tree","x":4320,"y":4544,"width":48,"height":64,"properties":[{"name":"variant","type":"int","value":1}]},{"id":2299,"name":"tree_2252","type":"tree","x":4384,"y":4544,"width":48,"height":64,"properties":[{"name":"variant","type":"int","value":2}]},{"id":2300,"name":"tree_2253","type":"tree","x":3488,"y":4576,"width":48,"height":64,"properties":[{"name":"variant","type":"int","value":0}]},{"id":2301,"name":"tree_2254","type":"tree","x":3552,"y":4576,"width":48,"height":64,"properties":[{"name":"variant","type":"int","value":1}]},{"id":2302,"name":"tree_2255","type":"tree","x":4512,"y":4576,"width":48,"height":64,"properties":[{"name":"variant","type":"int","value":2}]},{"id":2303,"name":"tree_2256","type":"tree","x":4416,"y":4608,"width":48,"height":64,"properties":[{"name":"variant","type":"int","value":0}]},{"id":2304,"name":"tree_2257","type":"tree","x":4384,"y":4704,"width":48,"height":64,"properties":[{"name":"variant","type":"int","value":1}]}]},{"id":5,"name":"Foreground","type":"objectgroup","x":0,"y":0,"opacity":1,"visible":true,"objects":[{"id":100048,"name":"tree_1","type":"tree","x":4480,"y":1024,"width":48,"height":64,"properties":[{"name":"variant","type":"int","value":1}]},{"id":100049,"name":"tree_2","type":"tree","x":4512,"y":1056,"width":48,"height":64,"properties":[{"name":"variant","type":"int","value":2}]},{"id":100050,"name":"tree_3","type":"tree","x":4480,"y":1120,"width":48,"height":64,"properties":[{"name":"variant","type":"int","value":0}]},{"id":100051,"name":"tree_4","type":"tree","x":4544,"y":1120,"width":48,"height":64,"properties":[{"name":"variant","type":"int","value":1}]},{"id":100052,"name":"tree_5","type":"tree","x":4608,"y":1120,"width":48,"height":64,"properties":[{"name":"variant","type":"int","value":2}]},{"id":100053,"name":"tree_6","type":"tree","x":4576,"y":1152,"width":48,"height":64,"properties":[{"name":"variant","type":"int","value":0}]},{"id":100054,"name":"tree_7","type":"tree","x":4608,"y":1152,"width":48,"height":64,"properties":[{"name":"variant","type":"int","value":1}]},{"id":100055,"name":"tree_8","type":"tree","x":4640,"y":1152,"width":48,"height":64,"properties":[{"name":"variant","type":"int","value":2}]},{"id":100056,"name":"tree_9","type":"tree","x":4352,"y":1184,"width":48,"height":64,"properties":[{"name":"variant","type":"int","value":0}]},{"id":100057,"name":"tree_10","type":"tree","x":4544,"y":1184,"width":48,"height":64,"properties":[{"name":"variant","type":"int","value":1}]},{"id":100058,"name":"tree_11","type":"tree","x":4608,"y":1184,"width":48,"height":64,"properties":[{"name":"variant","type":"int","value":2}]},{"id":100059,"name":"tree_12","type":"tree","x":4640,"y":1184,"width":48,"height":64,"properties":[{"name":"variant","type":"int","value":0}]},{"id":100060,"name":"tree_13","type":"tree","x":4704,"y":1184,"width":48,"height":64,"properties":[{"name":"variant","type":"int","value":1}]},{"id":100061,"name":"tree_14","type":"tree","x":4608,"y":1216,"width":48,"height":64,"properties":[{"name":"variant","type":"int","value":2}]},{"id":100062,"name":"tree_15","type":"tree","x":4704,"y":1216,"width":48,"height":64,"properties":[{"name":"variant","type":"int","value":0}]},{"id":100063,"name":"tree_16","type":"tree","x":4320,"y":1248,"width":48,"height":64,"properties":[{"name":"variant","type":"int","value":1}]},{"id":100064,"name":"tree_17","type":"tree","x":4352,"y":1248,"width":48,"height":64,"properties":[{"name":"variant","type":"int","value":2}]},{"id":100065,"name":"tree_18","type":"tree","x":4736,"y":1248,"width":48,"height":64,"properties":[{"name":"variant","type":"int","value":0}]},{"id":100066,"name":"tree_19","type":"tree","x":4768,"y":1248,"width":48,"height":64,"properties":[{"name":"variant","type":"int","value":1}]},{"id":100067,"name":"tree_20","type":"tree","x":4640,"y":1280,"width":48,"height":64,"properties":[{"name":"variant","type":"int","value":2}]},{"id":100068,"name":"tree_21","type":"tree","x":4800,"y":1280,"width":48,"height":64,"properties":[{"name":"variant","type":"int","value":0}]},{"id":100069,"name":"tree_22","type":"tree","x":4352,"y":1312,"width":48,"height":64,"properties":[{"name":"variant","type":"int","value":1}]},{"id":100070,"name":"tree_23","type":"tree","x":4640,"y":1312,"width":48,"height":64,"properties":[{"name":"variant","type":"int","value":2}]},{"id":100071,"name":"tree_24","type":"tree","x":4704,"y":1312,"width":48,"height":64,"properties":[{"name":"variant","type":"int","value":0}]},{"id":100072,"name":"tree_25","type":"tree","x":4768,"y":1312,"width":48,"height":64,"properties":[{"name":"variant","type":"int","value":1}]},{"id":100073,"name":"tree_26","type":"tree","x":4864,"y":1312,"width":48,"height":64,"properties":[{"name":"variant","type":"int","value":2}]},{"id":100074,"name":"tree_27","type":"tree","x":4192,"y":1344,"width":48,"height":64,"properties":[{"name":"variant","type":"int","value":0}]},{"id":100075,"name":"tree_28","type":"tree","x":4224,"y":1344,"width":48,"height":64,"properties":[{"name":"variant","type":"int","value":1}]},{"id":100076,"name":"tree_29","type":"tree","x":4320,"y":1344,"width":48,"height":64,"properties":[{"name":"variant","type":"int","value":2}]},{"id":100077,"name":"tree_30","type":"tree","x":4704,"y":1344,"width":48,"height":64,"properties":[{"name":"variant","type":"int","value":0}]},{"id":100078,"name":"tree_31","type":"tree","x":4736,"y":1344,"width":48,"height":64,"properties":[{"name":"variant","type":"int","value":1}]},{"id":100079,"name":"tree_32","type":"tree","x":4768,"y":1344,"width":48,"height":64,"properties":[{"name":"variant","type":"int","value":2}]},{"id":100080,"name":"tree_33","type":"tree","x":4192,"y":1376,"width":48,"height":64,"properties":[{"name":"variant","type":"int","value":0}]},{"id":100081,"name":"tree_34","type":"tree","x":4320,"y":1376,"width":48,"height":64,"properties":[{"name":"variant","type":"int","value":1}]},{"id":100082,"name":"tree_35","type":"tree","x":4480,"y":1376,"width":48,"height":64,"properties":[{"name":"variant","type":"int","value":2}]},{"id":100083,"name":"tree_36","type":"tree","x":4544,"y":1376,"width":48,"height":64,"properties":[{"name":"variant","type":"int","value":0}]},{"id":100084,"name":"tree_37","type":"tree","x":4576,"y":1376,"width":48,"height":64,"properties":[{"name":"variant","type":"int","value":1}]},{"id":100085,"name":"tree_38","type":"tree","x":4768,"y":1376,"width":48,"height":64,"properties":[{"name":"variant","type":"int","value":2}]},{"id":100086,"name":"tree_39","type":"tree","x":4800,"y":1376,"width":48,"height":64,"properties":[{"name":"variant","type":"int","value":0}]},{"id":100087,"name":"tree_40","type":"tree","x":4896,"y":1376,"width":48,"height":64,"properties":[{"name":"variant","type":"int","value":1}]},{"id":100088,"name":"tree_41","type":"tree","x":4256,"y":1408,"width":48,"height":64,"properties":[{"name":"variant","type":"int","value":2}]},{"id":100089,"name":"tree_42","type":"tree","x":4320,"y":1408,"width":48,"height":64,"properties":[{"name":"variant","type":"int","value":0}]},{"id":100090,"name":"tree_43","type":"tree","x":4352,"y":1408,"width":48,"height":64,"properties":[{"name":"variant","type":"int","value":1}]},{"id":100091,"name":"tree_44","type":"tree","x":4608,"y":1408,"width":48,"height":64,"properties":[{"name":"variant","type":"int","value":2}]},{"id":100092,"name":"tree_45","type":"tree","x":4768,"y":1408,"width":48,"height":64,"properties":[{"name":"variant","type":"int","value":0}]},{"id":100093,"name":"tree_46","type":"tree","x":4832,"y":1408,"width":48,"height":64,"properties":[{"name":"variant","type":"int","value":1}]},{"id":100094,"name":"tree_47","type":"tree","x":4864,"y":1408,"width":48,"height":64,"properties":[{"name":"variant","type":"int","value":2}]},{"id":100095,"name":"tree_48","type":"tree","x":4896,"y":1408,"width":48,"height":64,"properties":[{"name":"variant","type":"int","value":0}]},{"id":100096,"name":"tree_49","type":"tree","x":5024,"y":1408,"width":48,"height":64,"properties":[{"name":"variant","type":"int","value":1}]},{"id":100097,"name":"tree_50","type":"tree","x":5056,"y":1408,"width":48,"height":64,"properties":[{"name":"variant","type":"int","value":2}]},{"id":100098,"name":"tree_51","type":"tree","x":4160,"y":1440,"width":48,"height":64,"properties":[{"name":"variant","type":"int","value":0}]},{"id":100099,"name":"tree_52","type":"tree","x":4576,"y":1440,"width":48,"height":64,"properties":[{"name":"variant","type":"int","value":1}]},{"id":100100,"name":"tree_53","type":"tree","x":4768,"y":1440,"width":48,"height":64,"properties":[{"name":"variant","type":"int","value":2}]},{"id":100101,"name":"tree_54","type":"tree","x":4960,"y":1440,"width":48,"height":64,"properties":[{"name":"variant","type":"int","value":0}]},{"id":100102,"name":"tree_55","type":"tree","x":4992,"y":1440,"width":48,"height":64,"properties":[{"name":"variant","type":"int","value":1}]},{"id":100103,"name":"tree_56","type":"tree","x":4224,"y":1472,"width":48,"height":64,"properties":[{"name":"variant","type":"int","value":2}]},{"id":100104,"name":"tree_57","type":"tree","x":4320,"y":1472,"width":48,"height":64,"properties":[{"name":"variant","type":"int","value":0}]},{"id":100105,"name":"tree_58","type":"tree","x":4352,"y":1472,"width":48,"height":64,"properties":[{"name":"variant","type":"int","value":1}]},{"id":100106,"name":"tree_59","type":"tree","x":4480,"y":1472,"width":48,"height":64,"properties":[{"name":"variant","type":"int","value":2}]},{"id":100107,"name":"tree_60","type":"tree","x":4544,"y":1472,"width":48,"height":64,"properties":[{"name":"variant","type":"int","value":0}]},{"id":100108,"name":"tree_61","type":"tree","x":4640,"y":1472,"width":48,"height":64,"properties":[{"name":"variant","type":"int","value":1}]},{"id":100109,"name":"tree_62","type":"tree","x":4960,"y":1472,"width":48,"height":64,"properties":[{"name":"variant","type":"int","value":2}]},{"id":100110,"name":"tree_63","type":"tree","x":4992,"y":1472,"width":48,"height":64,"properties":[{"name":"variant","type":"int","value":0}]},{"id":100111,"name":"tree_64","type":"tree","x":5024,"y":1472,"width":48,"height":64,"properties":[{"name":"variant","type":"int","value":1}]},{"id":100112,"name":"tree_65","type":"tree","x":5088,"y":1472,"width":48,"height":64,"properties":[{"name":"variant","type":"int","value":2}]},{"id":100113,"name":"tree_66","type":"tree","x":4192,"y":1504,"width":48,"height":64,"properties":[{"name":"variant","type":"int","value":0}]},{"id":100114,"name":"tree_67","type":"tree","x":4256,"y":1504,"width":48,"height":64,"properties":[{"name":"variant","type":"int","value":1}]},{"id":100115,"name":"tree_68","type":"tree","x":4288,"y":1504,"width":48,"height":64,"properties":[{"name":"variant","type":"int","value":2}]},{"id":100116,"name":"tree_69","type":"tree","x":4544,"y":1504,"width":48,"height":64,"properties":[{"name":"variant","type":"int","value":0}]},{"id":100117,"name":"tree_70","type":"tree","x":4736,"y":1504,"width":48,"height":64,"properties":[{"name":"variant","type":"int","value":1}]},{"id":100118,"name":"tree_71","type":"tree","x":4864,"y":1504,"width":48,"height":64,"properties":[{"name":"variant","type":"int","value":2}]},{"id":100119,"name":"tree_72","type":"tree","x":4928,"y":1504,"width":48,"height":64,"properties":[{"name":"variant","type":"int","value":0}]},{"id":100120,"name":"tree_73","type":"tree","x":4992,"y":1504,"width":48,"height":64,"properties":[{"name":"variant","type":"int","value":1}]},{"id":100121,"name":"tree_74","type":"tree","x":5056,"y":1504,"width":48,"height":64,"properties":[{"name":"variant","type":"int","value":2}]},{"id":100122,"name":"tree_75","type":"tree","x":4128,"y":1536,"width":48,"height":64,"properties":[{"name":"variant","type":"int","value":0}]},{"id":100123,"name":"tree_76","type":"tree","x":4160,"y":1536,"width":48,"height":64,"properties":[{"name":"variant","type":"int","value":1}]},{"id":100124,"name":"tree_77","type":"tree","x":4192,"y":1536,"width":48,"height":64,"properties":[{"name":"variant","type":"int","value":2}]},{"id":100125,"name":"tree_78","type":"tree","x":4320,"y":1536,"width":48,"height":64,"properties":[{"name":"variant","type":"int","value":0}]},{"id":100126,"name":"tree_79","type":"tree","x":4352,"y":1536,"width":48,"height":64,"properties":[{"name":"variant","type":"int","value":1}]},{"id":100127,"name":"tree_80","type":"tree","x":4864,"y":1536,"width":48,"height":64,"properties":[{"name":"variant","type":"int","value":2}]},{"id":100128,"name":"tree_81","type":"tree","x":4960,"y":1536,"width":48,"height":64,"properties":[{"name":"variant","type":"int","value":0}]},{"id":100129,"name":"tree_82","type":"tree","x":5024,"y":1536,"width":48,"height":64,"properties":[{"name":"variant","type":"int","value":1}]},{"id":100130,"name":"tree_83","type":"tree","x":4256,"y":1568,"width":48,"height":64,"properties":[{"name":"variant","type":"int","value":2}]},{"id":100131,"name":"tree_84","type":"tree","x":4288,"y":1568,"width":48,"height":64,"properties":[{"name":"variant","type":"int","value":0}]},{"id":100132,"name":"tree_85","type":"tree","x":4320,"y":1568,"width":48,"height":64,"properties":[{"name":"variant","type":"int","value":1}]},{"id":100133,"name":"tree_86","type":"tree","x":4480,"y":1568,"width":48,"height":64,"properties":[{"name":"variant","type":"int","value":2}]},{"id":100134,"name":"tree_87","type":"tree","x":4896,"y":1568,"width":48,"height":64,"properties":[{"name":"variant","type":"int","value":0}]},{"id":100135,"name":"tree_88","type":"tree","x":5024,"y":1568,"width":48,"height":64,"properties":[{"name":"variant","type":"int","value":1}]},{"id":100136,"name":"tree_89","type":"tree","x":5152,"y":1568,"width":48,"height":64,"properties":[{"name":"variant","type":"int","value":2}]},{"id":100137,"name":"tree_90","type":"tree","x":5216,"y":1568,"width":48,"height":64,"properties":[{"name":"variant","type":"int","value":0}]},{"id":100138,"name":"tree_91","type":"tree","x":4096,"y":1600,"width":48,"height":64,"properties":[{"name":"variant","type":"int","value":1}]},{"id":100139,"name":"tree_92","type":"tree","x":4320,"y":1600,"width":48,"height":64,"properties":[{"name":"variant","type":"int","value":2}]},{"id":100140,"name":"tree_93","type":"tree","x":4512,"y":1600,"width":48,"height":64,"properties":[{"name":"variant","type":"int","value":0}]},{"id":100141,"name":"tree_94","type":"tree","x":4736,"y":1600,"width":48,"height":64,"properties":[{"name":"variant","type":"int","value":1}]},{"id":100142,"name":"tree_95","type":"tree","x":4864,"y":1600,"width":48,"height":64,"properties":[{"name":"variant","type":"int","value":2}]},{"id":100143,"name":"tree_96","type":"tree","x":4896,"y":1600,"width":48,"height":64,"properties":[{"name":"variant","type":"int","value":0}]},{"id":100144,"name":"tree_97","type":"tree","x":4928,"y":1600,"width":48,"height":64,"properties":[{"name":"variant","type":"int","value":1}]},{"id":100145,"name":"tree_98","type":"tree","x":4992,"y":1600,"width":48,"height":64,"properties":[{"name":"variant","type":"int","value":2}]},{"id":100146,"name":"tree_99","type":"tree","x":5056,"y":1600,"width":48,"height":64,"properties":[{"name":"variant","type":"int","value":0}]},{"id":100147,"name":"tree_100","type":"tree","x":5152,"y":1600,"width":48,"height":64,"properties":[{"name":"variant","type":"int","value":1}]},{"id":100148,"name":"tree_101","type":"tree","x":4064,"y":1632,"width":48,"height":64,"properties":[{"name":"variant","type":"int","value":2}]},{"id":100149,"name":"tree_102","type":"tree","x":4288,"y":1632,"width":48,"height":64,"properties":[{"name":"variant","type":"int","value":0}]},{"id":100150,"name":"tree_103","type":"tree","x":4320,"y":1632,"width":48,"height":64,"properties":[{"name":"variant","type":"int","value":1}]},{"id":100151,"name":"tree_104","type":"tree","x":4480,"y":1632,"width":48,"height":64,"properties":[{"name":"variant","type":"int","value":2}]},{"id":100152,"name":"tree_105","type":"tree","x":4576,"y":1632,"width":48,"height":64,"properties":[{"name":"variant","type":"int","value":0}]},{"id":100153,"name":"tree_106","type":"tree","x":4608,"y":1632,"width":48,"height":64,"properties":[{"name":"variant","type":"int","value":1}]},{"id":100154,"name":"tree_107","type":"tree","x":4896,"y":1632,"width":48,"height":64,"properties":[{"name":"variant","type":"int","value":2}]},{"id":100155,"name":"tree_108","type":"tree","x":4928,"y":1632,"width":48,"height":64,"properties":[{"name":"variant","type":"int","value":0}]},{"id":100156,"name":"tree_109","type":"tree","x":4960,"y":1632,"width":48,"height":64,"properties":[{"name":"variant","type":"int","value":1}]},{"id":100157,"name":"tree_110","type":"tree","x":4992,"y":1632,"width":48,"height":64,"properties":[{"name":"variant","type":"int","value":2}]},{"id":100158,"name":"tree_111","type":"tree","x":5056,"y":1632,"width":48,"height":64,"properties":[{"name":"variant","type":"int","value":0}]},{"id":100159,"name":"tree_112","type":"tree","x":5152,"y":1632,"width":48,"height":64,"properties":[{"name":"variant","type":"int","value":1}]},{"id":100160,"name":"tree_113","type":"tree","x":4032,"y":1664,"width":48,"height":64,"properties":[{"name":"variant","type":"int","value":2}]},{"id":100161,"name":"tree_114","type":"tree","x":4704,"y":1664,"width":48,"height":64,"properties":[{"name":"variant","type":"int","value":0}]},{"id":100162,"name":"tree_115","type":"tree","x":4992,"y":1664,"width":48,"height":64,"properties":[{"name":"variant","type":"int","value":1}]},{"id":100163,"name":"tree_116","type":"tree","x":5056,"y":1664,"width":48,"height":64,"properties":[{"name":"variant","type":"int","value":2}]},{"id":100164,"name":"tree_117","type":"tree","x":5088,"y":1664,"width":48,"height":64,"properties":[{"name":"variant","type":"int","value":0}]},{"id":100165,"name":"tree_118","type":"tree","x":5120,"y":1664,"width":48,"height":64,"properties":[{"name":"variant","type":"int","value":1}]},{"id":100166,"name":"tree_119","type":"tree","x":4032,"y":1696,"width":48,"height":64,"properties":[{"name":"variant","type":"int","value":2}]},{"id":100167,"name":"tree_120","type":"tree","x":4512,"y":1696,"width":48,"height":64,"properties":[{"name":"variant","type":"int","value":0}]},{"id":100168,"name":"tree_121","type":"tree","x":4960,"y":1696,"width":48,"height":64,"properties":[{"name":"variant","type":"int","value":1}]},{"id":100169,"name":"tree_122","type":"tree","x":4992,"y":1696,"width":48,"height":64,"properties":[{"name":"variant","type":"int","value":2}]},{"id":100170,"name":"tree_123","type":"tree","x":5024,"y":1696,"width":48,"height":64,"properties":[{"name":"variant","type":"int","value":0}]},{"id":100171,"name":"tree_124","type":"tree","x":5088,"y":1696,"width":48,"height":64,"properties":[{"name":"variant","type":"int","value":1}]},{"id":100172,"name":"tree_125","type":"tree","x":4480,"y":1728,"width":48,"height":64,"properties":[{"name":"variant","type":"int","value":2}]},{"id":100173,"name":"tree_126","type":"tree","x":4608,"y":1728,"width":48,"height":64,"properties":[{"name":"variant","type":"int","value":0}]},{"id":100174,"name":"tree_127","type":"tree","x":4800,"y":1728,"width":48,"height":64,"properties":[{"name":"variant","type":"int","value":1}]},{"id":100175,"name":"tree_128","type":"tree","x":5120,"y":1728,"width":48,"height":64,"properties":[{"name":"variant","type":"int","value":2}]},{"id":100176,"name":"tree_129","type":"tree","x":4256,"y":1760,"width":48,"height":64,"properties":[{"name":"variant","type":"int","value":0}]},{"id":100177,"name":"tree_130","type":"tree","x":4480,"y":1760,"width":48,"height":64,"properties":[{"name":"variant","type":"int","value":1}]},{"id":100178,"name":"tree_131","type":"tree","x":4512,"y":1760,"width":48,"height":64,"properties":[{"name":"variant","type":"int","value":2}]},{"id":100179,"name":"tree_132","type":"tree","x":4704,"y":1760,"width":48,"height":64,"properties":[{"name":"variant","type":"int","value":0}]},{"id":100180,"name":"tree_133","type":"tree","x":4832,"y":1760,"width":48,"height":64,"properties":[{"name":"variant","type":"int","value":1}]},{"id":100181,"name":"tree_134","type":"tree","x":4960,"y":1760,"width":48,"height":64,"properties":[{"name":"variant","type":"int","value":2}]},{"id":100182,"name":"tree_135","type":"tree","x":3936,"y":1792,"width":48,"height":64,"properties":[{"name":"variant","type":"int","value":0}]},{"id":100183,"name":"tree_136","type":"tree","x":3968,"y":1792,"width":48,"height":64,"properties":[{"name":"variant","type":"int","value":1}]},{"id":100184,"name":"tree_137","type":"tree","x":4064,"y":1792,"width":48,"height":64,"properties":[{"name":"variant","type":"int","value":2}]},{"id":100185,"name":"tree_138","type":"tree","x":4096,"y":1792,"width":48,"height":64,"properties":[{"name":"variant","type":"int","value":0}]},{"id":100186,"name":"tree_139","type":"tree","x":4128,"y":1792,"width":48,"height":64,"properties":[{"name":"variant","type":"int","value":1}]},{"id":100187,"name":"tree_140","type":"tree","x":4576,"y":1792,"width":48,"height":64,"properties":[{"name":"variant","type":"int","value":2}]},{"id":100188,"name":"tree_141","type":"tree","x":4896,"y":1792,"width":48,"height":64,"properties":[{"name":"variant","type":"int","value":0}]},{"id":100189,"name":"tree_142","type":"tree","x":4960,"y":1792,"width":48,"height":64,"properties":[{"name":"variant","type":"int","value":1}]},{"id":100190,"name":"tree_143","type":"tree","x":5056,"y":1792,"width":48,"height":64,"properties":[{"name":"variant","type":"int","value":2}]},{"id":100191,"name":"tree_144","type":"tree","x":5152,"y":1792,"width":48,"height":64,"properties":[{"name":"variant","type":"int","value":0}]},{"id":100192,"name":"tree_145","type":"tree","x":3968,"y":1824,"width":48,"height":64,"properties":[{"name":"variant","type":"int","value":1}]},{"id":100193,"name":"tree_146","type":"tree","x":4000,"y":1824,"width":48,"height":64,"properties":[{"name":"variant","type":"int","value":2}]},{"id":100194,"name":"tree_147","type":"tree","x":4032,"y":1824,"width":48,"height":64,"properties":[{"name":"variant","type":"int","value":0}]},{"id":100195,"name":"tree_148","type":"tree","x":4064,"y":1824,"width":48,"height":64,"properties":[{"name":"variant","type":"int","value":1}]},{"id":100196,"name":"tree_149","type":"tree","x":4800,"y":1824,"width":48,"height":64,"properties":[{"name":"variant","type":"int","value":2}]},{"id":100197,"name":"tree_150","type":"tree","x":5024,"y":1824,"width":48,"height":64,"properties":[{"name":"variant","type":"int","value":0}]},{"id":100198,"name":"tree_151","type":"tree","x":5088,"y":1824,"width":48,"height":64,"properties":[{"name":"variant","type":"int","value":1}]},{"id":100199,"name":"tree_152","type":"tree","x":3840,"y":1856,"width":48,"height":64,"properties":[{"name":"variant","type":"int","value":2}]},{"id":100200,"name":"tree_153","type":"tree","x":4000,"y":1856,"width":48,"height":64,"properties":[{"name":"variant","type":"int","value":0}]},{"id":100201,"name":"tree_154","type":"tree","x":4064,"y":1856,"width":48,"height":64,"properties":[{"name":"variant","type":"int","value":1}]},{"id":100202,"name":"tree_155","type":"tree","x":4128,"y":1856,"width":48,"height":64,"properties":[{"name":"variant","type":"int","value":2}]},{"id":100203,"name":"tree_156","type":"tree","x":4224,"y":1856,"width":48,"height":64,"properties":[{"name":"variant","type":"int","value":0}]},{"id":100204,"name":"tree_157","type":"tree","x":4288,"y":1856,"width":48,"height":64,"properties":[{"name":"variant","type":"int","value":1}]},{"id":100205,"name":"tree_158","type":"tree","x":4320,"y":1856,"width":48,"height":64,"properties":[{"name":"variant","type":"int","value":2}]},{"id":100206,"name":"tree_159","type":"tree","x":4352,"y":1856,"width":48,"height":64,"properties":[{"name":"variant","type":"int","value":0}]},{"id":100207,"name":"tree_160","type":"tree","x":4512,"y":1856,"width":48,"height":64,"properties":[{"name":"variant","type":"int","value":1}]},{"id":100208,"name":"tree_161","type":"tree","x":4640,"y":1856,"width":48,"height":64,"properties":[{"name":"variant","type":"int","value":2}]},{"id":100209,"name":"tree_162","type":"tree","x":4768,"y":1856,"width":48,"height":64,"properties":[{"name":"variant","type":"int","value":0}]},{"id":100210,"name":"tree_163","type":"tree","x":4800,"y":1856,"width":48,"height":64,"properties":[{"name":"variant","type":"int","value":1}]},{"id":100211,"name":"tree_164","type":"tree","x":4832,"y":1856,"width":48,"height":64,"properties":[{"name":"variant","type":"int","value":2}]},{"id":100212,"name":"tree_165","type":"tree","x":4960,"y":1856,"width":48,"height":64,"properties":[{"name":"variant","type":"int","value":0}]},{"id":100213,"name":"tree_166","type":"tree","x":4992,"y":1856,"width":48,"height":64,"properties":[{"name":"variant","type":"int","value":1}]},{"id":100214,"name":"tree_167","type":"tree","x":5056,"y":1856,"width":48,"height":64,"properties":[{"name":"variant","type":"int","value":2}]},{"id":100215,"name":"tree_168","type":"tree","x":5120,"y":1856,"width":48,"height":64,"properties":[{"name":"variant","type":"int","value":0}]},{"id":100216,"name":"tree_169","type":"tree","x":5184,"y":1856,"width":48,"height":64,"properties":[{"name":"variant","type":"int","value":1}]},{"id":100217,"name":"tree_170","type":"tree","x":3232,"y":1888,"width":48,"height":64,"properties":[{"name":"variant","type":"int","value":2}]},{"id":100218,"name":"tree_171","type":"tree","x":3296,"y":1888,"width":48,"height":64,"properties":[{"name":"variant","type":"int","value":0}]},{"id":100219,"name":"tree_172","type":"tree","x":3968,"y":1888,"width":48,"height":64,"properties":[{"name":"variant","type":"int","value":1}]},{"id":100220,"name":"tree_173","type":"tree","x":4032,"y":1888,"width":48,"height":64,"properties":[{"name":"variant","type":"int","value":2}]},{"id":100221,"name":"tree_174","type":"tree","x":4064,"y":1888,"width":48,"height":64,"properties":[{"name":"variant","type":"int","value":0}]},{"id":100222,"name":"tree_175","type":"tree","x":4160,"y":1888,"width":48,"height":64,"properties":[{"name":"variant","type":"int","value":1}]},{"id":100223,"name":"tree_176","type":"tree","x":4256,"y":1888,"width":48,"height":64,"properties":[{"name":"variant","type":"int","value":2}]},{"id":100224,"name":"tree_177","type":"tree","x":4288,"y":1888,"width":48,"height":64,"properties":[{"name":"variant","type":"int","value":0}]},{"id":100225,"name":"tree_178","type":"tree","x":4576,"y":1888,"width":48,"height":64,"properties":[{"name":"variant","type":"int","value":1}]},{"id":100226,"name":"tree_179","type":"tree","x":4640,"y":1888,"width":48,"height":64,"properties":[{"name":"variant","type":"int","value":2}]},{"id":100227,"name":"tree_180","type":"tree","x":4896,"y":1888,"width":48,"height":64,"properties":[{"name":"variant","type":"int","value":0}]},{"id":100228,"name":"tree_181","type":"tree","x":4928,"y":1888,"width":48,"height":64,"properties":[{"name":"variant","type":"int","value":1}]},{"id":100229,"name":"tree_182","type":"tree","x":5088,"y":1888,"width":48,"height":64,"properties":[{"name":"variant","type":"int","value":2}]},{"id":100230,"name":"tree_183","type":"tree","x":5120,"y":1888,"width":48,"height":64,"properties":[{"name":"variant","type":"int","value":0}]},{"id":100231,"name":"tree_184","type":"tree","x":5184,"y":1888,"width":48,"height":64,"properties":[{"name":"variant","type":"int","value":1}]},{"id":100232,"name":"tree_185","type":"tree","x":3136,"y":1920,"width":48,"height":64,"properties":[{"name":"variant","type":"int","value":2}]},{"id":100233,"name":"tree_186","type":"tree","x":3168,"y":1920,"width":48,"height":64,"properties":[{"name":"variant","type":"int","value":0}]},{"id":100234,"name":"tree_187","type":"tree","x":3232,"y":1920,"width":48,"height":64,"properties":[{"name":"variant","type":"int","value":1}]},{"id":100235,"name":"tree_188","type":"tree","x":3808,"y":1920,"width":48,"height":64,"properties":[{"name":"variant","type":"int","value":2}]},{"id":100236,"name":"tree_189","type":"tree","x":3904,"y":1920,"width":48,"height":64,"properties":[{"name":"variant","type":"int","value":0}]},{"id":100237,"name":"tree_190","type":"tree","x":3936,"y":1920,"width":48,"height":64,"properties":[{"name":"variant","type":"int","value":1}]},{"id":100238,"name":"tree_191","type":"tree","x":4032,"y":1920,"width":48,"height":64,"properties":[{"name":"variant","type":"int","value":2}]},{"id":100239,"name":"tree_192","type":"tree","x":4128,"y":1920,"width":48,"height":64,"properties":[{"name":"variant","type":"int","value":0}]},{"id":100240,"name":"tree_193","type":"tree","x":4256,"y":1920,"width":48,"height":64,"properties":[{"name":"variant","type":"int","value":1}]},{"id":100241,"name":"tree_194","type":"tree","x":4608,"y":1920,"width":48,"height":64,"properties":[{"name":"variant","type":"int","value":2}]},{"id":100242,"name":"tree_195","type":"tree","x":4704,"y":1920,"width":48,"height":64,"properties":[{"name":"variant","type":"int","value":0}]},{"id":100243,"name":"tree_196","type":"tree","x":4800,"y":1920,"width":48,"height":64,"properties":[{"name":"variant","type":"int","value":1}]},{"id":100244,"name":"tree_197","type":"tree","x":5088,"y":1920,"width":48,"height":64,"properties":[{"name":"variant","type":"int","value":2}]},{"id":100245,"name":"tree_198","type":"tree","x":5376,"y":1920,"width":48,"height":64,"properties":[{"name":"variant","type":"int","value":0}]},{"id":100246,"name":"tree_199","type":"tree","x":5536,"y":1920,"width":48,"height":64,"properties":[{"name":"variant","type":"int","value":1}]},{"id":100247,"name":"tree_200","type":"tree","x":3264,"y":1952,"width":48,"height":64,"properties":[{"name":"variant","type":"int","value":2}]},{"id":100248,"name":"tree_201","type":"tree","x":3456,"y":1952,"width":48,"height":64,"properties":[{"name":"variant","type":"int","value":0}]},{"id":100249,"name":"tree_202","type":"tree","x":3648,"y":1952,"width":48,"height":64,"properties":[{"name":"variant","type":"int","value":1}]},{"id":100250,"name":"tree_203","type":"tree","x":3808,"y":1952,"width":48,"height":64,"properties":[{"name":"variant","type":"int","value":2}]},{"id":100251,"name":"tree_204","type":"tree","x":4000,"y":1952,"width":48,"height":64,"properties":[{"name":"variant","type":"int","value":0}]},{"id":100252,"name":"tree_205","type":"tree","x":4032,"y":1952,"width":48,"height":64,"properties":[{"name":"variant","type":"int","value":1}]},{"id":100253,"name":"tree_206","type":"tree","x":4064,"y":1952,"width":48,"height":64,"properties":[{"name":"variant","type":"int","value":2}]},{"id":100254,"name":"tree_207","type":"tree","x":4096,"y":1952,"width":48,"height":64,"properties":[{"name":"variant","type":"int","value":0}]},{"id":100255,"name":"tree_208","type":"tree","x":4288,"y":1952,"width":48,"height":64,"properties":[{"name":"variant","type":"int","value":1}]},{"id":100256,"name":"tree_209","type":"tree","x":4352,"y":1952,"width":48,"height":64,"properties":[{"name":"variant","type":"int","value":2}]},{"id":100257,"name":"tree_210","type":"tree","x":4608,"y":1952,"width":48,"height":64,"properties":[{"name":"variant","type":"int","value":0}]},{"id":100258,"name":"tree_211","type":"tree","x":4704,"y":1952,"width":48,"height":64,"properties":[{"name":"variant","type":"int","value":1}]},{"id":100259,"name":"tree_212","type":"tree","x":4768,"y":1952,"width":48,"height":64,"properties":[{"name":"variant","type":"int","value":2}]},{"id":100260,"name":"tree_213","type":"tree","x":4800,"y":1952,"width":48,"height":64,"properties":[{"name":"variant","type":"int","value":0}]},{"id":100261,"name":"tree_214","type":"tree","x":4864,"y":1952,"width":48,"height":64,"properties":[{"name":"variant","type":"int","value":1}]},{"id":100262,"name":"tree_215","type":"tree","x":4928,"y":1952,"width":48,"height":64,"properties":[{"name":"variant","type":"int","value":2}]},{"id":100263,"name":"tree_216","type":"tree","x":4960,"y":1952,"width":48,"height":64,"properties":[{"name":"variant","type":"int","value":0}]},{"id":100264,"name":"tree_217","type":"tree","x":5056,"y":1952,"width":48,"height":64,"properties":[{"name":"variant","type":"int","value":1}]},{"id":100265,"name":"tree_218","type":"tree","x":5088,"y":1952,"width":48,"height":64,"properties":[{"name":"variant","type":"int","value":2}]},{"id":100266,"name":"tree_219","type":"tree","x":5120,"y":1952,"width":48,"height":64,"properties":[{"name":"variant","type":"int","value":0}]},{"id":100267,"name":"tree_220","type":"tree","x":5472,"y":1952,"width":48,"height":64,"properties":[{"name":"variant","type":"int","value":1}]},{"id":100268,"name":"tree_221","type":"tree","x":5536,"y":1952,"width":48,"height":64,"properties":[{"name":"variant","type":"int","value":2}]},{"id":100269,"name":"tree_222","type":"tree","x":3136,"y":1984,"width":48,"height":64,"properties":[{"name":"variant","type":"int","value":0}]},{"id":100270,"name":"tree_223","type":"tree","x":3168,"y":1984,"width":48,"height":64,"properties":[{"name":"variant","type":"int","value":1}]},{"id":100271,"name":"tree_224","type":"tree","x":3232,"y":1984,"width":48,"height":64,"properties":[{"name":"variant","type":"int","value":2}]},{"id":100272,"name":"tree_225","type":"tree","x":3360,"y":1984,"width":48,"height":64,"properties":[{"name":"variant","type":"int","value":0}]},{"id":100273,"name":"tree_226","type":"tree","x":3456,"y":1984,"width":48,"height":64,"properties":[{"name":"variant","type":"int","value":1}]},{"id":100274,"name":"tree_227","type":"tree","x":3712,"y":1984,"width":48,"height":64,"properties":[{"name":"variant","type":"int","value":2}]},{"id":100275,"name":"tree_228","type":"tree","x":3744,"y":1984,"width":48,"height":64,"properties":[{"name":"variant","type":"int","value":0}]},{"id":100276,"name":"tree_229","type":"tree","x":4064,"y":1984,"width":48,"height":64,"properties":[{"name":"variant","type":"int","value":1}]},{"id":100277,"name":"tree_230","type":"tree","x":4096,"y":1984,"width":48,"height":64,"properties":[{"name":"variant","type":"int","value":2}]},{"id":100278,"name":"tree_231","type":"tree","x":4224,"y":1984,"width":48,"height":64,"properties":[{"name":"variant","type":"int","value":0}]},{"id":100279,"name":"tree_232","type":"tree","x":4256,"y":1984,"width":48,"height":64,"properties":[{"name":"variant","type":"int","value":1}]},{"id":100280,"name":"tree_233","type":"tree","x":4352,"y":1984,"width":48,"height":64,"properties":[{"name":"variant","type":"int","value":2}]},{"id":100281,"name":"tree_234","type":"tree","x":4608,"y":1984,"width":48,"height":64,"properties":[{"name":"variant","type":"int","value":0}]},{"id":100282,"name":"tree_235","type":"tree","x":4672,"y":1984,"width":48,"height":64,"properties":[{"name":"variant","type":"int","value":1}]},{"id":100283,"name":"tree_236","type":"tree","x":4736,"y":1984,"width":48,"height":64,"properties":[{"name":"variant","type":"int","value":2}]},{"id":100284,"name":"tree_237","type":"tree","x":4768,"y":1984,"width":48,"height":64,"properties":[{"name":"variant","type":"int","value":0}]},{"id":100285,"name":"tree_238","type":"tree","x":4864,"y":1984,"width":48,"height":64,"properties":[{"name":"variant","type":"int","value":1}]},{"id":100286,"name":"tree_239","type":"tree","x":4960,"y":1984,"width":48,"height":64,"properties":[{"name":"variant","type":"int","value":2}]},{"id":100287,"name":"tree_240","type":"tree","x":4992,"y":1984,"width":48,"height":64,"properties":[{"name":"variant","type":"int","value":0}]},{"id":100288,"name":"tree_241","type":"tree","x":5024,"y":1984,"width":48,"height":64,"properties":[{"name":"variant","type":"int","value":1}]},{"id":100289,"name":"tree_242","type":"tree","x":5152,"y":1984,"width":48,"height":64,"properties":[{"name":"variant","type":"int","value":2}]},{"id":100290,"name":"tree_243","type":"tree","x":5344,"y":1984,"width":48,"height":64,"properties":[{"name":"variant","type":"int","value":0}]},{"id":100291,"name":"tree_244","type":"tree","x":5376,"y":1984,"width":48,"height":64,"properties":[{"name":"variant","type":"int","value":1}]},{"id":100292,"name":"tree_245","type":"tree","x":5472,"y":1984,"width":48,"height":64,"properties":[{"name":"variant","type":"int","value":2}]},{"id":100293,"name":"tree_246","type":"tree","x":5568,"y":1984,"width":48,"height":64,"properties":[{"name":"variant","type":"int","value":0}]},{"id":100294,"name":"tree_247","type":"tree","x":2880,"y":2016,"width":48,"height":64,"properties":[{"name":"variant","type":"int","value":1}]},{"id":100295,"name":"tree_248","type":"tree","x":2912,"y":2016,"width":48,"height":64,"properties":[{"name":"variant","type":"int","value":2}]},{"id":100296,"name":"tree_249","type":"tree","x":2944,"y":2016,"width":48,"height":64,"properties":[{"name":"variant","type":"int","value":0}]},{"id":100297,"name":"tree_250","type":"tree","x":3104,"y":2016,"width":48,"height":64,"properties":[{"name":"variant","type":"int","value":1}]},{"id":100298,"name":"tree_251","type":"tree","x":3168,"y":2016,"width":48,"height":64,"properties":[{"name":"variant","type":"int","value":2}]},{"id":100299,"name":"tree_252","type":"tree","x":3200,"y":2016,"width":48,"height":64,"properties":[{"name":"variant","type":"int","value":0}]},{"id":100300,"name":"tree_253","type":"tree","x":3296,"y":2016,"width":48,"height":64,"properties":[{"name":"variant","type":"int","value":1}]},{"id":100301,"name":"tree_254","type":"tree","x":3584,"y":2016,"width":48,"height":64,"properties":[{"name":"variant","type":"int","value":2}]},{"id":100302,"name":"tree_255","type":"tree","x":3648,"y":2016,"width":48,"height":64,"properties":[{"name":"variant","type":"int","value":0}]},{"id":100303,"name":"tree_256","type":"tree","x":3872,"y":2016,"width":48,"height":64,"properties":[{"name":"variant","type":"int","value":1}]},{"id":100304,"name":"tree_257","type":"tree","x":4032,"y":2016,"width":48,"height":64,"properties":[{"name":"variant","type":"int","value":2}]},{"id":100305,"name":"tree_258","type":"tree","x":4064,"y":2016,"width":48,"height":64,"properties":[{"name":"variant","type":"int","value":0}]},{"id":100306,"name":"tree_259","type":"tree","x":4096,"y":2016,"width":48,"height":64,"properties":[{"name":"variant","type":"int","value":1}]},{"id":100307,"name":"tree_260","type":"tree","x":4192,"y":2016,"width":48,"height":64,"properties":[{"name":"variant","type":"int","value":2}]},{"id":100308,"name":"tree_261","type":"tree","x":4288,"y":2016,"width":48,"height":64,"properties":[{"name":"variant","type":"int","value":0}]},{"id":100309,"name":"tree_262","type":"tree","x":4544,"y":2016,"width":48,"height":64,"properties":[{"name":"variant","type":"int","value":1}]},{"id":100310,"name":"tree_263","type":"tree","x":4576,"y":2016,"width":48,"height":64,"properties":[{"name":"variant","type":"int","value":2}]},{"id":100311,"name":"tree_264","type":"tree","x":4736,"y":2016,"width":48,"height":64,"properties":[{"name":"variant","type":"int","value":0}]},{"id":100312,"name":"tree_265","type":"tree","x":4832,"y":2016,"width":48,"height":64,"properties":[{"name":"variant","type":"int","value":1}]},{"id":100313,"name":"tree_266","type":"tree","x":4864,"y":2016,"width":48,"height":64,"properties":[{"name":"variant","type":"int","value":2}]},{"id":100314,"name":"tree_267","type":"tree","x":4960,"y":2016,"width":48,"height":64,"properties":[{"name":"variant","type":"int","value":0}]},{"id":100315,"name":"tree_268","type":"tree","x":5024,"y":2016,"width":48,"height":64,"properties":[{"name":"variant","type":"int","value":1}]},{"id":100316,"name":"tree_269","type":"tree","x":5056,"y":2016,"width":48,"height":64,"properties":[{"name":"variant","type":"int","value":2}]},{"id":100317,"name":"tree_270","type":"tree","x":5088,"y":2016,"width":48,"height":64,"properties":[{"name":"variant","type":"int","value":0}]},{"id":100318,"name":"tree_271","type":"tree","x":5152,"y":2016,"width":48,"height":64,"properties":[{"name":"variant","type":"int","value":1}]},{"id":100319,"name":"tree_272","type":"tree","x":5184,"y":2016,"width":48,"height":64,"properties":[{"name":"variant","type":"int","value":2}]},{"id":100320,"name":"tree_273","type":"tree","x":5376,"y":2016,"width":48,"height":64,"properties":[{"name":"variant","type":"int","value":0}]},{"id":100321,"name":"tree_274","type":"tree","x":5472,"y":2016,"width":48,"height":64,"properties":[{"name":"variant","type":"int","value":1}]},{"id":100322,"name":"tree_275","type":"tree","x":5504,"y":2016,"width":48,"height":64,"properties":[{"name":"variant","type":"int","value":2}]},{"id":100323,"name":"tree_276","type":"tree","x":5536,"y":2016,"width":48,"height":64,"properties":[{"name":"variant","type":"int","value":0}]},{"id":100324,"name":"tree_277","type":"tree","x":5568,"y":2016,"width":48,"height":64,"properties":[{"name":"variant","type":"int","value":1}]},{"id":100325,"name":"tree_278","type":"tree","x":5600,"y":2016,"width":48,"height":64,"properties":[{"name":"variant","type":"int","value":2}]},{"id":100326,"name":"tree_279","type":"tree","x":5664,"y":2016,"width":48,"height":64,"properties":[{"name":"variant","type":"int","value":0}]},{"id":100327,"name":"tree_280","type":"tree","x":2848,"y":2048,"width":48,"height":64,"properties":[{"name":"variant","type":"int","value":1}]},{"id":100328,"name":"tree_281","type":"tree","x":2880,"y":2048,"width":48,"height":64,"properties":[{"name":"variant","type":"int","value":2}]},{"id":100329,"name":"tree_282","type":"tree","x":2912,"y":2048,"width":48,"height":64,"properties":[{"name":"variant","type":"int","value":0}]},{"id":100330,"name":"tree_283","type":"tree","x":2944,"y":2048,"width":48,"height":64,"properties":[{"name":"variant","type":"int","value":1}]},{"id":100331,"name":"tree_284","type":"tree","x":3104,"y":2048,"width":48,"height":64,"properties":[{"name":"variant","type":"int","value":2}]},{"id":100332,"name":"tree_285","type":"tree","x":3136,"y":2048,"width":48,"height":64,"properties":[{"name":"variant","type":"int","value":0}]},{"id":100333,"name":"tree_286","type":"tree","x":3168,"y":2048,"width":48,"height":64,"properties":[{"name":"variant","type":"int","value":1}]},{"id":100334,"name":"tree_287","type":"tree","x":3648,"y":2048,"width":48,"height":64,"properties":[{"name":"variant","type":"int","value":2}]},{"id":100335,"name":"tree_288","type":"tree","x":3776,"y":2048,"width":48,"height":64,"properties":[{"name":"variant","type":"int","value":0}]},{"id":100336,"name":"tree_289","type":"tree","x":3904,"y":2048,"width":48,"height":64,"properties":[{"name":"variant","type":"int","value":1}]},{"id":100337,"name":"tree_290","type":"tree","x":4064,"y":2048,"width":48,"height":64,"properties":[{"name":"variant","type":"int","value":2}]},{"id":100338,"name":"tree_291","type":"tree","x":4096,"y":2048,"width":48,"height":64,"properties":[{"name":"variant","type":"int","value":0}]},{"id":100339,"name":"tree_292","type":"tree","x":4128,"y":2048,"width":48,"height":64,"properties":[{"name":"variant","type":"int","value":1}]},{"id":100340,"name":"tree_293","type":"tree","x":4160,"y":2048,"width":48,"height":64,"properties":[{"name":"variant","type":"int","value":2}]},{"id":100341,"name":"tree_294","type":"tree","x":4192,"y":2048,"width":48,"height":64,"properties":[{"name":"variant","type":"int","value":0}]},{"id":100342,"name":"tree_295","type":"tree","x":4224,"y":2048,"width":48,"height":64,"properties":[{"name":"variant","type":"int","value":1}]},{"id":100343,"name":"tree_296","type":"tree","x":4480,"y":2048,"width":48,"height":64,"properties":[{"name":"variant","type":"int","value":2}]},{"id":100344,"name":"tree_297","type":"tree","x":4512,"y":2048,"width":48,"height":64,"properties":[{"name":"variant","type":"int","value":0}]},{"id":100345,"name":"tree_298","type":"tree","x":4544,"y":2048,"width":48,"height":64,"properties":[{"name":"variant","type":"int","value":1}]},{"id":100346,"name":"tree_299","type":"tree","x":4576,"y":2048,"width":48,"height":64,"properties":[{"name":"variant","type":"int","value":2}]},{"id":100347,"name":"tree_300","type":"tree","x":4640,"y":2048,"width":48,"height":64,"properties":[{"name":"variant","type":"int","value":0}]},{"id":100348,"name":"tree_301","type":"tree","x":4672,"y":2048,"width":48,"height":64,"properties":[{"name":"variant","type":"int","value":1}]},{"id":100349,"name":"tree_302","type":"tree","x":4736,"y":2048,"width":48,"height":64,"properties":[{"name":"variant","type":"int","value":2}]},{"id":100350,"name":"tree_303","type":"tree","x":4768,"y":2048,"width":48,"height":64,"properties":[{"name":"variant","type":"int","value":0}]},{"id":100351,"name":"tree_304","type":"tree","x":4864,"y":2048,"width":48,"height":64,"properties":[{"name":"variant","type":"int","value":1}]},{"id":100352,"name":"tree_305","type":"tree","x":4960,"y":2048,"width":48,"height":64,"properties":[{"name":"variant","type":"int","value":2}]},{"id":100353,"name":"tree_306","type":"tree","x":5088,"y":2048,"width":48,"height":64,"properties":[{"name":"variant","type":"int","value":0}]},{"id":100354,"name":"tree_307","type":"tree","x":5152,"y":2048,"width":48,"height":64,"properties":[{"name":"variant","type":"int","value":1}]},{"id":100355,"name":"tree_308","type":"tree","x":5408,"y":2048,"width":48,"height":64,"properties":[{"name":"variant","type":"int","value":2}]},{"id":100356,"name":"tree_309","type":"tree","x":5504,"y":2048,"width":48,"height":64,"properties":[{"name":"variant","type":"int","value":0}]},{"id":100357,"name":"tree_310","type":"tree","x":5568,"y":2048,"width":48,"height":64,"properties":[{"name":"variant","type":"int","value":1}]},{"id":100358,"name":"tree_311","type":"tree","x":2112,"y":2080,"width":48,"height":64,"properties":[{"name":"variant","type":"int","value":2}]},{"id":100359,"name":"tree_312","type":"tree","x":2944,"y":2080,"width":48,"height":64,"properties":[{"name":"variant","type":"int","value":0}]},{"id":100360,"name":"tree_313","type":"tree","x":2976,"y":2080,"width":48,"height":64,"properties":[{"name":"variant","type":"int","value":1}]},{"id":100361,"name":"tree_314","type":"tree","x":3072,"y":2080,"width":48,"height":64,"properties":[{"name":"variant","type":"int","value":2}]},{"id":100362,"name":"tree_315","type":"tree","x":3136,"y":2080,"width":48,"height":64,"properties":[{"name":"variant","type":"int","value":0}]},{"id":100363,"name":"tree_316","type":"tree","x":3200,"y":2080,"width":48,"height":64,"properties":[{"name":"variant","type":"int","value":1}]},{"id":100364,"name":"tree_317","type":"tree","x":3360,"y":2080,"width":48,"height":64,"properties":[{"name":"variant","type":"int","value":2}]},{"id":100365,"name":"tree_318","type":"tree","x":3488,"y":2080,"width":48,"height":64,"properties":[{"name":"variant","type":"int","value":0}]},{"id":100366,"name":"tree_319","type":"tree","x":3744,"y":2080,"width":48,"height":64,"properties":[{"name":"variant","type":"int","value":1}]},{"id":100367,"name":"tree_320","type":"tree","x":4000,"y":2080,"width":48,"height":64,"properties":[{"name":"variant","type":"int","value":2}]},{"id":100368,"name":"tree_321","type":"tree","x":4128,"y":2080,"width":48,"height":64,"properties":[{"name":"variant","type":"int","value":0}]},{"id":100369,"name":"tree_322","type":"tree","x":4256,"y":2080,"width":48,"height":64,"properties":[{"name":"variant","type":"int","value":1}]},{"id":100370,"name":"tree_323","type":"tree","x":4320,"y":2080,"width":48,"height":64,"properties":[{"name":"variant","type":"int","value":2}]},{"id":100371,"name":"tree_324","type":"tree","x":4352,"y":2080,"width":48,"height":64,"properties":[{"name":"variant","type":"int","value":0}]},{"id":100372,"name":"tree_325","type":"tree","x":4480,"y":2080,"width":48,"height":64,"properties":[{"name":"variant","type":"int","value":1}]},{"id":100373,"name":"tree_326","type":"tree","x":4544,"y":2080,"width":48,"height":64,"properties":[{"name":"variant","type":"int","value":2}]},{"id":100374,"name":"tree_327","type":"tree","x":4608,"y":2080,"width":48,"height":64,"properties":[{"name":"variant","type":"int","value":0}]},{"id":100375,"name":"tree_328","type":"tree","x":4640,"y":2080,"width":48,"height":64,"properties":[{"name":"variant","type":"int","value":1}]},{"id":100376,"name":"tree_329","type":"tree","x":4832,"y":2080,"width":48,"height":64,"properties":[{"name":"variant","type":"int","value":2}]},{"id":100377,"name":"tree_330","type":"tree","x":4928,"y":2080,"width":48,"height":64,"properties":[{"name":"variant","type":"int","value":0}]},{"id":100378,"name":"tree_331","type":"tree","x":5024,"y":2080,"width":48,"height":64,"properties":[{"name":"variant","type":"int","value":1}]},{"id":100379,"name":"tree_332","type":"tree","x":5088,"y":2080,"width":48,"height":64,"properties":[{"name":"variant","type":"int","value":2}]},{"id":100380,"name":"tree_333","type":"tree","x":5120,"y":2080,"width":48,"height":64,"properties":[{"name":"variant","type":"int","value":0}]},{"id":100381,"name":"tree_334","type":"tree","x":5152,"y":2080,"width":48,"height":64,"properties":[{"name":"variant","type":"int","value":1}]},{"id":100382,"name":"tree_335","type":"tree","x":5440,"y":2080,"width":48,"height":64,"properties":[{"name":"variant","type":"int","value":2}]},{"id":100383,"name":"tree_336","type":"tree","x":5536,"y":2080,"width":48,"height":64,"properties":[{"name":"variant","type":"int","value":0}]},{"id":100384,"name":"tree_337","type":"tree","x":5600,"y":2080,"width":48,"height":64,"properties":[{"name":"variant","type":"int","value":1}]},{"id":100385,"name":"tree_338","type":"tree","x":5632,"y":2080,"width":48,"height":64,"properties":[{"name":"variant","type":"int","value":2}]},{"id":100386,"name":"tree_339","type":"tree","x":3136,"y":2112,"width":48,"height":64,"properties":[{"name":"variant","type":"int","value":0}]},{"id":100387,"name":"tree_340","type":"tree","x":3200,"y":2112,"width":48,"height":64,"properties":[{"name":"variant","type":"int","value":1}]},{"id":100388,"name":"tree_341","type":"tree","x":3712,"y":2112,"width":48,"height":64,"properties":[{"name":"variant","type":"int","value":2}]},{"id":100389,"name":"tree_342","type":"tree","x":4032,"y":2112,"width":48,"height":64,"properties":[{"name":"variant","type":"int","value":0}]},{"id":100390,"name":"tree_343","type":"tree","x":4064,"y":2112,"width":48,"height":64,"properties":[{"name":"variant","type":"int","value":1}]},{"id":100391,"name":"tree_344","type":"tree","x":4096,"y":2112,"width":48,"height":64,"properties":[{"name":"variant","type":"int","value":2}]},{"id":100392,"name":"tree_345","type":"tree","x":4192,"y":2112,"width":48,"height":64,"properties":[{"name":"variant","type":"int","value":0}]},{"id":100393,"name":"tree_346","type":"tree","x":4224,"y":2112,"width":48,"height":64,"properties":[{"name":"variant","type":"int","value":1}]},{"id":100394,"name":"tree_347","type":"tree","x":4256,"y":2112,"width":48,"height":64,"properties":[{"name":"variant","type":"int","value":2}]},{"id":100395,"name":"tree_348","type":"tree","x":4288,"y":2112,"width":48,"height":64,"properties":[{"name":"variant","type":"int","value":0}]},{"id":100396,"name":"tree_349","type":"tree","x":4512,"y":2112,"width":48,"height":64,"properties":[{"name":"variant","type":"int","value":1}]},{"id":100397,"name":"tree_350","type":"tree","x":4640,"y":2112,"width":48,"height":64,"properties":[{"name":"variant","type":"int","value":2}]},{"id":100398,"name":"tree_351","type":"tree","x":4736,"y":2112,"width":48,"height":64,"properties":[{"name":"variant","type":"int","value":0}]},{"id":100399,"name":"tree_352","type":"tree","x":4768,"y":2112,"width":48,"height":64,"properties":[{"name":"variant","type":"int","value":1}]},{"id":100400,"name":"tree_353","type":"tree","x":4896,"y":2112,"width":48,"height":64,"properties":[{"name":"variant","type":"int","value":2}]},{"id":100401,"name":"tree_354","type":"tree","x":5056,"y":2112,"width":48,"height":64,"properties":[{"name":"variant","type":"int","value":0}]},{"id":100402,"name":"tree_355","type":"tree","x":5120,"y":2112,"width":48,"height":64,"properties":[{"name":"variant","type":"int","value":1}]},{"id":100403,"name":"tree_356","type":"tree","x":5152,"y":2112,"width":48,"height":64,"properties":[{"name":"variant","type":"int","value":2}]},{"id":100404,"name":"tree_357","type":"tree","x":5184,"y":2112,"width":48,"height":64,"properties":[{"name":"variant","type":"int","value":0}]},{"id":100405,"name":"tree_358","type":"tree","x":5408,"y":2112,"width":48,"height":64,"properties":[{"name":"variant","type":"int","value":1}]},{"id":100406,"name":"tree_359","type":"tree","x":5440,"y":2112,"width":48,"height":64,"properties":[{"name":"variant","type":"int","value":2}]},{"id":100407,"name":"tree_360","type":"tree","x":5472,"y":2112,"width":48,"height":64,"properties":[{"name":"variant","type":"int","value":0}]},{"id":100408,"name":"tree_361","type":"tree","x":5504,"y":2112,"width":48,"height":64,"properties":[{"name":"variant","type":"int","value":1}]},{"id":100409,"name":"tree_362","type":"tree","x":5568,"y":2112,"width":48,"height":64,"properties":[{"name":"variant","type":"int","value":2}]},{"id":100410,"name":"tree_363","type":"tree","x":5632,"y":2112,"width":48,"height":64,"properties":[{"name":"variant","type":"int","value":0}]},{"id":100411,"name":"tree_364","type":"tree","x":3168,"y":2144,"width":48,"height":64,"properties":[{"name":"variant","type":"int","value":1}]},{"id":100412,"name":"tree_365","type":"tree","x":3232,"y":2144,"width":48,"height":64,"properties":[{"name":"variant","type":"int","value":2}]},{"id":100413,"name":"tree_366","type":"tree","x":3296,"y":2144,"width":48,"height":64,"properties":[{"name":"variant","type":"int","value":0}]},{"id":100414,"name":"tree_367","type":"tree","x":3520,"y":2144,"width":48,"height":64,"properties":[{"name":"variant","type":"int","value":1}]},{"id":100415,"name":"tree_368","type":"tree","x":3552,"y":2144,"width":48,"height":64,"properties":[{"name":"variant","type":"int","value":2}]},{"id":100416,"name":"tree_369","type":"tree","x":3648,"y":2144,"width":48,"height":64,"properties":[{"name":"variant","type":"int","value":0}]},{"id":100417,"name":"tree_370","type":"tree","x":3872,"y":2144,"width":48,"height":64,"properties":[{"name":"variant","type":"int","value":1}]},{"id":100418,"name":"tree_371","type":"tree","x":4128,"y":2144,"width":48,"height":64,"properties":[{"name":"variant","type":"int","value":2}]},{"id":100419,"name":"tree_372","type":"tree","x":4160,"y":2144,"width":48,"height":64,"properties":[{"name":"variant","type":"int","value":0}]},{"id":100420,"name":"tree_373","type":"tree","x":4224,"y":2144,"width":48,"height":64,"properties":[{"name":"variant","type":"int","value":1}]},{"id":100421,"name":"tree_374","type":"tree","x":4480,"y":2144,"width":48,"height":64,"properties":[{"name":"variant","type":"int","value":2}]},{"id":100422,"name":"tree_375","type":"tree","x":4512,"y":2144,"width":48,"height":64,"properties":[{"name":"variant","type":"int","value":0}]},{"id":100423,"name":"tree_376","type":"tree","x":5056,"y":2144,"width":48,"height":64,"properties":[{"name":"variant","type":"int","value":1}]},{"id":100424,"name":"tree_377","type":"tree","x":5120,"y":2144,"width":48,"height":64,"properties":[{"name":"variant","type":"int","value":2}]},{"id":100425,"name":"tree_378","type":"tree","x":5152,"y":2144,"width":48,"height":64,"properties":[{"name":"variant","type":"int","value":0}]},{"id":100426,"name":"tree_379","type":"tree","x":5600,"y":2144,"width":48,"height":64,"properties":[{"name":"variant","type":"int","value":1}]},{"id":100427,"name":"tree_380","type":"tree","x":5632,"y":2144,"width":48,"height":64,"properties":[{"name":"variant","type":"int","value":2}]},{"id":100428,"name":"tree_381","type":"tree","x":5888,"y":2144,"width":48,"height":64,"properties":[{"name":"variant","type":"int","value":0}]},{"id":100429,"name":"tree_382","type":"tree","x":3008,"y":2176,"width":48,"height":64,"properties":[{"name":"variant","type":"int","value":1}]},{"id":100430,"name":"tree_383","type":"tree","x":3552,"y":2176,"width":48,"height":64,"properties":[{"name":"variant","type":"int","value":2}]},{"id":100431,"name":"tree_384","type":"tree","x":3680,"y":2176,"width":48,"height":64,"properties":[{"name":"variant","type":"int","value":0}]},{"id":100432,"name":"tree_385","type":"tree","x":4128,"y":2176,"width":48,"height":64,"properties":[{"name":"variant","type":"int","value":1}]},{"id":100433,"name":"tree_386","type":"tree","x":4224,"y":2176,"width":48,"height":64,"properties":[{"name":"variant","type":"int","value":2}]},{"id":100434,"name":"tree_387","type":"tree","x":4352,"y":2176,"width":48,"height":64,"properties":[{"name":"variant","type":"int","value":0}]},{"id":100435,"name":"tree_388","type":"tree","x":4608,"y":2176,"width":48,"height":64,"properties":[{"name":"variant","type":"int","value":1}]},{"id":100436,"name":"tree_389","type":"tree","x":4640,"y":2176,"width":48,"height":64,"properties":[{"name":"variant","type":"int","value":2}]},{"id":100437,"name":"tree_390","type":"tree","x":4736,"y":2176,"width":48,"height":64,"properties":[{"name":"variant","type":"int","value":0}]},{"id":100438,"name":"tree_391","type":"tree","x":4864,"y":2176,"width":48,"height":64,"properties":[{"name":"variant","type":"int","value":1}]},{"id":100439,"name":"tree_392","type":"tree","x":4960,"y":2176,"width":48,"height":64,"properties":[{"name":"variant","type":"int","value":2}]},{"id":100440,"name":"tree_393","type":"tree","x":4992,"y":2176,"width":48,"height":64,"properties":[{"name":"variant","type":"int","value":0}]},{"id":100441,"name":"tree_394","type":"tree","x":5056,"y":2176,"width":48,"height":64,"properties":[{"name":"variant","type":"int","value":1}]},{"id":100442,"name":"tree_395","type":"tree","x":5088,"y":2176,"width":48,"height":64,"properties":[{"name":"variant","type":"int","value":2}]},{"id":100443,"name":"tree_396","type":"tree","x":5120,"y":2176,"width":48,"height":64,"properties":[{"name":"variant","type":"int","value":0}]},{"id":100444,"name":"tree_397","type":"tree","x":5152,"y":2176,"width":48,"height":64,"properties":[{"name":"variant","type":"int","value":1}]},{"id":100445,"name":"tree_398","type":"tree","x":5216,"y":2176,"width":48,"height":64,"properties":[{"name":"variant","type":"int","value":2}]},{"id":100446,"name":"tree_399","type":"tree","x":5856,"y":2176,"width":48,"height":64,"properties":[{"name":"variant","type":"int","value":0}]},{"id":100447,"name":"tree_400","type":"tree","x":5888,"y":2176,"width":48,"height":64,"properties":[{"name":"variant","type":"int","value":1}]},{"id":100448,"name":"tree_401","type":"tree","x":3040,"y":2208,"width":48,"height":64,"properties":[{"name":"variant","type":"int","value":2}]},{"id":100449,"name":"tree_402","type":"tree","x":3136,"y":2208,"width":48,"height":64,"properties":[{"name":"variant","type":"int","value":0}]},{"id":100450,"name":"tree_403","type":"tree","x":3264,"y":2208,"width":48,"height":64,"properties":[{"name":"variant","type":"int","value":1}]},{"id":100451,"name":"tree_404","type":"tree","x":3296,"y":2208,"width":48,"height":64,"properties":[{"name":"variant","type":"int","value":2}]},{"id":100452,"name":"tree_405","type":"tree","x":3680,"y":2208,"width":48,"height":64,"properties":[{"name":"variant","type":"int","value":0}]},{"id":100453,"name":"tree_406","type":"tree","x":3712,"y":2208,"width":48,"height":64,"properties":[{"name":"variant","type":"int","value":1}]},{"id":100454,"name":"tree_407","type":"tree","x":3968,"y":2208,"width":48,"height":64,"properties":[{"name":"variant","type":"int","value":2}]},{"id":100455,"name":"tree_408","type":"tree","x":4000,"y":2208,"width":48,"height":64,"properties":[{"name":"variant","type":"int","value":0}]},{"id":100456,"name":"tree_409","type":"tree","x":4256,"y":2208,"width":48,"height":64,"properties":[{"name":"variant","type":"int","value":1}]},{"id":100457,"name":"tree_410","type":"tree","x":4288,"y":2208,"width":48,"height":64,"properties":[{"name":"variant","type":"int","value":2}]},{"id":100458,"name":"tree_411","type":"tree","x":4320,"y":2208,"width":48,"height":64,"properties":[{"name":"variant","type":"int","value":0}]},{"id":100459,"name":"tree_412","type":"tree","x":4704,"y":2208,"width":48,"height":64,"properties":[{"name":"variant","type":"int","value":1}]},{"id":100460,"name":"tree_413","type":"tree","x":4736,"y":2208,"width":48,"height":64,"properties":[{"name":"variant","type":"int","value":2}]},{"id":100461,"name":"tree_414","type":"tree","x":4864,"y":2208,"width":48,"height":64,"properties":[{"name":"variant","type":"int","value":0}]},{"id":100462,"name":"tree_415","type":"tree","x":5120,"y":2208,"width":48,"height":64,"properties":[{"name":"variant","type":"int","value":1}]},{"id":100463,"name":"tree_416","type":"tree","x":5184,"y":2208,"width":48,"height":64,"properties":[{"name":"variant","type":"int","value":2}]},{"id":100464,"name":"tree_417","type":"tree","x":5216,"y":2208,"width":48,"height":64,"properties":[{"name":"variant","type":"int","value":0}]},{"id":100465,"name":"tree_418","type":"tree","x":5728,"y":2208,"width":48,"height":64,"properties":[{"name":"variant","type":"int","value":1}]},{"id":100466,"name":"tree_419","type":"tree","x":2944,"y":2240,"width":48,"height":64,"properties":[{"name":"variant","type":"int","value":2}]},{"id":100467,"name":"tree_420","type":"tree","x":2976,"y":2240,"width":48,"height":64,"properties":[{"name":"variant","type":"int","value":0}]},{"id":100468,"name":"tree_421","type":"tree","x":3040,"y":2240,"width":48,"height":64,"properties":[{"name":"variant","type":"int","value":1}]},{"id":100469,"name":"tree_422","type":"tree","x":3072,"y":2240,"width":48,"height":64,"properties":[{"name":"variant","type":"int","value":2}]},{"id":100470,"name":"tree_423","type":"tree","x":3104,"y":2240,"width":48,"height":64,"properties":[{"name":"variant","type":"int","value":0}]},{"id":100471,"name":"tree_424","type":"tree","x":3168,"y":2240,"width":48,"height":64,"properties":[{"name":"variant","type":"int","value":1}]},{"id":100472,"name":"tree_425","type":"tree","x":3232,"y":2240,"width":48,"height":64,"properties":[{"name":"variant","type":"int","value":2}]},{"id":100473,"name":"tree_426","type":"tree","x":3424,"y":2240,"width":48,"height":64,"properties":[{"name":"variant","type":"int","value":0}]},{"id":100474,"name":"tree_427","type":"tree","x":3584,"y":2240,"width":48,"height":64,"properties":[{"name":"variant","type":"int","value":1}]},{"id":100475,"name":"tree_428","type":"tree","x":3648,"y":2240,"width":48,"height":64,"properties":[{"name":"variant","type":"int","value":2}]},{"id":100476,"name":"tree_429","type":"tree","x":3744,"y":2240,"width":48,"height":64,"properties":[{"name":"variant","type":"int","value":0}]},{"id":100477,"name":"tree_430","type":"tree","x":4288,"y":2240,"width":48,"height":64,"properties":[{"name":"variant","type":"int","value":1}]},{"id":100478,"name":"tree_431","type":"tree","x":4640,"y":2240,"width":48,"height":64,"properties":[{"name":"variant","type":"int","value":2}]},{"id":100479,"name":"tree_432","type":"tree","x":4672,"y":2240,"width":48,"height":64,"properties":[{"name":"variant","type":"int","value":0}]},{"id":100480,"name":"tree_433","type":"tree","x":4768,"y":2240,"width":48,"height":64,"properties":[{"name":"variant","type":"int","value":1}]},{"id":100481,"name":"tree_434","type":"tree","x":4832,"y":2240,"width":48,"height":64,"properties":[{"name":"variant","type":"int","value":2}]},{"id":100482,"name":"tree_435","type":"tree","x":4864,"y":2240,"width":48,"height":64,"properties":[{"name":"variant","type":"int","value":0}]},{"id":100483,"name":"tree_436","type":"tree","x":5024,"y":2240,"width":48,"height":64,"properties":[{"name":"variant","type":"int","value":1}]},{"id":100484,"name":"tree_437","type":"tree","x":5088,"y":2240,"width":48,"height":64,"properties":[{"name":"variant","type":"int","value":2}]},{"id":100485,"name":"tree_438","type":"tree","x":5184,"y":2240,"width":48,"height":64,"properties":[{"name":"variant","type":"int","value":0}]},{"id":100486,"name":"tree_439","type":"tree","x":5824,"y":2240,"width":48,"height":64,"properties":[{"name":"variant","type":"int","value":1}]},{"id":100487,"name":"tree_440","type":"tree","x":2944,"y":2272,"width":48,"height":64,"properties":[{"name":"variant","type":"int","value":2}]},{"id":100488,"name":"tree_441","type":"tree","x":3040,"y":2272,"width":48,"height":64,"properties":[{"name":"variant","type":"int","value":0}]},{"id":100489,"name":"tree_442","type":"tree","x":3104,"y":2272,"width":48,"height":64,"properties":[{"name":"variant","type":"int","value":1}]},{"id":100490,"name":"tree_443","type":"tree","x":3136,"y":2272,"width":48,"height":64,"properties":[{"name":"variant","type":"int","value":2}]},{"id":100491,"name":"tree_444","type":"tree","x":3168,"y":2272,"width":48,"height":64,"properties":[{"name":"variant","type":"int","value":0}]},{"id":100492,"name":"tree_445","type":"tree","x":3776,"y":2272,"width":48,"height":64,"properties":[{"name":"variant","type":"int","value":1}]},{"id":100493,"name":"tree_446","type":"tree","x":3936,"y":2272,"width":48,"height":64,"properties":[{"name":"variant","type":"int","value":2}]},{"id":100494,"name":"tree_447","type":"tree","x":4288,"y":2272,"width":48,"height":64,"properties":[{"name":"variant","type":"int","value":0}]},{"id":100495,"name":"tree_448","type":"tree","x":4352,"y":2272,"width":48,"height":64,"properties":[{"name":"variant","type":"int","value":1}]},{"id":100496,"name":"tree_449","type":"tree","x":4608,"y":2272,"width":48,"height":64,"properties":[{"name":"variant","type":"int","value":2}]},{"id":100497,"name":"tree_450","type":"tree","x":4736,"y":2272,"width":48,"height":64,"properties":[{"name":"variant","type":"int","value":0}]},{"id":100498,"name":"tree_451","type":"tree","x":4768,"y":2272,"width":48,"height":64,"properties":[{"name":"variant","type":"int","value":1}]},{"id":100499,"name":"tree_452","type":"tree","x":4992,"y":2272,"width":48,"height":64,"properties":[{"name":"variant","type":"int","value":2}]},{"id":100500,"name":"tree_453","type":"tree","x":5088,"y":2272,"width":48,"height":64,"properties":[{"name":"variant","type":"int","value":0}]},{"id":100501,"name":"tree_454","type":"tree","x":5184,"y":2272,"width":48,"height":64,"properties":[{"name":"variant","type":"int","value":1}]},{"id":100502,"name":"tree_455","type":"tree","x":5792,"y":2272,"width":48,"height":64,"properties":[{"name":"variant","type":"int","value":2}]},{"id":100503,"name":"tree_456","type":"tree","x":5856,"y":2272,"width":48,"height":64,"properties":[{"name":"variant","type":"int","value":0}]},{"id":100504,"name":"tree_457","type":"tree","x":3488,"y":2304,"width":48,"height":64,"properties":[{"name":"variant","type":"int","value":1}]},{"id":100505,"name":"tree_458","type":"tree","x":3520,"y":2304,"width":48,"height":64,"properties":[{"name":"variant","type":"int","value":2}]},{"id":100506,"name":"tree_459","type":"tree","x":3648,"y":2304,"width":48,"height":64,"properties":[{"name":"variant","type":"int","value":0}]},{"id":100507,"name":"tree_460","type":"tree","x":3712,"y":2304,"width":48,"height":64,"properties":[{"name":"variant","type":"int","value":1}]},{"id":100508,"name":"tree_461","type":"tree","x":3904,"y":2304,"width":48,"height":64,"properties":[{"name":"variant","type":"int","value":2}]},{"id":100509,"name":"tree_462","type":"tree","x":3936,"y":2304,"width":48,"height":64,"properties":[{"name":"variant","type":"int","value":0}]},{"id":100510,"name":"tree_463","type":"tree","x":4160,"y":2304,"width":48,"height":64,"properties":[{"name":"variant","type":"int","value":1}]},{"id":100511,"name":"tree_464","type":"tree","x":4320,"y":2304,"width":48,"height":64,"properties":[{"name":"variant","type":"int","value":2}]},{"id":100512,"name":"tree_465","type":"tree","x":4544,"y":2304,"width":48,"height":64,"properties":[{"name":"variant","type":"int","value":0}]},{"id":100513,"name":"tree_466","type":"tree","x":4576,"y":2304,"width":48,"height":64,"properties":[{"name":"variant","type":"int","value":1}]},{"id":100514,"name":"tree_467","type":"tree","x":4672,"y":2304,"width":48,"height":64,"properties":[{"name":"variant","type":"int","value":2}]},{"id":100515,"name":"tree_468","type":"tree","x":4928,"y":2304,"width":48,"height":64,"properties":[{"name":"variant","type":"int","value":0}]},{"id":100516,"name":"tree_469","type":"tree","x":4960,"y":2304,"width":48,"height":64,"properties":[{"name":"variant","type":"int","value":1}]},{"id":100517,"name":"tree_470","type":"tree","x":5088,"y":2304,"width":48,"height":64,"properties":[{"name":"variant","type":"int","value":2}]},{"id":100518,"name":"tree_471","type":"tree","x":5152,"y":2304,"width":48,"height":64,"properties":[{"name":"variant","type":"int","value":0}]},{"id":100519,"name":"tree_472","type":"tree","x":5184,"y":2304,"width":48,"height":64,"properties":[{"name":"variant","type":"int","value":1}]},{"id":100520,"name":"tree_473","type":"tree","x":5248,"y":2304,"width":48,"height":64,"properties":[{"name":"variant","type":"int","value":2}]},{"id":100521,"name":"tree_474","type":"tree","x":5728,"y":2304,"width":48,"height":64,"properties":[{"name":"variant","type":"int","value":0}]},{"id":100522,"name":"tree_475","type":"tree","x":5792,"y":2304,"width":48,"height":64,"properties":[{"name":"variant","type":"int","value":1}]},{"id":100523,"name":"tree_476","type":"tree","x":5824,"y":2304,"width":48,"height":64,"properties":[{"name":"variant","type":"int","value":2}]},{"id":100524,"name":"tree_477","type":"tree","x":5856,"y":2304,"width":48,"height":64,"properties":[{"name":"variant","type":"int","value":0}]},{"id":100525,"name":"tree_478","type":"tree","x":5888,"y":2304,"width":48,"height":64,"properties":[{"name":"variant","type":"int","value":1}]},{"id":100526,"name":"tree_479","type":"tree","x":3744,"y":2336,"width":48,"height":64,"properties":[{"name":"variant","type":"int","value":2}]},{"id":100527,"name":"tree_480","type":"tree","x":3872,"y":2336,"width":48,"height":64,"properties":[{"name":"variant","type":"int","value":0}]},{"id":100528,"name":"tree_481","type":"tree","x":4224,"y":2336,"width":48,"height":64,"properties":[{"name":"variant","type":"int","value":1}]},{"id":100529,"name":"tree_482","type":"tree","x":4288,"y":2336,"width":48,"height":64,"properties":[{"name":"variant","type":"int","value":2}]},{"id":100530,"name":"tree_483","type":"tree","x":4352,"y":2336,"width":48,"height":64,"properties":[{"name":"variant","type":"int","value":0}]},{"id":100531,"name":"tree_484","type":"tree","x":4384,"y":2336,"width":48,"height":64,"properties":[{"name":"variant","type":"int","value":1}]},{"id":100532,"name":"tree_485","type":"tree","x":4448,"y":2336,"width":48,"height":64,"properties":[{"name":"variant","type":"int","value":2}]},{"id":100533,"name":"tree_486","type":"tree","x":4576,"y":2336,"width":48,"height":64,"properties":[{"name":"variant","type":"int","value":0}]},{"id":100534,"name":"tree_487","type":"tree","x":4832,"y":2336,"width":48,"height":64,"properties":[{"name":"variant","type":"int","value":1}]},{"id":100535,"name":"tree_488","type":"tree","x":5056,"y":2336,"width":48,"height":64,"properties":[{"name":"variant","type":"int","value":2}]},{"id":100536,"name":"tree_489","type":"tree","x":5088,"y":2336,"width":48,"height":64,"properties":[{"name":"variant","type":"int","value":0}]},{"id":100537,"name":"tree_490","type":"tree","x":5120,"y":2336,"width":48,"height":64,"properties":[{"name":"variant","type":"int","value":1}]},{"id":100538,"name":"tree_491","type":"tree","x":5184,"y":2336,"width":48,"height":64,"properties":[{"name":"variant","type":"int","value":2}]},{"id":100539,"name":"tree_492","type":"tree","x":5248,"y":2336,"width":48,"height":64,"properties":[{"name":"variant","type":"int","value":0}]},{"id":100540,"name":"tree_493","type":"tree","x":5760,"y":2336,"width":48,"height":64,"properties":[{"name":"variant","type":"int","value":1}]},{"id":100541,"name":"tree_494","type":"tree","x":3616,"y":2368,"width":48,"height":64,"properties":[{"name":"variant","type":"int","value":2}]},{"id":100542,"name":"tree_495","type":"tree","x":3872,"y":2368,"width":48,"height":64,"properties":[{"name":"variant","type":"int","value":0}]},{"id":100543,"name":"tree_496","type":"tree","x":4128,"y":2368,"width":48,"height":64,"properties":[{"name":"variant","type":"int","value":1}]},{"id":100544,"name":"tree_497","type":"tree","x":4192,"y":2368,"width":48,"height":64,"properties":[{"name":"variant","type":"int","value":2}]},{"id":100545,"name":"tree_498","type":"tree","x":4256,"y":2368,"width":48,"height":64,"properties":[{"name":"variant","type":"int","value":0}]},{"id":100546,"name":"tree_499","type":"tree","x":4320,"y":2368,"width":48,"height":64,"properties":[{"name":"variant","type":"int","value":1}]},{"id":100547,"name":"tree_500","type":"tree","x":4352,"y":2368,"width":48,"height":64,"properties":[{"name":"variant","type":"int","value":2}]},{"id":100548,"name":"tree_501","type":"tree","x":4736,"y":2368,"width":48,"height":64,"properties":[{"name":"variant","type":"int","value":0}]},{"id":100549,"name":"tree_502","type":"tree","x":4864,"y":2368,"width":48,"height":64,"properties":[{"name":"variant","type":"int","value":1}]},{"id":100550,"name":"tree_503","type":"tree","x":4960,"y":2368,"width":48,"height":64,"properties":[{"name":"variant","type":"int","value":2}]},{"id":100551,"name":"tree_504","type":"tree","x":5152,"y":2368,"width":48,"height":64,"properties":[{"name":"variant","type":"int","value":0}]},{"id":100552,"name":"tree_505","type":"tree","x":5216,"y":2368,"width":48,"height":64,"properties":[{"name":"variant","type":"int","value":1}]},{"id":100553,"name":"tree_506","type":"tree","x":5248,"y":2368,"width":48,"height":64,"properties":[{"name":"variant","type":"int","value":2}]},{"id":100554,"name":"tree_507","type":"tree","x":5280,"y":2368,"width":48,"height":64,"properties":[{"name":"variant","type":"int","value":0}]},{"id":100555,"name":"tree_508","type":"tree","x":5824,"y":2368,"width":48,"height":64,"properties":[{"name":"variant","type":"int","value":1}]},{"id":100556,"name":"tree_509","type":"tree","x":5856,"y":2368,"width":48,"height":64,"properties":[{"name":"variant","type":"int","value":2}]},{"id":100557,"name":"tree_510","type":"tree","x":2816,"y":2400,"width":48,"height":64,"properties":[{"name":"variant","type":"int","value":0}]},{"id":100558,"name":"tree_511","type":"tree","x":3904,"y":2400,"width":48,"height":64,"properties":[{"name":"variant","type":"int","value":1}]},{"id":100559,"name":"tree_512","type":"tree","x":4704,"y":2400,"width":48,"height":64,"properties":[{"name":"variant","type":"int","value":2}]},{"id":100560,"name":"tree_513","type":"tree","x":4736,"y":2400,"width":48,"height":64,"properties":[{"name":"variant","type":"int","value":0}]},{"id":100561,"name":"tree_514","type":"tree","x":4800,"y":2400,"width":48,"height":64,"properties":[{"name":"variant","type":"int","value":1}]},{"id":100562,"name":"tree_515","type":"tree","x":5024,"y":2400,"width":48,"height":64,"properties":[{"name":"variant","type":"int","value":2}]},{"id":100563,"name":"tree_516","type":"tree","x":5056,"y":2400,"width":48,"height":64,"properties":[{"name":"variant","type":"int","value":0}]},{"id":100564,"name":"tree_517","type":"tree","x":5152,"y":2400,"width":48,"height":64,"properties":[{"name":"variant","type":"int","value":1}]},{"id":100565,"name":"tree_518","type":"tree","x":5184,"y":2400,"width":48,"height":64,"properties":[{"name":"variant","type":"int","value":2}]},{"id":100566,"name":"tree_519","type":"tree","x":5216,"y":2400,"width":48,"height":64,"properties":[{"name":"variant","type":"int","value":0}]},{"id":100567,"name":"tree_520","type":"tree","x":5280,"y":2400,"width":48,"height":64,"properties":[{"name":"variant","type":"int","value":1}]},{"id":100568,"name":"tree_521","type":"tree","x":5824,"y":2400,"width":48,"height":64,"properties":[{"name":"variant","type":"int","value":2}]},{"id":100569,"name":"tree_522","type":"tree","x":5856,"y":2400,"width":48,"height":64,"properties":[{"name":"variant","type":"int","value":0}]},{"id":100570,"name":"tree_523","type":"tree","x":2784,"y":2432,"width":48,"height":64,"properties":[{"name":"variant","type":"int","value":1}]},{"id":100571,"name":"tree_524","type":"tree","x":3936,"y":2432,"width":48,"height":64,"properties":[{"name":"variant","type":"int","value":2}]},{"id":100572,"name":"tree_525","type":"tree","x":4128,"y":2432,"width":48,"height":64,"properties":[{"name":"variant","type":"int","value":0}]},{"id":100573,"name":"tree_526","type":"tree","x":4160,"y":2432,"width":48,"height":64,"properties":[{"name":"variant","type":"int","value":1}]},{"id":100574,"name":"tree_527","type":"tree","x":4224,"y":2432,"width":48,"height":64,"properties":[{"name":"variant","type":"int","value":2}]},{"id":100575,"name":"tree_528","type":"tree","x":4288,"y":2432,"width":48,"height":64,"properties":[{"name":"variant","type":"int","value":0}]},{"id":100576,"name":"tree_529","type":"tree","x":4960,"y":2432,"width":48,"height":64,"properties":[{"name":"variant","type":"int","value":1}]},{"id":100577,"name":"tree_530","type":"tree","x":5056,"y":2432,"width":48,"height":64,"properties":[{"name":"variant","type":"int","value":2}]},{"id":100578,"name":"tree_531","type":"tree","x":5184,"y":2432,"width":48,"height":64,"properties":[{"name":"variant","type":"int","value":0}]},{"id":100579,"name":"tree_532","type":"tree","x":5792,"y":2432,"width":48,"height":64,"properties":[{"name":"variant","type":"int","value":1}]},{"id":100580,"name":"tree_533","type":"tree","x":5824,"y":2432,"width":48,"height":64,"properties":[{"name":"variant","type":"int","value":2}]},{"id":100581,"name":"tree_534","type":"tree","x":5888,"y":2432,"width":48,"height":64,"properties":[{"name":"variant","type":"int","value":0}]},{"id":100582,"name":"tree_535","type":"tree","x":1856,"y":2464,"width":48,"height":64,"properties":[{"name":"variant","type":"int","value":1}]},{"id":100583,"name":"tree_536","type":"tree","x":2848,"y":2464,"width":48,"height":64,"properties":[{"name":"variant","type":"int","value":2}]},{"id":100584,"name":"tree_537","type":"tree","x":2912,"y":2464,"width":48,"height":64,"properties":[{"name":"variant","type":"int","value":0}]},{"id":100585,"name":"tree_538","type":"tree","x":3648,"y":2464,"width":48,"height":64,"properties":[{"name":"variant","type":"int","value":1}]},{"id":100586,"name":"tree_539","type":"tree","x":3680,"y":2464,"width":48,"height":64,"properties":[{"name":"variant","type":"int","value":2}]},{"id":100587,"name":"tree_540","type":"tree","x":4064,"y":2464,"width":48,"height":64,"properties":[{"name":"variant","type":"int","value":0}]},{"id":100588,"name":"tree_541","type":"tree","x":4224,"y":2464,"width":48,"height":64,"properties":[{"name":"variant","type":"int","value":1}]},{"id":100589,"name":"tree_542","type":"tree","x":4320,"y":2464,"width":48,"height":64,"properties":[{"name":"variant","type":"int","value":2}]},{"id":100590,"name":"tree_543","type":"tree","x":4352,"y":2464,"width":48,"height":64,"properties":[{"name":"variant","type":"int","value":0}]},{"id":100591,"name":"tree_544","type":"tree","x":5056,"y":2464,"width":48,"height":64,"properties":[{"name":"variant","type":"int","value":1}]},{"id":100592,"name":"tree_545","type":"tree","x":5088,"y":2464,"width":48,"height":64,"properties":[{"name":"variant","type":"int","value":2}]},{"id":100593,"name":"tree_546","type":"tree","x":5120,"y":2464,"width":48,"height":64,"properties":[{"name":"variant","type":"int","value":0}]},{"id":100594,"name":"tree_547","type":"tree","x":5152,"y":2464,"width":48,"height":64,"properties":[{"name":"variant","type":"int","value":1}]},{"id":100595,"name":"tree_548","type":"tree","x":5216,"y":2464,"width":48,"height":64,"properties":[{"name":"variant","type":"int","value":2}]},{"id":100596,"name":"tree_549","type":"tree","x":5280,"y":2464,"width":48,"height":64,"properties":[{"name":"variant","type":"int","value":0}]},{"id":100597,"name":"tree_550","type":"tree","x":5312,"y":2464,"width":48,"height":64,"properties":[{"name":"variant","type":"int","value":1}]},{"id":100598,"name":"tree_551","type":"tree","x":5888,"y":2464,"width":48,"height":64,"properties":[{"name":"variant","type":"int","value":2}]},{"id":100599,"name":"tree_552","type":"tree","x":1856,"y":2496,"width":48,"height":64,"properties":[{"name":"variant","type":"int","value":0}]},{"id":100600,"name":"tree_553","type":"tree","x":2720,"y":2496,"width":48,"height":64,"properties":[{"name":"variant","type":"int","value":1}]},{"id":100601,"name":"tree_554","type":"tree","x":2880,"y":2496,"width":48,"height":64,"properties":[{"name":"variant","type":"int","value":2}]},{"id":100602,"name":"tree_555","type":"tree","x":2944,"y":2496,"width":48,"height":64,"properties":[{"name":"variant","type":"int","value":0}]},{"id":100603,"name":"tree_556","type":"tree","x":3680,"y":2496,"width":48,"height":64,"properties":[{"name":"variant","type":"int","value":1}]},{"id":100604,"name":"tree_557","type":"tree","x":3712,"y":2496,"width":48,"height":64,"properties":[{"name":"variant","type":"int","value":2}]},{"id":100605,"name":"tree_558","type":"tree","x":3808,"y":2496,"width":48,"height":64,"properties":[{"name":"variant","type":"int","value":0}]},{"id":100606,"name":"tree_559","type":"tree","x":4096,"y":2496,"width":48,"height":64,"properties":[{"name":"variant","type":"int","value":1}]},{"id":100607,"name":"tree_560","type":"tree","x":4160,"y":2496,"width":48,"height":64,"properties":[{"name":"variant","type":"int","value":2}]},{"id":100608,"name":"tree_561","type":"tree","x":4320,"y":2496,"width":48,"height":64,"properties":[{"name":"variant","type":"int","value":0}]},{"id":100609,"name":"tree_562","type":"tree","x":4480,"y":2496,"width":48,"height":64,"properties":[{"name":"variant","type":"int","value":1}]},{"id":100610,"name":"tree_563","type":"tree","x":4544,"y":2496,"width":48,"height":64,"properties":[{"name":"variant","type":"int","value":2}]},{"id":100611,"name":"tree_564","type":"tree","x":4608,"y":2496,"width":48,"height":64,"properties":[{"name":"variant","type":"int","value":0}]},{"id":100612,"name":"tree_565","type":"tree","x":4640,"y":2496,"width":48,"height":64,"properties":[{"name":"variant","type":"int","value":1}]},{"id":100613,"name":"tree_566","type":"tree","x":5056,"y":2496,"width":48,"height":64,"properties":[{"name":"variant","type":"int","value":2}]},{"id":100614,"name":"tree_567","type":"tree","x":5120,"y":2496,"width":48,"height":64,"properties":[{"name":"variant","type":"int","value":0}]},{"id":100615,"name":"tree_568","type":"tree","x":5280,"y":2496,"width":48,"height":64,"properties":[{"name":"variant","type":"int","value":1}]},{"id":100616,"name":"tree_569","type":"tree","x":2688,"y":2528,"width":48,"height":64,"properties":[{"name":"variant","type":"int","value":2}]},{"id":100617,"name":"tree_570","type":"tree","x":2720,"y":2528,"width":48,"height":64,"properties":[{"name":"variant","type":"int","value":0}]},{"id":100618,"name":"tree_571","type":"tree","x":2752,"y":2528,"width":48,"height":64,"properties":[{"name":"variant","type":"int","value":1}]},{"id":100619,"name":"tree_572","type":"tree","x":2784,"y":2528,"width":48,"height":64,"properties":[{"name":"variant","type":"int","value":2}]},{"id":100620,"name":"tree_573","type":"tree","x":2944,"y":2528,"width":48,"height":64,"properties":[{"name":"variant","type":"int","value":0}]},{"id":100621,"name":"tree_574","type":"tree","x":4128,"y":2528,"width":48,"height":64,"properties":[{"name":"variant","type":"int","value":1}]},{"id":100622,"name":"tree_575","type":"tree","x":4320,"y":2528,"width":48,"height":64,"properties":[{"name":"variant","type":"int","value":2}]},{"id":100623,"name":"tree_576","type":"tree","x":4608,"y":2528,"width":48,"height":64,"properties":[{"name":"variant","type":"int","value":0}]},{"id":100624,"name":"tree_577","type":"tree","x":4928,"y":2528,"width":48,"height":64,"properties":[{"name":"variant","type":"int","value":1}]},{"id":100625,"name":"tree_578","type":"tree","x":5024,"y":2528,"width":48,"height":64,"properties":[{"name":"variant","type":"int","value":2}]},{"id":100626,"name":"tree_579","type":"tree","x":5248,"y":2528,"width":48,"height":64,"properties":[{"name":"variant","type":"int","value":0}]},{"id":100627,"name":"tree_580","type":"tree","x":5824,"y":2528,"width":48,"height":64,"properties":[{"name":"variant","type":"int","value":1}]},{"id":100628,"name":"tree_581","type":"tree","x":5856,"y":2528,"width":48,"height":64,"properties":[{"name":"variant","type":"int","value":2}]},{"id":100629,"name":"tree_582","type":"tree","x":5888,"y":2528,"width":48,"height":64,"properties":[{"name":"variant","type":"int","value":0}]},{"id":100630,"name":"tree_583","type":"tree","x":5920,"y":2528,"width":48,"height":64,"properties":[{"name":"variant","type":"int","value":1}]},{"id":100631,"name":"tree_584","type":"tree","x":2624,"y":2560,"width":48,"height":64,"properties":[{"name":"variant","type":"int","value":2}]},{"id":100632,"name":"tree_585","type":"tree","x":2688,"y":2560,"width":48,"height":64,"properties":[{"name":"variant","type":"int","value":0}]},{"id":100633,"name":"tree_586","type":"tree","x":2720,"y":2560,"width":48,"height":64,"properties":[{"name":"variant","type":"int","value":1}]},{"id":100634,"name":"tree_587","type":"tree","x":2752,"y":2560,"width":48,"height":64,"properties":[{"name":"variant","type":"int","value":2}]},{"id":100635,"name":"tree_588","type":"tree","x":2848,"y":2560,"width":48,"height":64,"properties":[{"name":"variant","type":"int","value":0}]},{"id":100636,"name":"tree_589","type":"tree","x":2880,"y":2560,"width":48,"height":64,"properties":[{"name":"variant","type":"int","value":1}]},{"id":100637,"name":"tree_590","type":"tree","x":2944,"y":2560,"width":48,"height":64,"properties":[{"name":"variant","type":"int","value":2}]},{"id":100638,"name":"tree_591","type":"tree","x":2976,"y":2560,"width":48,"height":64,"properties":[{"name":"variant","type":"int","value":0}]},{"id":100639,"name":"tree_592","type":"tree","x":3040,"y":2560,"width":48,"height":64,"properties":[{"name":"variant","type":"int","value":1}]},{"id":100640,"name":"tree_593","type":"tree","x":4288,"y":2560,"width":48,"height":64,"properties":[{"name":"variant","type":"int","value":2}]},{"id":100641,"name":"tree_594","type":"tree","x":4480,"y":2560,"width":48,"height":64,"properties":[{"name":"variant","type":"int","value":0}]},{"id":100642,"name":"tree_595","type":"tree","x":4576,"y":2560,"width":48,"height":64,"properties":[{"name":"variant","type":"int","value":1}]},{"id":100643,"name":"tree_596","type":"tree","x":4672,"y":2560,"width":48,"height":64,"properties":[{"name":"variant","type":"int","value":2}]},{"id":100644,"name":"tree_597","type":"tree","x":4736,"y":2560,"width":48,"height":64,"properties":[{"name":"variant","type":"int","value":0}]},{"id":100645,"name":"tree_598","type":"tree","x":4928,"y":2560,"width":48,"height":64,"properties":[{"name":"variant","type":"int","value":1}]},{"id":100646,"name":"tree_599","type":"tree","x":5376,"y":2560,"width":48,"height":64,"properties":[{"name":"variant","type":"int","value":2}]},{"id":100647,"name":"tree_600","type":"tree","x":5408,"y":2560,"width":48,"height":64,"properties":[{"name":"variant","type":"int","value":0}]},{"id":100648,"name":"tree_601","type":"tree","x":5888,"y":2560,"width":48,"height":64,"properties":[{"name":"variant","type":"int","value":1}]},{"id":100649,"name":"tree_602","type":"tree","x":5920,"y":2560,"width":48,"height":64,"properties":[{"name":"variant","type":"int","value":2}]},{"id":100650,"name":"tree_603","type":"tree","x":2624,"y":2592,"width":48,"height":64,"properties":[{"name":"variant","type":"int","value":0}]},{"id":100651,"name":"tree_604","type":"tree","x":2656,"y":2592,"width":48,"height":64,"properties":[{"name":"variant","type":"int","value":1}]},{"id":100652,"name":"tree_605","type":"tree","x":2720,"y":2592,"width":48,"height":64,"properties":[{"name":"variant","type":"int","value":2}]},{"id":100653,"name":"tree_606","type":"tree","x":2816,"y":2592,"width":48,"height":64,"properties":[{"name":"variant","type":"int","value":0}]},{"id":100654,"name":"tree_607","type":"tree","x":2944,"y":2592,"width":48,"height":64,"properties":[{"name":"variant","type":"int","value":1}]},{"id":100655,"name":"tree_608","type":"tree","x":3008,"y":2592,"width":48,"height":64,"properties":[{"name":"variant","type":"int","value":2}]},{"id":100656,"name":"tree_609","type":"tree","x":4000,"y":2592,"width":48,"height":64,"properties":[{"name":"variant","type":"int","value":0}]},{"id":100657,"name":"tree_610","type":"tree","x":4128,"y":2592,"width":48,"height":64,"properties":[{"name":"variant","type":"int","value":1}]},{"id":100658,"name":"tree_611","type":"tree","x":4160,"y":2592,"width":48,"height":64,"properties":[{"name":"variant","type":"int","value":2}]},{"id":100659,"name":"tree_612","type":"tree","x":4512,"y":2592,"width":48,"height":64,"properties":[{"name":"variant","type":"int","value":0}]},{"id":100660,"name":"tree_613","type":"tree","x":4544,"y":2592,"width":48,"height":64,"properties":[{"name":"variant","type":"int","value":1}]},{"id":100661,"name":"tree_614","type":"tree","x":4768,"y":2592,"width":48,"height":64,"properties":[{"name":"variant","type":"int","value":2}]},{"id":100662,"name":"tree_615","type":"tree","x":4960,"y":2592,"width":48,"height":64,"properties":[{"name":"variant","type":"int","value":0}]},{"id":100663,"name":"tree_616","type":"tree","x":2624,"y":2624,"width":48,"height":64,"properties":[{"name":"variant","type":"int","value":1}]},{"id":100664,"name":"tree_617","type":"tree","x":2848,"y":2624,"width":48,"height":64,"properties":[{"name":"variant","type":"int","value":2}]},{"id":100665,"name":"tree_618","type":"tree","x":2912,"y":2624,"width":48,"height":64,"properties":[{"name":"variant","type":"int","value":0}]},{"id":100666,"name":"tree_619","type":"tree","x":3008,"y":2624,"width":48,"height":64,"properties":[{"name":"variant","type":"int","value":1}]},{"id":100667,"name":"tree_620","type":"tree","x":3040,"y":2624,"width":48,"height":64,"properties":[{"name":"variant","type":"int","value":2}]},{"id":100668,"name":"tree_621","type":"tree","x":3136,"y":2624,"width":48,"height":64,"properties":[{"name":"variant","type":"int","value":0}]},{"id":100669,"name":"tree_622","type":"tree","x":3168,"y":2624,"width":48,"height":64,"properties":[{"name":"variant","type":"int","value":1}]},{"id":100670,"name":"tree_623","type":"tree","x":3904,"y":2624,"width":48,"height":64,"properties":[{"name":"variant","type":"int","value":2}]},{"id":100671,"name":"tree_624","type":"tree","x":3936,"y":2624,"width":48,"height":64,"properties":[{"name":"variant","type":"int","value":0}]},{"id":100672,"name":"tree_625","type":"tree","x":4096,"y":2624,"width":48,"height":64,"properties":[{"name":"variant","type":"int","value":1}]},{"id":100673,"name":"tree_626","type":"tree","x":4224,"y":2624,"width":48,"height":64,"properties":[{"name":"variant","type":"int","value":2}]},{"id":100674,"name":"tree_627","type":"tree","x":2688,"y":2656,"width":48,"height":64,"properties":[{"name":"variant","type":"int","value":0}]},{"id":100675,"name":"tree_628","type":"tree","x":2816,"y":2656,"width":48,"height":64,"properties":[{"name":"variant","type":"int","value":1}]},{"id":100676,"name":"tree_629","type":"tree","x":2944,"y":2656,"width":48,"height":64,"properties":[{"name":"variant","type":"int","value":2}]},{"id":100677,"name":"tree_630","type":"tree","x":3008,"y":2656,"width":48,"height":64,"properties":[{"name":"variant","type":"int","value":0}]},{"id":100678,"name":"tree_631","type":"tree","x":3104,"y":2656,"width":48,"height":64,"properties":[{"name":"variant","type":"int","value":1}]},{"id":100679,"name":"tree_632","type":"tree","x":3168,"y":2656,"width":48,"height":64,"properties":[{"name":"variant","type":"int","value":2}]},{"id":100680,"name":"tree_633","type":"tree","x":3232,"y":2656,"width":48,"height":64,"properties":[{"name":"variant","type":"int","value":0}]},{"id":100681,"name":"tree_634","type":"tree","x":3936,"y":2656,"width":48,"height":64,"properties":[{"name":"variant","type":"int","value":1}]},{"id":100682,"name":"tree_635","type":"tree","x":4064,"y":2656,"width":48,"height":64,"properties":[{"name":"variant","type":"int","value":2}]},{"id":100683,"name":"tree_636","type":"tree","x":2688,"y":2688,"width":48,"height":64,"properties":[{"name":"variant","type":"int","value":0}]},{"id":100684,"name":"tree_637","type":"tree","x":2720,"y":2688,"width":48,"height":64,"properties":[{"name":"variant","type":"int","value":1}]},{"id":100685,"name":"tree_638","type":"tree","x":2784,"y":2688,"width":48,"height":64,"properties":[{"name":"variant","type":"int","value":2}]},{"id":100686,"name":"tree_639","type":"tree","x":2816,"y":2688,"width":48,"height":64,"properties":[{"name":"variant","type":"int","value":0}]},{"id":100687,"name":"tree_640","type":"tree","x":2848,"y":2688,"width":48,"height":64,"properties":[{"name":"variant","type":"int","value":1}]},{"id":100688,"name":"tree_641","type":"tree","x":2912,"y":2688,"width":48,"height":64,"properties":[{"name":"variant","type":"int","value":2}]},{"id":100689,"name":"tree_642","type":"tree","x":3040,"y":2688,"width":48,"height":64,"properties":[{"name":"variant","type":"int","value":0}]},{"id":100690,"name":"tree_643","type":"tree","x":3072,"y":2688,"width":48,"height":64,"properties":[{"name":"variant","type":"int","value":1}]},{"id":100691,"name":"tree_644","type":"tree","x":3104,"y":2688,"width":48,"height":64,"properties":[{"name":"variant","type":"int","value":2}]},{"id":100692,"name":"tree_645","type":"tree","x":3200,"y":2688,"width":48,"height":64,"properties":[{"name":"variant","type":"int","value":0}]},{"id":100693,"name":"tree_646","type":"tree","x":3264,"y":2688,"width":48,"height":64,"properties":[{"name":"variant","type":"int","value":1}]},{"id":100694,"name":"tree_647","type":"tree","x":3776,"y":2688,"width":48,"height":64,"properties":[{"name":"variant","type":"int","value":2}]},{"id":100695,"name":"tree_648","type":"tree","x":3840,"y":2688,"width":48,"height":64,"properties":[{"name":"variant","type":"int","value":0}]},{"id":100696,"name":"tree_649","type":"tree","x":3968,"y":2688,"width":48,"height":64,"properties":[{"name":"variant","type":"int","value":1}]},{"id":100697,"name":"tree_650","type":"tree","x":4128,"y":2688,"width":48,"height":64,"properties":[{"name":"variant","type":"int","value":2}]},{"id":100698,"name":"tree_651","type":"tree","x":4160,"y":2688,"width":48,"height":64,"properties":[{"name":"variant","type":"int","value":0}]},{"id":100699,"name":"tree_652","type":"tree","x":4224,"y":2688,"width":48,"height":64,"properties":[{"name":"variant","type":"int","value":1}]},{"id":100700,"name":"tree_653","type":"tree","x":4288,"y":2688,"width":48,"height":64,"properties":[{"name":"variant","type":"int","value":2}]},{"id":100701,"name":"tree_654","type":"tree","x":2784,"y":2720,"width":48,"height":64,"properties":[{"name":"variant","type":"int","value":0}]},{"id":100702,"name":"tree_655","type":"tree","x":2944,"y":2720,"width":48,"height":64,"properties":[{"name":"variant","type":"int","value":1}]},{"id":100703,"name":"tree_656","type":"tree","x":3008,"y":2720,"width":48,"height":64,"properties":[{"name":"variant","type":"int","value":2}]},{"id":100704,"name":"tree_657","type":"tree","x":3040,"y":2720,"width":48,"height":64,"properties":[{"name":"variant","type":"int","value":0}]},{"id":100705,"name":"tree_658","type":"tree","x":3104,"y":2720,"width":48,"height":64,"properties":[{"name":"variant","type":"int","value":1}]},{"id":100706,"name":"tree_659","type":"tree","x":3136,"y":2720,"width":48,"height":64,"properties":[{"name":"variant","type":"int","value":2}]},{"id":100707,"name":"tree_660","type":"tree","x":3232,"y":2720,"width":48,"height":64,"properties":[{"name":"variant","type":"int","value":0}]},{"id":100708,"name":"tree_661","type":"tree","x":4032,"y":2720,"width":48,"height":64,"properties":[{"name":"variant","type":"int","value":1}]},{"id":100709,"name":"tree_662","type":"tree","x":4352,"y":2720,"width":48,"height":64,"properties":[{"name":"variant","type":"int","value":2}]},{"id":100710,"name":"tree_663","type":"tree","x":2016,"y":2752,"width":48,"height":64,"properties":[{"name":"variant","type":"int","value":0}]},{"id":100711,"name":"tree_664","type":"tree","x":2176,"y":2752,"width":48,"height":64,"properties":[{"name":"variant","type":"int","value":1}]},{"id":100712,"name":"tree_665","type":"tree","x":2240,"y":2752,"width":48,"height":64,"properties":[{"name":"variant","type":"int","value":2}]},{"id":100713,"name":"tree_666","type":"tree","x":2656,"y":2752,"width":48,"height":64,"properties":[{"name":"variant","type":"int","value":0}]},{"id":100714,"name":"tree_667","type":"tree","x":2688,"y":2752,"width":48,"height":64,"properties":[{"name":"variant","type":"int","value":1}]},{"id":100715,"name":"tree_668","type":"tree","x":2816,"y":2752,"width":48,"height":64,"properties":[{"name":"variant","type":"int","value":2}]},{"id":100716,"name":"tree_669","type":"tree","x":3168,"y":2752,"width":48,"height":64,"properties":[{"name":"variant","type":"int","value":0}]},{"id":100717,"name":"tree_670","type":"tree","x":3840,"y":2752,"width":48,"height":64,"properties":[{"name":"variant","type":"int","value":1}]},{"id":100718,"name":"tree_671","type":"tree","x":3872,"y":2752,"width":48,"height":64,"properties":[{"name":"variant","type":"int","value":2}]},{"id":100719,"name":"tree_672","type":"tree","x":3904,"y":2752,"width":48,"height":64,"properties":[{"name":"variant","type":"int","value":0}]},{"id":100720,"name":"tree_673","type":"tree","x":4032,"y":2752,"width":48,"height":64,"properties":[{"name":"variant","type":"int","value":1}]},{"id":100721,"name":"tree_674","type":"tree","x":4064,"y":2752,"width":48,"height":64,"properties":[{"name":"variant","type":"int","value":2}]},{"id":100722,"name":"tree_675","type":"tree","x":4320,"y":2752,"width":48,"height":64,"properties":[{"name":"variant","type":"int","value":0}]},{"id":100723,"name":"tree_676","type":"tree","x":4352,"y":2752,"width":48,"height":64,"properties":[{"name":"variant","type":"int","value":1}]},{"id":100724,"name":"tree_677","type":"tree","x":1888,"y":2784,"width":48,"height":64,"properties":[{"name":"variant","type":"int","value":2}]},{"id":100725,"name":"tree_678","type":"tree","x":1952,"y":2784,"width":48,"height":64,"properties":[{"name":"variant","type":"int","value":0}]},{"id":100726,"name":"tree_679","type":"tree","x":2048,"y":2784,"width":48,"height":64,"properties":[{"name":"variant","type":"int","value":1}]},{"id":100727,"name":"tree_680","type":"tree","x":2080,"y":2784,"width":48,"height":64,"properties":[{"name":"variant","type":"int","value":2}]},{"id":100728,"name":"tree_681","type":"tree","x":2272,"y":2784,"width":48,"height":64,"properties":[{"name":"variant","type":"int","value":0}]},{"id":100729,"name":"tree_682","type":"tree","x":2656,"y":2784,"width":48,"height":64,"properties":[{"name":"variant","type":"int","value":1}]},{"id":100730,"name":"tree_683","type":"tree","x":2688,"y":2784,"width":48,"height":64,"properties":[{"name":"variant","type":"int","value":2}]},{"id":100731,"name":"tree_684","type":"tree","x":2752,"y":2784,"width":48,"height":64,"properties":[{"name":"variant","type":"int","value":0}]},{"id":100732,"name":"tree_685","type":"tree","x":2784,"y":2784,"width":48,"height":64,"properties":[{"name":"variant","type":"int","value":1}]},{"id":100733,"name":"tree_686","type":"tree","x":2816,"y":2784,"width":48,"height":64,"properties":[{"name":"variant","type":"int","value":2}]},{"id":100734,"name":"tree_687","type":"tree","x":3136,"y":2784,"width":48,"height":64,"properties":[{"name":"variant","type":"int","value":0}]},{"id":100735,"name":"tree_688","type":"tree","x":3296,"y":2784,"width":48,"height":64,"properties":[{"name":"variant","type":"int","value":1}]},{"id":100736,"name":"tree_689","type":"tree","x":3840,"y":2784,"width":48,"height":64,"properties":[{"name":"variant","type":"int","value":2}]},{"id":100737,"name":"tree_690","type":"tree","x":3872,"y":2784,"width":48,"height":64,"properties":[{"name":"variant","type":"int","value":0}]},{"id":100738,"name":"tree_691","type":"tree","x":3904,"y":2784,"width":48,"height":64,"properties":[{"name":"variant","type":"int","value":1}]},{"id":100739,"name":"tree_692","type":"tree","x":3936,"y":2784,"width":48,"height":64,"properties":[{"name":"variant","type":"int","value":2}]},{"id":100740,"name":"tree_693","type":"tree","x":3968,"y":2784,"width":48,"height":64,"properties":[{"name":"variant","type":"int","value":0}]},{"id":100741,"name":"tree_694","type":"tree","x":4000,"y":2784,"width":48,"height":64,"properties":[{"name":"variant","type":"int","value":1}]},{"id":100742,"name":"tree_695","type":"tree","x":4128,"y":2784,"width":48,"height":64,"properties":[{"name":"variant","type":"int","value":2}]},{"id":100743,"name":"tree_696","type":"tree","x":1984,"y":2816,"width":48,"height":64,"properties":[{"name":"variant","type":"int","value":0}]},{"id":100744,"name":"tree_697","type":"tree","x":2080,"y":2816,"width":48,"height":64,"properties":[{"name":"variant","type":"int","value":1}]},{"id":100745,"name":"tree_698","type":"tree","x":2112,"y":2816,"width":48,"height":64,"properties":[{"name":"variant","type":"int","value":2}]},{"id":100746,"name":"tree_699","type":"tree","x":2144,"y":2816,"width":48,"height":64,"properties":[{"name":"variant","type":"int","value":0}]},{"id":100747,"name":"tree_700","type":"tree","x":2304,"y":2816,"width":48,"height":64,"properties":[{"name":"variant","type":"int","value":1}]},{"id":100748,"name":"tree_701","type":"tree","x":2656,"y":2816,"width":48,"height":64,"properties":[{"name":"variant","type":"int","value":2}]},{"id":100749,"name":"tree_702","type":"tree","x":2688,"y":2816,"width":48,"height":64,"properties":[{"name":"variant","type":"int","value":0}]},{"id":100750,"name":"tree_703","type":"tree","x":2720,"y":2816,"width":48,"height":64,"properties":[{"name":"variant","type":"int","value":1}]},{"id":100751,"name":"tree_704","type":"tree","x":2848,"y":2816,"width":48,"height":64,"properties":[{"name":"variant","type":"int","value":2}]},{"id":100752,"name":"tree_705","type":"tree","x":3072,"y":2816,"width":48,"height":64,"properties":[{"name":"variant","type":"int","value":0}]},{"id":100753,"name":"tree_706","type":"tree","x":3104,"y":2816,"width":48,"height":64,"properties":[{"name":"variant","type":"int","value":1}]},{"id":100754,"name":"tree_707","type":"tree","x":3136,"y":2816,"width":48,"height":64,"properties":[{"name":"variant","type":"int","value":2}]},{"id":100755,"name":"tree_708","type":"tree","x":3296,"y":2816,"width":48,"height":64,"properties":[{"name":"variant","type":"int","value":0}]},{"id":100756,"name":"tree_709","type":"tree","x":3872,"y":2816,"width":48,"height":64,"properties":[{"name":"variant","type":"int","value":1}]},{"id":100757,"name":"tree_710","type":"tree","x":4032,"y":2816,"width":48,"height":64,"properties":[{"name":"variant","type":"int","value":2}]},{"id":100758,"name":"tree_711","type":"tree","x":4064,"y":2816,"width":48,"height":64,"properties":[{"name":"variant","type":"int","value":0}]},{"id":100759,"name":"tree_712","type":"tree","x":4096,"y":2816,"width":48,"height":64,"properties":[{"name":"variant","type":"int","value":1}]},{"id":100760,"name":"tree_713","type":"tree","x":4128,"y":2816,"width":48,"height":64,"properties":[{"name":"variant","type":"int","value":2}]},{"id":100761,"name":"tree_714","type":"tree","x":4192,"y":2816,"width":48,"height":64,"properties":[{"name":"variant","type":"int","value":0}]},{"id":100762,"name":"tree_715","type":"tree","x":1984,"y":2848,"width":48,"height":64,"properties":[{"name":"variant","type":"int","value":1}]},{"id":100763,"name":"tree_716","type":"tree","x":2080,"y":2848,"width":48,"height":64,"properties":[{"name":"variant","type":"int","value":2}]},{"id":100764,"name":"tree_717","type":"tree","x":2144,"y":2848,"width":48,"height":64,"properties":[{"name":"variant","type":"int","value":0}]},{"id":100765,"name":"tree_718","type":"tree","x":2272,"y":2848,"width":48,"height":64,"properties":[{"name":"variant","type":"int","value":1}]},{"id":100766,"name":"tree_719","type":"tree","x":2400,"y":2848,"width":48,"height":64,"properties":[{"name":"variant","type":"int","value":2}]},{"id":100767,"name":"tree_720","type":"tree","x":2560,"y":2848,"width":48,"height":64,"properties":[{"name":"variant","type":"int","value":0}]},{"id":100768,"name":"tree_721","type":"tree","x":2752,"y":2848,"width":48,"height":64,"properties":[{"name":"variant","type":"int","value":1}]},{"id":100769,"name":"tree_722","type":"tree","x":2784,"y":2848,"width":48,"height":64,"properties":[{"name":"variant","type":"int","value":2}]},{"id":100770,"name":"tree_723","type":"tree","x":2848,"y":2848,"width":48,"height":64,"properties":[{"name":"variant","type":"int","value":0}]},{"id":100771,"name":"tree_724","type":"tree","x":2912,"y":2848,"width":48,"height":64,"properties":[{"name":"variant","type":"int","value":1}]},{"id":100772,"name":"tree_725","type":"tree","x":2944,"y":2848,"width":48,"height":64,"properties":[{"name":"variant","type":"int","value":2}]},{"id":100773,"name":"tree_726","type":"tree","x":3104,"y":2848,"width":48,"height":64,"properties":[{"name":"variant","type":"int","value":0}]},{"id":100774,"name":"tree_727","type":"tree","x":3168,"y":2848,"width":48,"height":64,"properties":[{"name":"variant","type":"int","value":1}]},{"id":100775,"name":"tree_728","type":"tree","x":3232,"y":2848,"width":48,"height":64,"properties":[{"name":"variant","type":"int","value":2}]},{"id":100776,"name":"tree_729","type":"tree","x":3264,"y":2848,"width":48,"height":64,"properties":[{"name":"variant","type":"int","value":0}]},{"id":100777,"name":"tree_730","type":"tree","x":3328,"y":2848,"width":48,"height":64,"properties":[{"name":"variant","type":"int","value":1}]},{"id":100778,"name":"tree_731","type":"tree","x":3840,"y":2848,"width":48,"height":64,"properties":[{"name":"variant","type":"int","value":2}]},{"id":100779,"name":"tree_732","type":"tree","x":3872,"y":2848,"width":48,"height":64,"properties":[{"name":"variant","type":"int","value":0}]},{"id":100780,"name":"tree_733","type":"tree","x":3904,"y":2848,"width":48,"height":64,"properties":[{"name":"variant","type":"int","value":1}]},{"id":100781,"name":"tree_734","type":"tree","x":4000,"y":2848,"width":48,"height":64,"properties":[{"name":"variant","type":"int","value":2}]},{"id":100782,"name":"tree_735","type":"tree","x":4032,"y":2848,"width":48,"height":64,"properties":[{"name":"variant","type":"int","value":0}]},{"id":100783,"name":"tree_736","type":"tree","x":4064,"y":2848,"width":48,"height":64,"properties":[{"name":"variant","type":"int","value":1}]},{"id":100784,"name":"tree_737","type":"tree","x":4128,"y":2848,"width":48,"height":64,"properties":[{"name":"variant","type":"int","value":2}]},{"id":100785,"name":"tree_738","type":"tree","x":4928,"y":2848,"width":48,"height":64,"properties":[{"name":"variant","type":"int","value":0}]},{"id":100786,"name":"tree_739","type":"tree","x":4960,"y":2848,"width":48,"height":64,"properties":[{"name":"variant","type":"int","value":1}]},{"id":100787,"name":"tree_740","type":"tree","x":5024,"y":2848,"width":48,"height":64,"properties":[{"name":"variant","type":"int","value":2}]},{"id":100788,"name":"tree_741","type":"tree","x":1856,"y":2880,"width":48,"height":64,"properties":[{"name":"variant","type":"int","value":0}]},{"id":100789,"name":"tree_742","type":"tree","x":1984,"y":2880,"width":48,"height":64,"properties":[{"name":"variant","type":"int","value":1}]},{"id":100790,"name":"tree_743","type":"tree","x":2016,"y":2880,"width":48,"height":64,"properties":[{"name":"variant","type":"int","value":2}]},{"id":100791,"name":"tree_744","type":"tree","x":2048,"y":2880,"width":48,"height":64,"properties":[{"name":"variant","type":"int","value":0}]},{"id":100792,"name":"tree_745","type":"tree","x":2368,"y":2880,"width":48,"height":64,"properties":[{"name":"variant","type":"int","value":1}]},{"id":100793,"name":"tree_746","type":"tree","x":2848,"y":2880,"width":48,"height":64,"properties":[{"name":"variant","type":"int","value":2}]},{"id":100794,"name":"tree_747","type":"tree","x":2944,"y":2880,"width":48,"height":64,"properties":[{"name":"variant","type":"int","value":0}]},{"id":100795,"name":"tree_748","type":"tree","x":3104,"y":2880,"width":48,"height":64,"properties":[{"name":"variant","type":"int","value":1}]},{"id":100796,"name":"tree_749","type":"tree","x":3168,"y":2880,"width":48,"height":64,"properties":[{"name":"variant","type":"int","value":2}]},{"id":100797,"name":"tree_750","type":"tree","x":3232,"y":2880,"width":48,"height":64,"properties":[{"name":"variant","type":"int","value":0}]},{"id":100798,"name":"tree_751","type":"tree","x":3296,"y":2880,"width":48,"height":64,"properties":[{"name":"variant","type":"int","value":1}]},{"id":100799,"name":"tree_752","type":"tree","x":3328,"y":2880,"width":48,"height":64,"properties":[{"name":"variant","type":"int","value":2}]},{"id":100800,"name":"tree_753","type":"tree","x":3424,"y":2880,"width":48,"height":64,"properties":[{"name":"variant","type":"int","value":0}]},{"id":100801,"name":"tree_754","type":"tree","x":3840,"y":2880,"width":48,"height":64,"properties":[{"name":"variant","type":"int","value":1}]},{"id":100802,"name":"tree_755","type":"tree","x":3904,"y":2880,"width":48,"height":64,"properties":[{"name":"variant","type":"int","value":2}]},{"id":100803,"name":"tree_756","type":"tree","x":4032,"y":2880,"width":48,"height":64,"properties":[{"name":"variant","type":"int","value":0}]},{"id":100804,"name":"tree_757","type":"tree","x":4064,"y":2880,"width":48,"height":64,"properties":[{"name":"variant","type":"int","value":1}]},{"id":100805,"name":"tree_758","type":"tree","x":4128,"y":2880,"width":48,"height":64,"properties":[{"name":"variant","type":"int","value":2}]},{"id":100806,"name":"tree_759","type":"tree","x":4192,"y":2880,"width":48,"height":64,"properties":[{"name":"variant","type":"int","value":0}]},{"id":100807,"name":"tree_760","type":"tree","x":4800,"y":2880,"width":48,"height":64,"properties":[{"name":"variant","type":"int","value":1}]},{"id":100808,"name":"tree_761","type":"tree","x":5216,"y":2880,"width":48,"height":64,"properties":[{"name":"variant","type":"int","value":2}]},{"id":100809,"name":"tree_762","type":"tree","x":5632,"y":2880,"width":48,"height":64,"properties":[{"name":"variant","type":"int","value":0}]},{"id":100810,"name":"tree_763","type":"tree","x":5728,"y":2880,"width":48,"height":64,"properties":[{"name":"variant","type":"int","value":1}]},{"id":100811,"name":"tree_764","type":"tree","x":1888,"y":2912,"width":48,"height":64,"properties":[{"name":"variant","type":"int","value":2}]},{"id":100812,"name":"tree_765","type":"tree","x":1952,"y":2912,"width":48,"height":64,"properties":[{"name":"variant","type":"int","value":0}]},{"id":100813,"name":"tree_766","type":"tree","x":2048,"y":2912,"width":48,"height":64,"properties":[{"name":"variant","type":"int","value":1}]},{"id":100814,"name":"tree_767","type":"tree","x":2112,"y":2912,"width":48,"height":64,"properties":[{"name":"variant","type":"int","value":2}]},{"id":100815,"name":"tree_768","type":"tree","x":2176,"y":2912,"width":48,"height":64,"properties":[{"name":"variant","type":"int","value":0}]},{"id":100816,"name":"tree_769","type":"tree","x":2528,"y":2912,"width":48,"height":64,"properties":[{"name":"variant","type":"int","value":1}]},{"id":100817,"name":"tree_770","type":"tree","x":2816,"y":2912,"width":48,"height":64,"properties":[{"name":"variant","type":"int","value":2}]},{"id":100818,"name":"tree_771","type":"tree","x":2848,"y":2912,"width":48,"height":64,"properties":[{"name":"variant","type":"int","value":0}]},{"id":100819,"name":"tree_772","type":"tree","x":2912,"y":2912,"width":48,"height":64,"properties":[{"name":"variant","type":"int","value":1}]},{"id":100820,"name":"tree_773","type":"tree","x":3008,"y":2912,"width":48,"height":64,"properties":[{"name":"variant","type":"int","value":2}]},{"id":100821,"name":"tree_774","type":"tree","x":3296,"y":2912,"width":48,"height":64,"properties":[{"name":"variant","type":"int","value":0}]},{"id":100822,"name":"tree_775","type":"tree","x":3392,"y":2912,"width":48,"height":64,"properties":[{"name":"variant","type":"int","value":1}]},{"id":100823,"name":"tree_776","type":"tree","x":3968,"y":2912,"width":48,"height":64,"properties":[{"name":"variant","type":"int","value":2}]},{"id":100824,"name":"tree_777","type":"tree","x":4000,"y":2912,"width":48,"height":64,"properties":[{"name":"variant","type":"int","value":0}]},{"id":100825,"name":"tree_778","type":"tree","x":4032,"y":2912,"width":48,"height":64,"properties":[{"name":"variant","type":"int","value":1}]},{"id":100826,"name":"tree_779","type":"tree","x":4064,"y":2912,"width":48,"height":64,"properties":[{"name":"variant","type":"int","value":2}]},{"id":100827,"name":"tree_780","type":"tree","x":4096,"y":2912,"width":48,"height":64,"properties":[{"name":"variant","type":"int","value":0}]},{"id":100828,"name":"tree_781","type":"tree","x":4192,"y":2912,"width":48,"height":64,"properties":[{"name":"variant","type":"int","value":1}]},{"id":100829,"name":"tree_782","type":"tree","x":4256,"y":2912,"width":48,"height":64,"properties":[{"name":"variant","type":"int","value":2}]},{"id":100830,"name":"tree_783","type":"tree","x":4960,"y":2912,"width":48,"height":64,"properties":[{"name":"variant","type":"int","value":0}]},{"id":100831,"name":"tree_784","type":"tree","x":5696,"y":2912,"width":48,"height":64,"properties":[{"name":"variant","type":"int","value":1}]},{"id":100832,"name":"tree_785","type":"tree","x":5824,"y":2912,"width":48,"height":64,"properties":[{"name":"variant","type":"int","value":2}]},{"id":100833,"name":"tree_786","type":"tree","x":5920,"y":2912,"width":48,"height":64,"properties":[{"name":"variant","type":"int","value":0}]},{"id":100834,"name":"tree_787","type":"tree","x":6496,"y":2912,"width":48,"height":64,"properties":[{"name":"variant","type":"int","value":1}]},{"id":100835,"name":"tree_788","type":"tree","x":1888,"y":2944,"width":48,"height":64,"properties":[{"name":"variant","type":"int","value":2}]},{"id":100836,"name":"tree_789","type":"tree","x":1920,"y":2944,"width":48,"height":64,"properties":[{"name":"variant","type":"int","value":0}]},{"id":100837,"name":"tree_790","type":"tree","x":2080,"y":2944,"width":48,"height":64,"properties":[{"name":"variant","type":"int","value":1}]},{"id":100838,"name":"tree_791","type":"tree","x":2112,"y":2944,"width":48,"height":64,"properties":[{"name":"variant","type":"int","value":2}]},{"id":100839,"name":"tree_792","type":"tree","x":2144,"y":2944,"width":48,"height":64,"properties":[{"name":"variant","type":"int","value":0}]},{"id":100840,"name":"tree_793","type":"tree","x":2848,"y":2944,"width":48,"height":64,"properties":[{"name":"variant","type":"int","value":1}]},{"id":100841,"name":"tree_794","type":"tree","x":2880,"y":2944,"width":48,"height":64,"properties":[{"name":"variant","type":"int","value":2}]},{"id":100842,"name":"tree_795","type":"tree","x":2944,"y":2944,"width":48,"height":64,"properties":[{"name":"variant","type":"int","value":0}]},{"id":100843,"name":"tree_796","type":"tree","x":3072,"y":2944,"width":48,"height":64,"properties":[{"name":"variant","type":"int","value":1}]},{"id":100844,"name":"tree_797","type":"tree","x":3104,"y":2944,"width":48,"height":64,"properties":[{"name":"variant","type":"int","value":2}]},{"id":100845,"name":"tree_798","type":"tree","x":3264,"y":2944,"width":48,"height":64,"properties":[{"name":"variant","type":"int","value":0}]},{"id":100846,"name":"tree_799","type":"tree","x":3552,"y":2944,"width":48,"height":64,"properties":[{"name":"variant","type":"int","value":1}]},{"id":100847,"name":"tree_800","type":"tree","x":3584,"y":2944,"width":48,"height":64,"properties":[{"name":"variant","type":"int","value":2}]},{"id":100848,"name":"tree_801","type":"tree","x":4160,"y":2944,"width":48,"height":64,"properties":[{"name":"variant","type":"int","value":0}]},{"id":100849,"name":"tree_802","type":"tree","x":4192,"y":2944,"width":48,"height":64,"properties":[{"name":"variant","type":"int","value":1}]},{"id":100850,"name":"tree_803","type":"tree","x":4224,"y":2944,"width":48,"height":64,"properties":[{"name":"variant","type":"int","value":2}]},{"id":100851,"name":"tree_804","type":"tree","x":5280,"y":2944,"width":48,"height":64,"properties":[{"name":"variant","type":"int","value":0}]},{"id":100852,"name":"tree_805","type":"tree","x":5472,"y":2944,"width":48,"height":64,"properties":[{"name":"variant","type":"int","value":1}]},{"id":100853,"name":"tree_806","type":"tree","x":5728,"y":2944,"width":48,"height":64,"properties":[{"name":"variant","type":"int","value":2}]},{"id":100854,"name":"tree_807","type":"tree","x":5760,"y":2944,"width":48,"height":64,"properties":[{"name":"variant","type":"int","value":0}]},{"id":100855,"name":"tree_808","type":"tree","x":1952,"y":2976,"width":48,"height":64,"properties":[{"name":"variant","type":"int","value":1}]},{"id":100856,"name":"tree_809","type":"tree","x":2080,"y":2976,"width":48,"height":64,"properties":[{"name":"variant","type":"int","value":2}]},{"id":100857,"name":"tree_810","type":"tree","x":2112,"y":2976,"width":48,"height":64,"properties":[{"name":"variant","type":"int","value":0}]},{"id":100858,"name":"tree_811","type":"tree","x":2176,"y":2976,"width":48,"height":64,"properties":[{"name":"variant","type":"int","value":1}]},{"id":100859,"name":"tree_812","type":"tree","x":2368,"y":2976,"width":48,"height":64,"properties":[{"name":"variant","type":"int","value":2}]},{"id":100860,"name":"tree_813","type":"tree","x":2944,"y":2976,"width":48,"height":64,"properties":[{"name":"variant","type":"int","value":0}]},{"id":100861,"name":"tree_814","type":"tree","x":3072,"y":2976,"width":48,"height":64,"properties":[{"name":"variant","type":"int","value":1}]},{"id":100862,"name":"tree_815","type":"tree","x":3136,"y":2976,"width":48,"height":64,"properties":[{"name":"variant","type":"int","value":2}]},{"id":100863,"name":"tree_816","type":"tree","x":3168,"y":2976,"width":48,"height":64,"properties":[{"name":"variant","type":"int","value":0}]},{"id":100864,"name":"tree_817","type":"tree","x":3232,"y":2976,"width":48,"height":64,"properties":[{"name":"variant","type":"int","value":1}]},{"id":100865,"name":"tree_818","type":"tree","x":3328,"y":2976,"width":48,"height":64,"properties":[{"name":"variant","type":"int","value":2}]},{"id":100866,"name":"tree_819","type":"tree","x":3360,"y":2976,"width":48,"height":64,"properties":[{"name":"variant","type":"int","value":0}]},{"id":100867,"name":"tree_820","type":"tree","x":3424,"y":2976,"width":48,"height":64,"properties":[{"name":"variant","type":"int","value":1}]},{"id":100868,"name":"tree_821","type":"tree","x":3456,"y":2976,"width":48,"height":64,"properties":[{"name":"variant","type":"int","value":2}]},{"id":100869,"name":"tree_822","type":"tree","x":3488,"y":2976,"width":48,"height":64,"properties":[{"name":"variant","type":"int","value":0}]},{"id":100870,"name":"tree_823","type":"tree","x":3520,"y":2976,"width":48,"height":64,"properties":[{"name":"variant","type":"int","value":1}]},{"id":100871,"name":"tree_824","type":"tree","x":3552,"y":2976,"width":48,"height":64,"properties":[{"name":"variant","type":"int","value":2}]},{"id":100872,"name":"tree_825","type":"tree","x":3936,"y":2976,"width":48,"height":64,"properties":[{"name":"variant","type":"int","value":0}]},{"id":100873,"name":"tree_826","type":"tree","x":4192,"y":2976,"width":48,"height":64,"properties":[{"name":"variant","type":"int","value":1}]},{"id":100874,"name":"tree_827","type":"tree","x":4832,"y":2976,"width":48,"height":64,"properties":[{"name":"variant","type":"int","value":2}]},{"id":100875,"name":"tree_828","type":"tree","x":4896,"y":2976,"width":48,"height":64,"properties":[{"name":"variant","type":"int","value":0}]},{"id":100876,"name":"tree_829","type":"tree","x":5536,"y":2976,"width":48,"height":64,"properties":[{"name":"variant","type":"int","value":1}]},{"id":100877,"name":"tree_830","type":"tree","x":5664,"y":2976,"width":48,"height":64,"properties":[{"name":"variant","type":"int","value":2}]},{"id":100878,"name":"tree_831","type":"tree","x":5824,"y":2976,"width":48,"height":64,"properties":[{"name":"variant","type":"int","value":0}]},{"id":100879,"name":"tree_832","type":"tree","x":6048,"y":2976,"width":48,"height":64,"properties":[{"name":"variant","type":"int","value":1}]},{"id":100880,"name":"tree_833","type":"tree","x":6176,"y":2976,"width":48,"height":64,"properties":[{"name":"variant","type":"int","value":2}]},{"id":100881,"name":"tree_834","type":"tree","x":6208,"y":2976,"width":48,"height":64,"properties":[{"name":"variant","type":"int","value":0}]},{"id":100882,"name":"tree_835","type":"tree","x":6304,"y":2976,"width":48,"height":64,"properties":[{"name":"variant","type":"int","value":1}]},{"id":100883,"name":"tree_836","type":"tree","x":6496,"y":2976,"width":48,"height":64,"properties":[{"name":"variant","type":"int","value":2}]},{"id":100884,"name":"tree_837","type":"tree","x":1888,"y":3008,"width":48,"height":64,"properties":[{"name":"variant","type":"int","value":0}]},{"id":100885,"name":"tree_838","type":"tree","x":1920,"y":3008,"width":48,"height":64,"properties":[{"name":"variant","type":"int","value":1}]},{"id":100886,"name":"tree_839","type":"tree","x":1952,"y":3008,"width":48,"height":64,"properties":[{"name":"variant","type":"int","value":2}]},{"id":100887,"name":"tree_840","type":"tree","x":2112,"y":3008,"width":48,"height":64,"properties":[{"name":"variant","type":"int","value":0}]},{"id":100888,"name":"tree_841","type":"tree","x":2144,"y":3008,"width":48,"height":64,"properties":[{"name":"variant","type":"int","value":1}]},{"id":100889,"name":"tree_842","type":"tree","x":2176,"y":3008,"width":48,"height":64,"properties":[{"name":"variant","type":"int","value":2}]},{"id":100890,"name":"tree_843","type":"tree","x":2240,"y":3008,"width":48,"height":64,"properties":[{"name":"variant","type":"int","value":0}]},{"id":100891,"name":"tree_844","type":"tree","x":2272,"y":3008,"width":48,"height":64,"properties":[{"name":"variant","type":"int","value":1}]},{"id":100892,"name":"tree_845","type":"tree","x":2336,"y":3008,"width":48,"height":64,"properties":[{"name":"variant","type":"int","value":2}]},{"id":100893,"name":"tree_846","type":"tree","x":3040,"y":3008,"width":48,"height":64,"properties":[{"name":"variant","type":"int","value":0}]},{"id":100894,"name":"tree_847","type":"tree","x":3136,"y":3008,"width":48,"height":64,"properties":[{"name":"variant","type":"int","value":1}]},{"id":100895,"name":"tree_848","type":"tree","x":3200,"y":3008,"width":48,"height":64,"properties":[{"name":"variant","type":"int","value":2}]},{"id":100896,"name":"tree_849","type":"tree","x":3232,"y":3008,"width":48,"height":64,"properties":[{"name":"variant","type":"int","value":0}]},{"id":100897,"name":"tree_850","type":"tree","x":3296,"y":3008,"width":48,"height":64,"properties":[{"name":"variant","type":"int","value":1}]},{"id":100898,"name":"tree_851","type":"tree","x":3328,"y":3008,"width":48,"height":64,"properties":[{"name":"variant","type":"int","value":2}]},{"id":100899,"name":"tree_852","type":"tree","x":3424,"y":3008,"width":48,"height":64,"properties":[{"name":"variant","type":"int","value":0}]},{"id":100900,"name":"tree_853","type":"tree","x":3584,"y":3008,"width":48,"height":64,"properties":[{"name":"variant","type":"int","value":1}]},{"id":100901,"name":"tree_854","type":"tree","x":3648,"y":3008,"width":48,"height":64,"properties":[{"name":"variant","type":"int","value":2}]},{"id":100902,"name":"tree_855","type":"tree","x":3936,"y":3008,"width":48,"height":64,"properties":[{"name":"variant","type":"int","value":0}]},{"id":100903,"name":"tree_856","type":"tree","x":3968,"y":3008,"width":48,"height":64,"properties":[{"name":"variant","type":"int","value":1}]},{"id":100904,"name":"tree_857","type":"tree","x":4128,"y":3008,"width":48,"height":64,"properties":[{"name":"variant","type":"int","value":2}]},{"id":100905,"name":"tree_858","type":"tree","x":4192,"y":3008,"width":48,"height":64,"properties":[{"name":"variant","type":"int","value":0}]},{"id":100906,"name":"tree_859","type":"tree","x":4288,"y":3008,"width":48,"height":64,"properties":[{"name":"variant","type":"int","value":1}]},{"id":100907,"name":"tree_860","type":"tree","x":4480,"y":3008,"width":48,"height":64,"properties":[{"name":"variant","type":"int","value":2}]},{"id":100908,"name":"tree_861","type":"tree","x":4928,"y":3008,"width":48,"height":64,"properties":[{"name":"variant","type":"int","value":0}]},{"id":100909,"name":"tree_862","type":"tree","x":4992,"y":3008,"width":48,"height":64,"properties":[{"name":"variant","type":"int","value":1}]},{"id":100910,"name":"tree_863","type":"tree","x":5056,"y":3008,"width":48,"height":64,"properties":[{"name":"variant","type":"int","value":2}]},{"id":100911,"name":"tree_864","type":"tree","x":5216,"y":3008,"width":48,"height":64,"properties":[{"name":"variant","type":"int","value":0}]},{"id":100912,"name":"tree_865","type":"tree","x":5248,"y":3008,"width":48,"height":64,"properties":[{"name":"variant","type":"int","value":1}]},{"id":100913,"name":"tree_866","type":"tree","x":5280,"y":3008,"width":48,"height":64,"properties":[{"name":"variant","type":"int","value":2}]},{"id":100914,"name":"tree_867","type":"tree","x":5312,"y":3008,"width":48,"height":64,"properties":[{"name":"variant","type":"int","value":0}]},{"id":100915,"name":"tree_868","type":"tree","x":5344,"y":3008,"width":48,"height":64,"properties":[{"name":"variant","type":"int","value":1}]},{"id":100916,"name":"tree_869","type":"tree","x":5792,"y":3008,"width":48,"height":64,"properties":[{"name":"variant","type":"int","value":2}]},{"id":100917,"name":"tree_870","type":"tree","x":6016,"y":3008,"width":48,"height":64,"properties":[{"name":"variant","type":"int","value":0}]},{"id":100918,"name":"tree_871","type":"tree","x":6336,"y":3008,"width":48,"height":64,"properties":[{"name":"variant","type":"int","value":1}]},{"id":100919,"name":"tree_872","type":"tree","x":6432,"y":3008,"width":48,"height":64,"properties":[{"name":"variant","type":"int","value":2}]},{"id":100920,"name":"tree_873","type":"tree","x":1792,"y":3040,"width":48,"height":64,"properties":[{"name":"variant","type":"int","value":0}]},{"id":100921,"name":"tree_874","type":"tree","x":1824,"y":3040,"width":48,"height":64,"properties":[{"name":"variant","type":"int","value":1}]},{"id":100922,"name":"tree_875","type":"tree","x":1856,"y":3040,"width":48,"height":64,"properties":[{"name":"variant","type":"int","value":2}]},{"id":100923,"name":"tree_876","type":"tree","x":1952,"y":3040,"width":48,"height":64,"properties":[{"name":"variant","type":"int","value":0}]},{"id":100924,"name":"tree_877","type":"tree","x":2016,"y":3040,"width":48,"height":64,"properties":[{"name":"variant","type":"int","value":1}]},{"id":100925,"name":"tree_878","type":"tree","x":2048,"y":3040,"width":48,"height":64,"properties":[{"name":"variant","type":"int","value":2}]},{"id":100926,"name":"tree_879","type":"tree","x":2080,"y":3040,"width":48,"height":64,"properties":[{"name":"variant","type":"int","value":0}]},{"id":100927,"name":"tree_880","type":"tree","x":2144,"y":3040,"width":48,"height":64,"properties":[{"name":"variant","type":"int","value":1}]},{"id":100928,"name":"tree_881","type":"tree","x":2176,"y":3040,"width":48,"height":64,"properties":[{"name":"variant","type":"int","value":2}]},{"id":100929,"name":"tree_882","type":"tree","x":2208,"y":3040,"width":48,"height":64,"properties":[{"name":"variant","type":"int","value":0}]},{"id":100930,"name":"tree_883","type":"tree","x":2240,"y":3040,"width":48,"height":64,"properties":[{"name":"variant","type":"int","value":1}]},{"id":100931,"name":"tree_884","type":"tree","x":2976,"y":3040,"width":48,"height":64,"properties":[{"name":"variant","type":"int","value":2}]},{"id":100932,"name":"tree_885","type":"tree","x":3008,"y":3040,"width":48,"height":64,"properties":[{"name":"variant","type":"int","value":0}]},{"id":100933,"name":"tree_886","type":"tree","x":3264,"y":3040,"width":48,"height":64,"properties":[{"name":"variant","type":"int","value":1}]},{"id":100934,"name":"tree_887","type":"tree","x":3456,"y":3040,"width":48,"height":64,"properties":[{"name":"variant","type":"int","value":2}]},{"id":100935,"name":"tree_888","type":"tree","x":3488,"y":3040,"width":48,"height":64,"properties":[{"name":"variant","type":"int","value":0}]},{"id":100936,"name":"tree_889","type":"tree","x":3520,"y":3040,"width":48,"height":64,"properties":[{"name":"variant","type":"int","value":1}]},{"id":100937,"name":"tree_890","type":"tree","x":3648,"y":3040,"width":48,"height":64,"properties":[{"name":"variant","type":"int","value":2}]},{"id":100938,"name":"tree_891","type":"tree","x":3872,"y":3040,"width":48,"height":64,"properties":[{"name":"variant","type":"int","value":0}]},{"id":100939,"name":"tree_892","type":"tree","x":4128,"y":3040,"width":48,"height":64,"properties":[{"name":"variant","type":"int","value":1}]},{"id":100940,"name":"tree_893","type":"tree","x":4192,"y":3040,"width":48,"height":64,"properties":[{"name":"variant","type":"int","value":2}]},{"id":100941,"name":"tree_894","type":"tree","x":4224,"y":3040,"width":48,"height":64,"properties":[{"name":"variant","type":"int","value":0}]},{"id":100942,"name":"tree_895","type":"tree","x":4256,"y":3040,"width":48,"height":64,"properties":[{"name":"variant","type":"int","value":1}]},{"id":100943,"name":"tree_896","type":"tree","x":4288,"y":3040,"width":48,"height":64,"properties":[{"name":"variant","type":"int","value":2}]},{"id":100944,"name":"tree_897","type":"tree","x":4512,"y":3040,"width":48,"height":64,"properties":[{"name":"variant","type":"int","value":0}]},{"id":100945,"name":"tree_898","type":"tree","x":5088,"y":3040,"width":48,"height":64,"properties":[{"name":"variant","type":"int","value":1}]},{"id":100946,"name":"tree_899","type":"tree","x":5120,"y":3040,"width":48,"height":64,"properties":[{"name":"variant","type":"int","value":2}]},{"id":100947,"name":"tree_900","type":"tree","x":5152,"y":3040,"width":48,"height":64,"properties":[{"name":"variant","type":"int","value":0}]},{"id":100948,"name":"tree_901","type":"tree","x":5216,"y":3040,"width":48,"height":64,"properties":[{"name":"variant","type":"int","value":1}]},{"id":100949,"name":"tree_902","type":"tree","x":5312,"y":3040,"width":48,"height":64,"properties":[{"name":"variant","type":"int","value":2}]},{"id":100950,"name":"tree_903","type":"tree","x":6112,"y":3040,"width":48,"height":64,"properties":[{"name":"variant","type":"int","value":0}]},{"id":100951,"name":"tree_904","type":"tree","x":6272,"y":3040,"width":48,"height":64,"properties":[{"name":"variant","type":"int","value":1}]},{"id":100952,"name":"tree_905","type":"tree","x":6336,"y":3040,"width":48,"height":64,"properties":[{"name":"variant","type":"int","value":2}]},{"id":100953,"name":"tree_906","type":"tree","x":6400,"y":3040,"width":48,"height":64,"properties":[{"name":"variant","type":"int","value":0}]},{"id":100954,"name":"tree_907","type":"tree","x":1920,"y":3072,"width":48,"height":64,"properties":[{"name":"variant","type":"int","value":1}]},{"id":100955,"name":"tree_908","type":"tree","x":1984,"y":3072,"width":48,"height":64,"properties":[{"name":"variant","type":"int","value":2}]},{"id":100956,"name":"tree_909","type":"tree","x":2048,"y":3072,"width":48,"height":64,"properties":[{"name":"variant","type":"int","value":0}]},{"id":100957,"name":"tree_910","type":"tree","x":2112,"y":3072,"width":48,"height":64,"properties":[{"name":"variant","type":"int","value":1}]},{"id":100958,"name":"tree_911","type":"tree","x":2176,"y":3072,"width":48,"height":64,"properties":[{"name":"variant","type":"int","value":2}]},{"id":100959,"name":"tree_912","type":"tree","x":2208,"y":3072,"width":48,"height":64,"properties":[{"name":"variant","type":"int","value":0}]},{"id":100960,"name":"tree_913","type":"tree","x":2304,"y":3072,"width":48,"height":64,"properties":[{"name":"variant","type":"int","value":1}]},{"id":100961,"name":"tree_914","type":"tree","x":3168,"y":3072,"width":48,"height":64,"properties":[{"name":"variant","type":"int","value":2}]},{"id":100962,"name":"tree_915","type":"tree","x":3232,"y":3072,"width":48,"height":64,"properties":[{"name":"variant","type":"int","value":0}]},{"id":100963,"name":"tree_916","type":"tree","x":3520,"y":3072,"width":48,"height":64,"properties":[{"name":"variant","type":"int","value":1}]},{"id":100964,"name":"tree_917","type":"tree","x":3552,"y":3072,"width":48,"height":64,"properties":[{"name":"variant","type":"int","value":2}]},{"id":100965,"name":"tree_918","type":"tree","x":3584,"y":3072,"width":48,"height":64,"properties":[{"name":"variant","type":"int","value":0}]},{"id":100966,"name":"tree_919","type":"tree","x":3616,"y":3072,"width":48,"height":64,"properties":[{"name":"variant","type":"int","value":1}]},{"id":100967,"name":"tree_920","type":"tree","x":3648,"y":3072,"width":48,"height":64,"properties":[{"name":"variant","type":"int","value":2}]},{"id":100968,"name":"tree_921","type":"tree","x":3680,"y":3072,"width":48,"height":64,"properties":[{"name":"variant","type":"int","value":0}]},{"id":100969,"name":"tree_922","type":"tree","x":3808,"y":3072,"width":48,"height":64,"properties":[{"name":"variant","type":"int","value":1}]},{"id":100970,"name":"tree_923","type":"tree","x":4032,"y":3072,"width":48,"height":64,"properties":[{"name":"variant","type":"int","value":2}]},{"id":100971,"name":"tree_924","type":"tree","x":4064,"y":3072,"width":48,"height":64,"properties":[{"name":"variant","type":"int","value":0}]},{"id":100972,"name":"tree_925","type":"tree","x":4192,"y":3072,"width":48,"height":64,"properties":[{"name":"variant","type":"int","value":1}]},{"id":100973,"name":"tree_926","type":"tree","x":4288,"y":3072,"width":48,"height":64,"properties":[{"name":"variant","type":"int","value":2}]},{"id":100974,"name":"tree_927","type":"tree","x":4320,"y":3072,"width":48,"height":64,"properties":[{"name":"variant","type":"int","value":0}]},{"id":100975,"name":"tree_928","type":"tree","x":5056,"y":3072,"width":48,"height":64,"properties":[{"name":"variant","type":"int","value":1}]},{"id":100976,"name":"tree_929","type":"tree","x":5088,"y":3072,"width":48,"height":64,"properties":[{"name":"variant","type":"int","value":2}]},{"id":100977,"name":"tree_930","type":"tree","x":5152,"y":3072,"width":48,"height":64,"properties":[{"name":"variant","type":"int","value":0}]},{"id":100978,"name":"tree_931","type":"tree","x":5184,"y":3072,"width":48,"height":64,"properties":[{"name":"variant","type":"int","value":1}]},{"id":100979,"name":"tree_932","type":"tree","x":5216,"y":3072,"width":48,"height":64,"properties":[{"name":"variant","type":"int","value":2}]},{"id":100980,"name":"tree_933","type":"tree","x":5280,"y":3072,"width":48,"height":64,"properties":[{"name":"variant","type":"int","value":0}]},{"id":100981,"name":"tree_934","type":"tree","x":5312,"y":3072,"width":48,"height":64,"properties":[{"name":"variant","type":"int","value":1}]},{"id":100982,"name":"tree_935","type":"tree","x":5344,"y":3072,"width":48,"height":64,"properties":[{"name":"variant","type":"int","value":2}]},{"id":100983,"name":"tree_936","type":"tree","x":5376,"y":3072,"width":48,"height":64,"properties":[{"name":"variant","type":"int","value":0}]},{"id":100984,"name":"tree_937","type":"tree","x":5408,"y":3072,"width":48,"height":64,"properties":[{"name":"variant","type":"int","value":1}]},{"id":100985,"name":"tree_938","type":"tree","x":6112,"y":3072,"width":48,"height":64,"properties":[{"name":"variant","type":"int","value":2}]},{"id":100986,"name":"tree_939","type":"tree","x":6144,"y":3072,"width":48,"height":64,"properties":[{"name":"variant","type":"int","value":0}]},{"id":100987,"name":"tree_940","type":"tree","x":6240,"y":3072,"width":48,"height":64,"properties":[{"name":"variant","type":"int","value":1}]},{"id":100988,"name":"tree_941","type":"tree","x":6464,"y":3072,"width":48,"height":64,"properties":[{"name":"variant","type":"int","value":2}]},{"id":100989,"name":"tree_942","type":"tree","x":1952,"y":3104,"width":48,"height":64,"properties":[{"name":"variant","type":"int","value":0}]},{"id":100990,"name":"tree_943","type":"tree","x":1984,"y":3104,"width":48,"height":64,"properties":[{"name":"variant","type":"int","value":1}]},{"id":100991,"name":"tree_944","type":"tree","x":2016,"y":3104,"width":48,"height":64,"properties":[{"name":"variant","type":"int","value":2}]},{"id":100992,"name":"tree_945","type":"tree","x":2144,"y":3104,"width":48,"height":64,"properties":[{"name":"variant","type":"int","value":0}]},{"id":100993,"name":"tree_946","type":"tree","x":2304,"y":3104,"width":48,"height":64,"properties":[{"name":"variant","type":"int","value":1}]},{"id":100994,"name":"tree_947","type":"tree","x":3072,"y":3104,"width":48,"height":64,"properties":[{"name":"variant","type":"int","value":2}]},{"id":100995,"name":"tree_948","type":"tree","x":3104,"y":3104,"width":48,"height":64,"properties":[{"name":"variant","type":"int","value":0}]},{"id":100996,"name":"tree_949","type":"tree","x":3136,"y":3104,"width":48,"height":64,"properties":[{"name":"variant","type":"int","value":1}]},{"id":100997,"name":"tree_950","type":"tree","x":3264,"y":3104,"width":48,"height":64,"properties":[{"name":"variant","type":"int","value":2}]},{"id":100998,"name":"tree_951","type":"tree","x":3424,"y":3104,"width":48,"height":64,"properties":[{"name":"variant","type":"int","value":0}]},{"id":100999,"name":"tree_952","type":"tree","x":3456,"y":3104,"width":48,"height":64,"properties":[{"name":"variant","type":"int","value":1}]},{"id":101000,"name":"tree_953","type":"tree","x":3488,"y":3104,"width":48,"height":64,"properties":[{"name":"variant","type":"int","value":2}]},{"id":101001,"name":"tree_954","type":"tree","x":3584,"y":3104,"width":48,"height":64,"properties":[{"name":"variant","type":"int","value":0}]},{"id":101002,"name":"tree_955","type":"tree","x":3616,"y":3104,"width":48,"height":64,"properties":[{"name":"variant","type":"int","value":1}]},{"id":101003,"name":"tree_956","type":"tree","x":4192,"y":3104,"width":48,"height":64,"properties":[{"name":"variant","type":"int","value":2}]},{"id":101004,"name":"tree_957","type":"tree","x":4320,"y":3104,"width":48,"height":64,"properties":[{"name":"variant","type":"int","value":0}]},{"id":101005,"name":"tree_958","type":"tree","x":4352,"y":3104,"width":48,"height":64,"properties":[{"name":"variant","type":"int","value":1}]},{"id":101006,"name":"tree_959","type":"tree","x":4832,"y":3104,"width":48,"height":64,"properties":[{"name":"variant","type":"int","value":2}]},{"id":101007,"name":"tree_960","type":"tree","x":5184,"y":3104,"width":48,"height":64,"properties":[{"name":"variant","type":"int","value":0}]},{"id":101008,"name":"tree_961","type":"tree","x":5216,"y":3104,"width":48,"height":64,"properties":[{"name":"variant","type":"int","value":1}]},{"id":101009,"name":"tree_962","type":"tree","x":5248,"y":3104,"width":48,"height":64,"properties":[{"name":"variant","type":"int","value":2}]},{"id":101010,"name":"tree_963","type":"tree","x":5280,"y":3104,"width":48,"height":64,"properties":[{"name":"variant","type":"int","value":0}]},{"id":101011,"name":"tree_964","type":"tree","x":5344,"y":3104,"width":48,"height":64,"properties":[{"name":"variant","type":"int","value":1}]},{"id":101012,"name":"tree_965","type":"tree","x":5760,"y":3104,"width":48,"height":64,"properties":[{"name":"variant","type":"int","value":2}]},{"id":101013,"name":"tree_966","type":"tree","x":6176,"y":3104,"width":48,"height":64,"properties":[{"name":"variant","type":"int","value":0}]},{"id":101014,"name":"tree_967","type":"tree","x":6304,"y":3104,"width":48,"height":64,"properties":[{"name":"variant","type":"int","value":1}]},{"id":101015,"name":"tree_968","type":"tree","x":1856,"y":3136,"width":48,"height":64,"properties":[{"name":"variant","type":"int","value":2}]},{"id":101016,"name":"tree_969","type":"tree","x":2016,"y":3136,"width":48,"height":64,"properties":[{"name":"variant","type":"int","value":0}]},{"id":101017,"name":"tree_970","type":"tree","x":2112,"y":3136,"width":48,"height":64,"properties":[{"name":"variant","type":"int","value":1}]},{"id":101018,"name":"tree_971","type":"tree","x":2240,"y":3136,"width":48,"height":64,"properties":[{"name":"variant","type":"int","value":2}]},{"id":101019,"name":"tree_972","type":"tree","x":2272,"y":3136,"width":48,"height":64,"properties":[{"name":"variant","type":"int","value":0}]},{"id":101020,"name":"tree_973","type":"tree","x":2400,"y":3136,"width":48,"height":64,"properties":[{"name":"variant","type":"int","value":1}]},{"id":101021,"name":"tree_974","type":"tree","x":3104,"y":3136,"width":48,"height":64,"properties":[{"name":"variant","type":"int","value":2}]},{"id":101022,"name":"tree_975","type":"tree","x":3136,"y":3136,"width":48,"height":64,"properties":[{"name":"variant","type":"int","value":0}]},{"id":101023,"name":"tree_976","type":"tree","x":3200,"y":3136,"width":48,"height":64,"properties":[{"name":"variant","type":"int","value":1}]},{"id":101024,"name":"tree_977","type":"tree","x":3232,"y":3136,"width":48,"height":64,"properties":[{"name":"variant","type":"int","value":2}]},{"id":101025,"name":"tree_978","type":"tree","x":3264,"y":3136,"width":48,"height":64,"properties":[{"name":"variant","type":"int","value":0}]},{"id":101026,"name":"tree_979","type":"tree","x":3296,"y":3136,"width":48,"height":64,"properties":[{"name":"variant","type":"int","value":1}]},{"id":101027,"name":"tree_980","type":"tree","x":3392,"y":3136,"width":48,"height":64,"properties":[{"name":"variant","type":"int","value":2}]},{"id":101028,"name":"tree_981","type":"tree","x":3488,"y":3136,"width":48,"height":64,"properties":[{"name":"variant","type":"int","value":0}]},{"id":101029,"name":"tree_982","type":"tree","x":3520,"y":3136,"width":48,"height":64,"properties":[{"name":"variant","type":"int","value":1}]},{"id":101030,"name":"tree_983","type":"tree","x":3616,"y":3136,"width":48,"height":64,"properties":[{"name":"variant","type":"int","value":2}]},{"id":101031,"name":"tree_984","type":"tree","x":4288,"y":3136,"width":48,"height":64,"properties":[{"name":"variant","type":"int","value":0}]},{"id":101032,"name":"tree_985","type":"tree","x":4704,"y":3136,"width":48,"height":64,"properties":[{"name":"variant","type":"int","value":1}]},{"id":101033,"name":"tree_986","type":"tree","x":4800,"y":3136,"width":48,"height":64,"properties":[{"name":"variant","type":"int","value":2}]},{"id":101034,"name":"tree_987","type":"tree","x":4864,"y":3136,"width":48,"height":64,"properties":[{"name":"variant","type":"int","value":0}]},{"id":101035,"name":"tree_988","type":"tree","x":4960,"y":3136,"width":48,"height":64,"properties":[{"name":"variant","type":"int","value":1}]},{"id":101036,"name":"tree_989","type":"tree","x":5088,"y":3136,"width":48,"height":64,"properties":[{"name":"variant","type":"int","value":2}]},{"id":101037,"name":"tree_990","type":"tree","x":5120,"y":3136,"width":48,"height":64,"properties":[{"name":"variant","type":"int","value":0}]},{"id":101038,"name":"tree_991","type":"tree","x":5184,"y":3136,"width":48,"height":64,"properties":[{"name":"variant","type":"int","value":1}]},{"id":101039,"name":"tree_992","type":"tree","x":5408,"y":3136,"width":48,"height":64,"properties":[{"name":"variant","type":"int","value":2}]},{"id":101040,"name":"tree_993","type":"tree","x":5440,"y":3136,"width":48,"height":64,"properties":[{"name":"variant","type":"int","value":0}]},{"id":101041,"name":"tree_994","type":"tree","x":5472,"y":3136,"width":48,"height":64,"properties":[{"name":"variant","type":"int","value":1}]},{"id":101042,"name":"tree_995","type":"tree","x":5728,"y":3136,"width":48,"height":64,"properties":[{"name":"variant","type":"int","value":2}]},{"id":101043,"name":"tree_996","type":"tree","x":6496,"y":3136,"width":48,"height":64,"properties":[{"name":"variant","type":"int","value":0}]},{"id":101044,"name":"tree_997","type":"tree","x":1920,"y":3168,"width":48,"height":64,"properties":[{"name":"variant","type":"int","value":1}]},{"id":101045,"name":"tree_998","type":"tree","x":2144,"y":3168,"width":48,"height":64,"properties":[{"name":"variant","type":"int","value":2}]},{"id":101046,"name":"tree_999","type":"tree","x":2208,"y":3168,"width":48,"height":64,"properties":[{"name":"variant","type":"int","value":0}]},{"id":101047,"name":"tree_1000","type":"tree","x":3232,"y":3168,"width":48,"height":64,"properties":[{"name":"variant","type":"int","value":1}]},{"id":101048,"name":"tree_1001","type":"tree","x":3296,"y":3168,"width":48,"height":64,"properties":[{"name":"variant","type":"int","value":2}]},{"id":101049,"name":"tree_1002","type":"tree","x":3328,"y":3168,"width":48,"height":64,"properties":[{"name":"variant","type":"int","value":0}]},{"id":101050,"name":"tree_1003","type":"tree","x":3360,"y":3168,"width":48,"height":64,"properties":[{"name":"variant","type":"int","value":1}]},{"id":101051,"name":"tree_1004","type":"tree","x":3424,"y":3168,"width":48,"height":64,"properties":[{"name":"variant","type":"int","value":2}]},{"id":101052,"name":"tree_1005","type":"tree","x":3488,"y":3168,"width":48,"height":64,"properties":[{"name":"variant","type":"int","value":0}]},{"id":101053,"name":"tree_1006","type":"tree","x":3552,"y":3168,"width":48,"height":64,"properties":[{"name":"variant","type":"int","value":1}]},{"id":101054,"name":"tree_1007","type":"tree","x":3584,"y":3168,"width":48,"height":64,"properties":[{"name":"variant","type":"int","value":2}]},{"id":101055,"name":"tree_1008","type":"tree","x":3616,"y":3168,"width":48,"height":64,"properties":[{"name":"variant","type":"int","value":0}]},{"id":101056,"name":"tree_1009","type":"tree","x":3648,"y":3168,"width":48,"height":64,"properties":[{"name":"variant","type":"int","value":1}]},{"id":101057,"name":"tree_1010","type":"tree","x":3808,"y":3168,"width":48,"height":64,"properties":[{"name":"variant","type":"int","value":2}]},{"id":101058,"name":"tree_1011","type":"tree","x":4320,"y":3168,"width":48,"height":64,"properties":[{"name":"variant","type":"int","value":0}]},{"id":101059,"name":"tree_1012","type":"tree","x":4864,"y":3168,"width":48,"height":64,"properties":[{"name":"variant","type":"int","value":1}]},{"id":101060,"name":"tree_1013","type":"tree","x":4960,"y":3168,"width":48,"height":64,"properties":[{"name":"variant","type":"int","value":2}]},{"id":101061,"name":"tree_1014","type":"tree","x":5088,"y":3168,"width":48,"height":64,"properties":[{"name":"variant","type":"int","value":0}]},{"id":101062,"name":"tree_1015","type":"tree","x":5152,"y":3168,"width":48,"height":64,"properties":[{"name":"variant","type":"int","value":1}]},{"id":101063,"name":"tree_1016","type":"tree","x":5184,"y":3168,"width":48,"height":64,"properties":[{"name":"variant","type":"int","value":2}]},{"id":101064,"name":"tree_1017","type":"tree","x":5376,"y":3168,"width":48,"height":64,"properties":[{"name":"variant","type":"int","value":0}]},{"id":101065,"name":"tree_1018","type":"tree","x":5408,"y":3168,"width":48,"height":64,"properties":[{"name":"variant","type":"int","value":1}]},{"id":101066,"name":"tree_1019","type":"tree","x":5536,"y":3168,"width":48,"height":64,"properties":[{"name":"variant","type":"int","value":2}]},{"id":101067,"name":"tree_1020","type":"tree","x":5664,"y":3168,"width":48,"height":64,"properties":[{"name":"variant","type":"int","value":0}]},{"id":101068,"name":"tree_1021","type":"tree","x":6208,"y":3168,"width":48,"height":64,"properties":[{"name":"variant","type":"int","value":1}]},{"id":101069,"name":"tree_1022","type":"tree","x":6368,"y":3168,"width":48,"height":64,"properties":[{"name":"variant","type":"int","value":2}]},{"id":101070,"name":"tree_1023","type":"tree","x":6432,"y":3168,"width":48,"height":64,"properties":[{"name":"variant","type":"int","value":0}]},{"id":101071,"name":"tree_1024","type":"tree","x":1952,"y":3200,"width":48,"height":64,"properties":[{"name":"variant","type":"int","value":1}]},{"id":101072,"name":"tree_1025","type":"tree","x":2080,"y":3200,"width":48,"height":64,"properties":[{"name":"variant","type":"int","value":2}]},{"id":101073,"name":"tree_1026","type":"tree","x":2144,"y":3200,"width":48,"height":64,"properties":[{"name":"variant","type":"int","value":0}]},{"id":101074,"name":"tree_1027","type":"tree","x":2176,"y":3200,"width":48,"height":64,"properties":[{"name":"variant","type":"int","value":1}]},{"id":101075,"name":"tree_1028","type":"tree","x":2208,"y":3200,"width":48,"height":64,"properties":[{"name":"variant","type":"int","value":2}]},{"id":101076,"name":"tree_1029","type":"tree","x":3040,"y":3200,"width":48,"height":64,"properties":[{"name":"variant","type":"int","value":0}]},{"id":101077,"name":"tree_1030","type":"tree","x":3264,"y":3200,"width":48,"height":64,"properties":[{"name":"variant","type":"int","value":1}]},{"id":101078,"name":"tree_1031","type":"tree","x":3360,"y":3200,"width":48,"height":64,"properties":[{"name":"variant","type":"int","value":2}]},{"id":101079,"name":"tree_1032","type":"tree","x":3424,"y":3200,"width":48,"height":64,"properties":[{"name":"variant","type":"int","value":0}]},{"id":101080,"name":"tree_1033","type":"tree","x":3488,"y":3200,"width":48,"height":64,"properties":[{"name":"variant","type":"int","value":1}]},{"id":101081,"name":"tree_1034","type":"tree","x":3520,"y":3200,"width":48,"height":64,"properties":[{"name":"variant","type":"int","value":2}]},{"id":101082,"name":"tree_1035","type":"tree","x":3616,"y":3200,"width":48,"height":64,"properties":[{"name":"variant","type":"int","value":0}]},{"id":101083,"name":"tree_1036","type":"tree","x":3712,"y":3200,"width":48,"height":64,"properties":[{"name":"variant","type":"int","value":1}]},{"id":101084,"name":"tree_1037","type":"tree","x":3872,"y":3200,"width":48,"height":64,"properties":[{"name":"variant","type":"int","value":2}]},{"id":101085,"name":"tree_1038","type":"tree","x":4256,"y":3200,"width":48,"height":64,"properties":[{"name":"variant","type":"int","value":0}]},{"id":101086,"name":"tree_1039","type":"tree","x":4320,"y":3200,"width":48,"height":64,"properties":[{"name":"variant","type":"int","value":1}]},{"id":101087,"name":"tree_1040","type":"tree","x":4480,"y":3200,"width":48,"height":64,"properties":[{"name":"variant","type":"int","value":2}]},{"id":101088,"name":"tree_1041","type":"tree","x":4736,"y":3200,"width":48,"height":64,"properties":[{"name":"variant","type":"int","value":0}]},{"id":101089,"name":"tree_1042","type":"tree","x":4832,"y":3200,"width":48,"height":64,"properties":[{"name":"variant","type":"int","value":1}]},{"id":101090,"name":"tree_1043","type":"tree","x":5024,"y":3200,"width":48,"height":64,"properties":[{"name":"variant","type":"int","value":2}]},{"id":101091,"name":"tree_1044","type":"tree","x":5152,"y":3200,"width":48,"height":64,"properties":[{"name":"variant","type":"int","value":0}]},{"id":101092,"name":"tree_1045","type":"tree","x":5184,"y":3200,"width":48,"height":64,"properties":[{"name":"variant","type":"int","value":1}]},{"id":101093,"name":"tree_1046","type":"tree","x":5216,"y":3200,"width":48,"height":64,"properties":[{"name":"variant","type":"int","value":2}]},{"id":101094,"name":"tree_1047","type":"tree","x":5312,"y":3200,"width":48,"height":64,"properties":[{"name":"variant","type":"int","value":0}]},{"id":101095,"name":"tree_1048","type":"tree","x":5376,"y":3200,"width":48,"height":64,"properties":[{"name":"variant","type":"int","value":1}]},{"id":101096,"name":"tree_1049","type":"tree","x":5504,"y":3200,"width":48,"height":64,"properties":[{"name":"variant","type":"int","value":2}]},{"id":101097,"name":"tree_1050","type":"tree","x":6144,"y":3200,"width":48,"height":64,"properties":[{"name":"variant","type":"int","value":0}]},{"id":101098,"name":"tree_1051","type":"tree","x":6272,"y":3200,"width":48,"height":64,"properties":[{"name":"variant","type":"int","value":1}]},{"id":101099,"name":"tree_1052","type":"tree","x":6464,"y":3200,"width":48,"height":64,"properties":[{"name":"variant","type":"int","value":2}]},{"id":101100,"name":"tree_1053","type":"tree","x":6496,"y":3200,"width":48,"height":64,"properties":[{"name":"variant","type":"int","value":0}]},{"id":101101,"name":"tree_1054","type":"tree","x":1888,"y":3232,"width":48,"height":64,"properties":[{"name":"variant","type":"int","value":1}]},{"id":101102,"name":"tree_1055","type":"tree","x":2048,"y":3232,"width":48,"height":64,"properties":[{"name":"variant","type":"int","value":2}]},{"id":101103,"name":"tree_1056","type":"tree","x":2112,"y":3232,"width":48,"height":64,"properties":[{"name":"variant","type":"int","value":0}]},{"id":101104,"name":"tree_1057","type":"tree","x":2144,"y":3232,"width":48,"height":64,"properties":[{"name":"variant","type":"int","value":1}]},{"id":101105,"name":"tree_1058","type":"tree","x":2272,"y":3232,"width":48,"height":64,"properties":[{"name":"variant","type":"int","value":2}]},{"id":101106,"name":"tree_1059","type":"tree","x":3264,"y":3232,"width":48,"height":64,"properties":[{"name":"variant","type":"int","value":0}]},{"id":101107,"name":"tree_1060","type":"tree","x":3296,"y":3232,"width":48,"height":64,"properties":[{"name":"variant","type":"int","value":1}]},{"id":101108,"name":"tree_1061","type":"tree","x":3360,"y":3232,"width":48,"height":64,"properties":[{"name":"variant","type":"int","value":2}]},{"id":101109,"name":"tree_1062","type":"tree","x":3424,"y":3232,"width":48,"height":64,"properties":[{"name":"variant","type":"int","value":0}]},{"id":101110,"name":"tree_1063","type":"tree","x":3584,"y":3232,"width":48,"height":64,"properties":[{"name":"variant","type":"int","value":1}]},{"id":101111,"name":"tree_1064","type":"tree","x":3648,"y":3232,"width":48,"height":64,"properties":[{"name":"variant","type":"int","value":2}]},{"id":101112,"name":"tree_1065","type":"tree","x":3776,"y":3232,"width":48,"height":64,"properties":[{"name":"variant","type":"int","value":0}]},{"id":101113,"name":"tree_1066","type":"tree","x":4256,"y":3232,"width":48,"height":64,"properties":[{"name":"variant","type":"int","value":1}]},{"id":101114,"name":"tree_1067","type":"tree","x":4288,"y":3232,"width":48,"height":64,"properties":[{"name":"variant","type":"int","value":2}]},{"id":101115,"name":"tree_1068","type":"tree","x":4320,"y":3232,"width":48,"height":64,"properties":[{"name":"variant","type":"int","value":0}]},{"id":101116,"name":"tree_1069","type":"tree","x":4480,"y":3232,"width":48,"height":64,"properties":[{"name":"variant","type":"int","value":1}]},{"id":101117,"name":"tree_1070","type":"tree","x":4512,"y":3232,"width":48,"height":64,"properties":[{"name":"variant","type":"int","value":2}]},{"id":101118,"name":"tree_1071","type":"tree","x":4704,"y":3232,"width":48,"height":64,"properties":[{"name":"variant","type":"int","value":0}]},{"id":101119,"name":"tree_1072","type":"tree","x":4832,"y":3232,"width":48,"height":64,"properties":[{"name":"variant","type":"int","value":1}]},{"id":101120,"name":"tree_1073","type":"tree","x":4864,"y":3232,"width":48,"height":64,"properties":[{"name":"variant","type":"int","value":2}]},{"id":101121,"name":"tree_1074","type":"tree","x":4896,"y":3232,"width":48,"height":64,"properties":[{"name":"variant","type":"int","value":0}]},{"id":101122,"name":"tree_1075","type":"tree","x":4960,"y":3232,"width":48,"height":64,"properties":[{"name":"variant","type":"int","value":1}]},{"id":101123,"name":"tree_1076","type":"tree","x":4992,"y":3232,"width":48,"height":64,"properties":[{"name":"variant","type":"int","value":2}]},{"id":101124,"name":"tree_1077","type":"tree","x":5184,"y":3232,"width":48,"height":64,"properties":[{"name":"variant","type":"int","value":0}]},{"id":101125,"name":"tree_1078","type":"tree","x":5344,"y":3232,"width":48,"height":64,"properties":[{"name":"variant","type":"int","value":1}]},{"id":101126,"name":"tree_1079","type":"tree","x":5536,"y":3232,"width":48,"height":64,"properties":[{"name":"variant","type":"int","value":2}]},{"id":101127,"name":"tree_1080","type":"tree","x":6144,"y":3232,"width":48,"height":64,"properties":[{"name":"variant","type":"int","value":0}]},{"id":101128,"name":"tree_1081","type":"tree","x":6400,"y":3232,"width":48,"height":64,"properties":[{"name":"variant","type":"int","value":1}]},{"id":101129,"name":"tree_1082","type":"tree","x":2016,"y":3264,"width":48,"height":64,"properties":[{"name":"variant","type":"int","value":2}]},{"id":101130,"name":"tree_1083","type":"tree","x":2048,"y":3264,"width":48,"height":64,"properties":[{"name":"variant","type":"int","value":0}]},{"id":101131,"name":"tree_1084","type":"tree","x":2112,"y":3264,"width":48,"height":64,"properties":[{"name":"variant","type":"int","value":1}]},{"id":101132,"name":"tree_1085","type":"tree","x":3232,"y":3264,"width":48,"height":64,"properties":[{"name":"variant","type":"int","value":2}]},{"id":101133,"name":"tree_1086","type":"tree","x":3264,"y":3264,"width":48,"height":64,"properties":[{"name":"variant","type":"int","value":0}]},{"id":101134,"name":"tree_1087","type":"tree","x":3296,"y":3264,"width":48,"height":64,"properties":[{"name":"variant","type":"int","value":1}]},{"id":101135,"name":"tree_1088","type":"tree","x":3328,"y":3264,"width":48,"height":64,"properties":[{"name":"variant","type":"int","value":2}]},{"id":101136,"name":"tree_1089","type":"tree","x":3360,"y":3264,"width":48,"height":64,"properties":[{"name":"variant","type":"int","value":0}]},{"id":101137,"name":"tree_1090","type":"tree","x":3680,"y":3264,"width":48,"height":64,"properties":[{"name":"variant","type":"int","value":1}]},{"id":101138,"name":"tree_1091","type":"tree","x":3712,"y":3264,"width":48,"height":64,"properties":[{"name":"variant","type":"int","value":2}]},{"id":101139,"name":"tree_1092","type":"tree","x":4032,"y":3264,"width":48,"height":64,"properties":[{"name":"variant","type":"int","value":0}]},{"id":101140,"name":"tree_1093","type":"tree","x":4128,"y":3264,"width":48,"height":64,"properties":[{"name":"variant","type":"int","value":1}]},{"id":101141,"name":"tree_1094","type":"tree","x":4224,"y":3264,"width":48,"height":64,"properties":[{"name":"variant","type":"int","value":2}]},{"id":101142,"name":"tree_1095","type":"tree","x":4288,"y":3264,"width":48,"height":64,"properties":[{"name":"variant","type":"int","value":0}]},{"id":101143,"name":"tree_1096","type":"tree","x":4704,"y":3264,"width":48,"height":64,"properties":[{"name":"variant","type":"int","value":1}]},{"id":101144,"name":"tree_1097","type":"tree","x":4768,"y":3264,"width":48,"height":64,"properties":[{"name":"variant","type":"int","value":2}]},{"id":101145,"name":"tree_1098","type":"tree","x":5024,"y":3264,"width":48,"height":64,"properties":[{"name":"variant","type":"int","value":0}]},{"id":101146,"name":"tree_1099","type":"tree","x":5248,"y":3264,"width":48,"height":64,"properties":[{"name":"variant","type":"int","value":1}]},{"id":101147,"name":"tree_1100","type":"tree","x":5440,"y":3264,"width":48,"height":64,"properties":[{"name":"variant","type":"int","value":2}]},{"id":101148,"name":"tree_1101","type":"tree","x":6048,"y":3264,"width":48,"height":64,"properties":[{"name":"variant","type":"int","value":0}]},{"id":101149,"name":"tree_1102","type":"tree","x":6112,"y":3264,"width":48,"height":64,"properties":[{"name":"variant","type":"int","value":1}]},{"id":101150,"name":"tree_1103","type":"tree","x":1888,"y":3296,"width":48,"height":64,"properties":[{"name":"variant","type":"int","value":2}]},{"id":101151,"name":"tree_1104","type":"tree","x":1920,"y":3296,"width":48,"height":64,"properties":[{"name":"variant","type":"int","value":0}]},{"id":101152,"name":"tree_1105","type":"tree","x":2720,"y":3296,"width":48,"height":64,"properties":[{"name":"variant","type":"int","value":1}]},{"id":101153,"name":"tree_1106","type":"tree","x":2752,"y":3296,"width":48,"height":64,"properties":[{"name":"variant","type":"int","value":2}]},{"id":101154,"name":"tree_1107","type":"tree","x":3392,"y":3296,"width":48,"height":64,"properties":[{"name":"variant","type":"int","value":0}]},{"id":101155,"name":"tree_1108","type":"tree","x":3424,"y":3296,"width":48,"height":64,"properties":[{"name":"variant","type":"int","value":1}]},{"id":101156,"name":"tree_1109","type":"tree","x":3456,"y":3296,"width":48,"height":64,"properties":[{"name":"variant","type":"int","value":2}]},{"id":101157,"name":"tree_1110","type":"tree","x":3520,"y":3296,"width":48,"height":64,"properties":[{"name":"variant","type":"int","value":0}]},{"id":101158,"name":"tree_1111","type":"tree","x":3552,"y":3296,"width":48,"height":64,"properties":[{"name":"variant","type":"int","value":1}]},{"id":101159,"name":"tree_1112","type":"tree","x":3648,"y":3296,"width":48,"height":64,"properties":[{"name":"variant","type":"int","value":2}]},{"id":101160,"name":"tree_1113","type":"tree","x":3712,"y":3296,"width":48,"height":64,"properties":[{"name":"variant","type":"int","value":0}]},{"id":101161,"name":"tree_1114","type":"tree","x":3872,"y":3296,"width":48,"height":64,"properties":[{"name":"variant","type":"int","value":1}]},{"id":101162,"name":"tree_1115","type":"tree","x":3904,"y":3296,"width":48,"height":64,"properties":[{"name":"variant","type":"int","value":2}]},{"id":101163,"name":"tree_1116","type":"tree","x":3936,"y":3296,"width":48,"height":64,"properties":[{"name":"variant","type":"int","value":0}]},{"id":101164,"name":"tree_1117","type":"tree","x":3968,"y":3296,"width":48,"height":64,"properties":[{"name":"variant","type":"int","value":1}]},{"id":101165,"name":"tree_1118","type":"tree","x":4064,"y":3296,"width":48,"height":64,"properties":[{"name":"variant","type":"int","value":2}]},{"id":101166,"name":"tree_1119","type":"tree","x":4192,"y":3296,"width":48,"height":64,"properties":[{"name":"variant","type":"int","value":0}]},{"id":101167,"name":"tree_1120","type":"tree","x":4256,"y":3296,"width":48,"height":64,"properties":[{"name":"variant","type":"int","value":1}]},{"id":101168,"name":"tree_1121","type":"tree","x":4288,"y":3296,"width":48,"height":64,"properties":[{"name":"variant","type":"int","value":2}]},{"id":101169,"name":"tree_1122","type":"tree","x":4608,"y":3296,"width":48,"height":64,"properties":[{"name":"variant","type":"int","value":0}]},{"id":101170,"name":"tree_1123","type":"tree","x":4640,"y":3296,"width":48,"height":64,"properties":[{"name":"variant","type":"int","value":1}]},{"id":101171,"name":"tree_1124","type":"tree","x":4672,"y":3296,"width":48,"height":64,"properties":[{"name":"variant","type":"int","value":2}]},{"id":101172,"name":"tree_1125","type":"tree","x":4992,"y":3296,"width":48,"height":64,"properties":[{"name":"variant","type":"int","value":0}]},{"id":101173,"name":"tree_1126","type":"tree","x":5056,"y":3296,"width":48,"height":64,"properties":[{"name":"variant","type":"int","value":1}]},{"id":101174,"name":"tree_1127","type":"tree","x":5184,"y":3296,"width":48,"height":64,"properties":[{"name":"variant","type":"int","value":2}]},{"id":101175,"name":"tree_1128","type":"tree","x":5312,"y":3296,"width":48,"height":64,"properties":[{"name":"variant","type":"int","value":0}]},{"id":101176,"name":"tree_1129","type":"tree","x":5376,"y":3296,"width":48,"height":64,"properties":[{"name":"variant","type":"int","value":1}]},{"id":101177,"name":"tree_1130","type":"tree","x":5408,"y":3296,"width":48,"height":64,"properties":[{"name":"variant","type":"int","value":2}]},{"id":101178,"name":"tree_1131","type":"tree","x":5440,"y":3296,"width":48,"height":64,"properties":[{"name":"variant","type":"int","value":0}]},{"id":101179,"name":"tree_1132","type":"tree","x":6016,"y":3296,"width":48,"height":64,"properties":[{"name":"variant","type":"int","value":1}]},{"id":101180,"name":"tree_1133","type":"tree","x":6048,"y":3296,"width":48,"height":64,"properties":[{"name":"variant","type":"int","value":2}]},{"id":101181,"name":"tree_1134","type":"tree","x":6112,"y":3296,"width":48,"height":64,"properties":[{"name":"variant","type":"int","value":0}]},{"id":101182,"name":"tree_1135","type":"tree","x":6144,"y":3296,"width":48,"height":64,"properties":[{"name":"variant","type":"int","value":1}]},{"id":101183,"name":"tree_1136","type":"tree","x":6336,"y":3296,"width":48,"height":64,"properties":[{"name":"variant","type":"int","value":2}]},{"id":101184,"name":"tree_1137","type":"tree","x":2720,"y":3328,"width":48,"height":64,"properties":[{"name":"variant","type":"int","value":0}]},{"id":101185,"name":"tree_1138","type":"tree","x":2816,"y":3328,"width":48,"height":64,"properties":[{"name":"variant","type":"int","value":1}]},{"id":101186,"name":"tree_1139","type":"tree","x":3264,"y":3328,"width":48,"height":64,"properties":[{"name":"variant","type":"int","value":2}]},{"id":101187,"name":"tree_1140","type":"tree","x":3296,"y":3328,"width":48,"height":64,"properties":[{"name":"variant","type":"int","value":0}]},{"id":101188,"name":"tree_1141","type":"tree","x":3392,"y":3328,"width":48,"height":64,"properties":[{"name":"variant","type":"int","value":1}]},{"id":101189,"name":"tree_1142","type":"tree","x":3456,"y":3328,"width":48,"height":64,"properties":[{"name":"variant","type":"int","value":2}]},{"id":101190,"name":"tree_1143","type":"tree","x":3584,"y":3328,"width":48,"height":64,"properties":[{"name":"variant","type":"int","value":0}]},{"id":101191,"name":"tree_1144","type":"tree","x":3648,"y":3328,"width":48,"height":64,"properties":[{"name":"variant","type":"int","value":1}]},{"id":101192,"name":"tree_1145","type":"tree","x":3712,"y":3328,"width":48,"height":64,"properties":[{"name":"variant","type":"int","value":2}]},{"id":101193,"name":"tree_1146","type":"tree","x":3776,"y":3328,"width":48,"height":64,"properties":[{"name":"variant","type":"int","value":0}]},{"id":101194,"name":"tree_1147","type":"tree","x":3872,"y":3328,"width":48,"height":64,"properties":[{"name":"variant","type":"int","value":1}]},{"id":101195,"name":"tree_1148","type":"tree","x":3968,"y":3328,"width":48,"height":64,"properties":[{"name":"variant","type":"int","value":2}]},{"id":101196,"name":"tree_1149","type":"tree","x":4096,"y":3328,"width":48,"height":64,"properties":[{"name":"variant","type":"int","value":0}]},{"id":101197,"name":"tree_1150","type":"tree","x":4128,"y":3328,"width":48,"height":64,"properties":[{"name":"variant","type":"int","value":1}]},{"id":101198,"name":"tree_1151","type":"tree","x":4224,"y":3328,"width":48,"height":64,"properties":[{"name":"variant","type":"int","value":2}]},{"id":101199,"name":"tree_1152","type":"tree","x":4256,"y":3328,"width":48,"height":64,"properties":[{"name":"variant","type":"int","value":0}]},{"id":101200,"name":"tree_1153","type":"tree","x":4320,"y":3328,"width":48,"height":64,"properties":[{"name":"variant","type":"int","value":1}]},{"id":101201,"name":"tree_1154","type":"tree","x":4352,"y":3328,"width":48,"height":64,"properties":[{"name":"variant","type":"int","value":2}]},{"id":101202,"name":"tree_1155","type":"tree","x":4480,"y":3328,"width":48,"height":64,"properties":[{"name":"variant","type":"int","value":0}]},{"id":101203,"name":"tree_1156","type":"tree","x":4512,"y":3328,"width":48,"height":64,"properties":[{"name":"variant","type":"int","value":1}]},{"id":101204,"name":"tree_1157","type":"tree","x":4672,"y":3328,"width":48,"height":64,"properties":[{"name":"variant","type":"int","value":2}]},{"id":101205,"name":"tree_1158","type":"tree","x":4704,"y":3328,"width":48,"height":64,"properties":[{"name":"variant","type":"int","value":0}]},{"id":101206,"name":"tree_1159","type":"tree","x":4928,"y":3328,"width":48,"height":64,"properties":[{"name":"variant","type":"int","value":1}]},{"id":101207,"name":"tree_1160","type":"tree","x":4960,"y":3328,"width":48,"height":64,"properties":[{"name":"variant","type":"int","value":2}]},{"id":101208,"name":"tree_1161","type":"tree","x":5024,"y":3328,"width":48,"height":64,"properties":[{"name":"variant","type":"int","value":0}]},{"id":101209,"name":"tree_1162","type":"tree","x":5216,"y":3328,"width":48,"height":64,"properties":[{"name":"variant","type":"int","value":1}]},{"id":101210,"name":"tree_1163","type":"tree","x":5248,"y":3328,"width":48,"height":64,"properties":[{"name":"variant","type":"int","value":2}]},{"id":101211,"name":"tree_1164","type":"tree","x":5376,"y":3328,"width":48,"height":64,"properties":[{"name":"variant","type":"int","value":0}]},{"id":101212,"name":"tree_1165","type":"tree","x":6240,"y":3328,"width":48,"height":64,"properties":[{"name":"variant","type":"int","value":1}]},{"id":101213,"name":"tree_1166","type":"tree","x":2176,"y":3360,"width":48,"height":64,"properties":[{"name":"variant","type":"int","value":2}]},{"id":101214,"name":"tree_1167","type":"tree","x":2208,"y":3360,"width":48,"height":64,"properties":[{"name":"variant","type":"int","value":0}]},{"id":101215,"name":"tree_1168","type":"tree","x":2880,"y":3360,"width":48,"height":64,"properties":[{"name":"variant","type":"int","value":1}]},{"id":101216,"name":"tree_1169","type":"tree","x":3456,"y":3360,"width":48,"height":64,"properties":[{"name":"variant","type":"int","value":2}]},{"id":101217,"name":"tree_1170","type":"tree","x":3488,"y":3360,"width":48,"height":64,"properties":[{"name":"variant","type":"int","value":0}]},{"id":101218,"name":"tree_1171","type":"tree","x":3520,"y":3360,"width":48,"height":64,"properties":[{"name":"variant","type":"int","value":1}]},{"id":101219,"name":"tree_1172","type":"tree","x":3552,"y":3360,"width":48,"height":64,"properties":[{"name":"variant","type":"int","value":2}]},{"id":101220,"name":"tree_1173","type":"tree","x":3584,"y":3360,"width":48,"height":64,"properties":[{"name":"variant","type":"int","value":0}]},{"id":101221,"name":"tree_1174","type":"tree","x":3968,"y":3360,"width":48,"height":64,"properties":[{"name":"variant","type":"int","value":1}]},{"id":101222,"name":"tree_1175","type":"tree","x":4000,"y":3360,"width":48,"height":64,"properties":[{"name":"variant","type":"int","value":2}]},{"id":101223,"name":"tree_1176","type":"tree","x":4032,"y":3360,"width":48,"height":64,"properties":[{"name":"variant","type":"int","value":0}]},{"id":101224,"name":"tree_1177","type":"tree","x":4160,"y":3360,"width":48,"height":64,"properties":[{"name":"variant","type":"int","value":1}]},{"id":101225,"name":"tree_1178","type":"tree","x":4224,"y":3360,"width":48,"height":64,"properties":[{"name":"variant","type":"int","value":2}]},{"id":101226,"name":"tree_1179","type":"tree","x":4256,"y":3360,"width":48,"height":64,"properties":[{"name":"variant","type":"int","value":0}]},{"id":101227,"name":"tree_1180","type":"tree","x":4544,"y":3360,"width":48,"height":64,"properties":[{"name":"variant","type":"int","value":1}]},{"id":101228,"name":"tree_1181","type":"tree","x":4608,"y":3360,"width":48,"height":64,"properties":[{"name":"variant","type":"int","value":2}]},{"id":101229,"name":"tree_1182","type":"tree","x":4640,"y":3360,"width":48,"height":64,"properties":[{"name":"variant","type":"int","value":0}]},{"id":101230,"name":"tree_1183","type":"tree","x":4704,"y":3360,"width":48,"height":64,"properties":[{"name":"variant","type":"int","value":1}]},{"id":101231,"name":"tree_1184","type":"tree","x":4736,"y":3360,"width":48,"height":64,"properties":[{"name":"variant","type":"int","value":2}]},{"id":101232,"name":"tree_1185","type":"tree","x":4768,"y":3360,"width":48,"height":64,"properties":[{"name":"variant","type":"int","value":0}]},{"id":101233,"name":"tree_1186","type":"tree","x":5024,"y":3360,"width":48,"height":64,"properties":[{"name":"variant","type":"int","value":1}]},{"id":101234,"name":"tree_1187","type":"tree","x":5056,"y":3360,"width":48,"height":64,"properties":[{"name":"variant","type":"int","value":2}]},{"id":101235,"name":"tree_1188","type":"tree","x":5280,"y":3360,"width":48,"height":64,"properties":[{"name":"variant","type":"int","value":0}]},{"id":101236,"name":"tree_1189","type":"tree","x":5344,"y":3360,"width":48,"height":64,"properties":[{"name":"variant","type":"int","value":1}]},{"id":101237,"name":"tree_1190","type":"tree","x":2048,"y":3392,"width":48,"height":64,"properties":[{"name":"variant","type":"int","value":2}]},{"id":101238,"name":"tree_1191","type":"tree","x":2720,"y":3392,"width":48,"height":64,"properties":[{"name":"variant","type":"int","value":0}]},{"id":101239,"name":"tree_1192","type":"tree","x":2816,"y":3392,"width":48,"height":64,"properties":[{"name":"variant","type":"int","value":1}]},{"id":101240,"name":"tree_1193","type":"tree","x":2880,"y":3392,"width":48,"height":64,"properties":[{"name":"variant","type":"int","value":2}]},{"id":101241,"name":"tree_1194","type":"tree","x":2912,"y":3392,"width":48,"height":64,"properties":[{"name":"variant","type":"int","value":0}]},{"id":101242,"name":"tree_1195","type":"tree","x":2944,"y":3392,"width":48,"height":64,"properties":[{"name":"variant","type":"int","value":1}]},{"id":101243,"name":"tree_1196","type":"tree","x":3360,"y":3392,"width":48,"height":64,"properties":[{"name":"variant","type":"int","value":2}]},{"id":101244,"name":"tree_1197","type":"tree","x":3424,"y":3392,"width":48,"height":64,"properties":[{"name":"variant","type":"int","value":0}]},{"id":101245,"name":"tree_1198","type":"tree","x":3520,"y":3392,"width":48,"height":64,"properties":[{"name":"variant","type":"int","value":1}]},{"id":101246,"name":"tree_1199","type":"tree","x":3584,"y":3392,"width":48,"height":64,"properties":[{"name":"variant","type":"int","value":2}]},{"id":101247,"name":"tree_1200","type":"tree","x":3776,"y":3392,"width":48,"height":64,"properties":[{"name":"variant","type":"int","value":0}]},{"id":101248,"name":"tree_1201","type":"tree","x":3968,"y":3392,"width":48,"height":64,"properties":[{"name":"variant","type":"int","value":1}]},{"id":101249,"name":"tree_1202","type":"tree","x":4000,"y":3392,"width":48,"height":64,"properties":[{"name":"variant","type":"int","value":2}]},{"id":101250,"name":"tree_1203","type":"tree","x":4096,"y":3392,"width":48,"height":64,"properties":[{"name":"variant","type":"int","value":0}]},{"id":101251,"name":"tree_1204","type":"tree","x":4160,"y":3392,"width":48,"height":64,"properties":[{"name":"variant","type":"int","value":1}]},{"id":101252,"name":"tree_1205","type":"tree","x":4192,"y":3392,"width":48,"height":64,"properties":[{"name":"variant","type":"int","value":2}]},{"id":101253,"name":"tree_1206","type":"tree","x":4224,"y":3392,"width":48,"height":64,"properties":[{"name":"variant","type":"int","value":0}]},{"id":101254,"name":"tree_1207","type":"tree","x":4352,"y":3392,"width":48,"height":64,"properties":[{"name":"variant","type":"int","value":1}]},{"id":101255,"name":"tree_1208","type":"tree","x":4480,"y":3392,"width":48,"height":64,"properties":[{"name":"variant","type":"int","value":2}]},{"id":101256,"name":"tree_1209","type":"tree","x":4544,"y":3392,"width":48,"height":64,"properties":[{"name":"variant","type":"int","value":0}]},{"id":101257,"name":"tree_1210","type":"tree","x":4672,"y":3392,"width":48,"height":64,"properties":[{"name":"variant","type":"int","value":1}]},{"id":101258,"name":"tree_1211","type":"tree","x":4704,"y":3392,"width":48,"height":64,"properties":[{"name":"variant","type":"int","value":2}]},{"id":101259,"name":"tree_1212","type":"tree","x":4832,"y":3392,"width":48,"height":64,"properties":[{"name":"variant","type":"int","value":0}]},{"id":101260,"name":"tree_1213","type":"tree","x":4960,"y":3392,"width":48,"height":64,"properties":[{"name":"variant","type":"int","value":1}]},{"id":101261,"name":"tree_1214","type":"tree","x":5248,"y":3392,"width":48,"height":64,"properties":[{"name":"variant","type":"int","value":2}]},{"id":101262,"name":"tree_1215","type":"tree","x":5280,"y":3392,"width":48,"height":64,"properties":[{"name":"variant","type":"int","value":0}]},{"id":101263,"name":"tree_1216","type":"tree","x":5344,"y":3392,"width":48,"height":64,"properties":[{"name":"variant","type":"int","value":1}]},{"id":101264,"name":"tree_1217","type":"tree","x":6208,"y":3392,"width":48,"height":64,"properties":[{"name":"variant","type":"int","value":2}]},{"id":101265,"name":"tree_1218","type":"tree","x":1984,"y":3424,"width":48,"height":64,"properties":[{"name":"variant","type":"int","value":0}]},{"id":101266,"name":"tree_1219","type":"tree","x":2016,"y":3424,"width":48,"height":64,"properties":[{"name":"variant","type":"int","value":1}]},{"id":101267,"name":"tree_1220","type":"tree","x":2112,"y":3424,"width":48,"height":64,"properties":[{"name":"variant","type":"int","value":2}]},{"id":101268,"name":"tree_1221","type":"tree","x":2208,"y":3424,"width":48,"height":64,"properties":[{"name":"variant","type":"int","value":0}]},{"id":101269,"name":"tree_1222","type":"tree","x":2272,"y":3424,"width":48,"height":64,"properties":[{"name":"variant","type":"int","value":1}]},{"id":101270,"name":"tree_1223","type":"tree","x":2720,"y":3424,"width":48,"height":64,"properties":[{"name":"variant","type":"int","value":2}]},{"id":101271,"name":"tree_1224","type":"tree","x":2752,"y":3424,"width":48,"height":64,"properties":[{"name":"variant","type":"int","value":0}]},{"id":101272,"name":"tree_1225","type":"tree","x":2816,"y":3424,"width":48,"height":64,"properties":[{"name":"variant","type":"int","value":1}]},{"id":101273,"name":"tree_1226","type":"tree","x":2880,"y":3424,"width":48,"height":64,"properties":[{"name":"variant","type":"int","value":2}]},{"id":101274,"name":"tree_1227","type":"tree","x":3008,"y":3424,"width":48,"height":64,"properties":[{"name":"variant","type":"int","value":0}]},{"id":101275,"name":"tree_1228","type":"tree","x":3104,"y":3424,"width":48,"height":64,"properties":[{"name":"variant","type":"int","value":1}]},{"id":101276,"name":"tree_1229","type":"tree","x":3136,"y":3424,"width":48,"height":64,"properties":[{"name":"variant","type":"int","value":2}]},{"id":101277,"name":"tree_1230","type":"tree","x":3168,"y":3424,"width":48,"height":64,"properties":[{"name":"variant","type":"int","value":0}]},{"id":101278,"name":"tree_1231","type":"tree","x":3488,"y":3424,"width":48,"height":64,"properties":[{"name":"variant","type":"int","value":1}]},{"id":101279,"name":"tree_1232","type":"tree","x":3584,"y":3424,"width":48,"height":64,"properties":[{"name":"variant","type":"int","value":2}]},{"id":101280,"name":"tree_1233","type":"tree","x":3616,"y":3424,"width":48,"height":64,"properties":[{"name":"variant","type":"int","value":0}]},{"id":101281,"name":"tree_1234","type":"tree","x":3648,"y":3424,"width":48,"height":64,"properties":[{"name":"variant","type":"int","value":1}]},{"id":101282,"name":"tree_1235","type":"tree","x":3680,"y":3424,"width":48,"height":64,"properties":[{"name":"variant","type":"int","value":2}]},{"id":101283,"name":"tree_1236","type":"tree","x":3744,"y":3424,"width":48,"height":64,"properties":[{"name":"variant","type":"int","value":0}]},{"id":101284,"name":"tree_1237","type":"tree","x":3808,"y":3424,"width":48,"height":64,"properties":[{"name":"variant","type":"int","value":1}]},{"id":101285,"name":"tree_1238","type":"tree","x":3936,"y":3424,"width":48,"height":64,"properties":[{"name":"variant","type":"int","value":2}]},{"id":101286,"name":"tree_1239","type":"tree","x":4064,"y":3424,"width":48,"height":64,"properties":[{"name":"variant","type":"int","value":0}]},{"id":101287,"name":"tree_1240","type":"tree","x":4160,"y":3424,"width":48,"height":64,"properties":[{"name":"variant","type":"int","value":1}]},{"id":101288,"name":"tree_1241","type":"tree","x":4256,"y":3424,"width":48,"height":64,"properties":[{"name":"variant","type":"int","value":2}]},{"id":101289,"name":"tree_1242","type":"tree","x":4320,"y":3424,"width":48,"height":64,"properties":[{"name":"variant","type":"int","value":0}]},{"id":101290,"name":"tree_1243","type":"tree","x":4512,"y":3424,"width":48,"height":64,"properties":[{"name":"variant","type":"int","value":1}]},{"id":101291,"name":"tree_1244","type":"tree","x":4704,"y":3424,"width":48,"height":64,"properties":[{"name":"variant","type":"int","value":2}]},{"id":101292,"name":"tree_1245","type":"tree","x":4736,"y":3424,"width":48,"height":64,"properties":[{"name":"variant","type":"int","value":0}]},{"id":101293,"name":"tree_1246","type":"tree","x":4800,"y":3424,"width":48,"height":64,"properties":[{"name":"variant","type":"int","value":1}]},{"id":101294,"name":"tree_1247","type":"tree","x":4992,"y":3424,"width":48,"height":64,"properties":[{"name":"variant","type":"int","value":2}]},{"id":101295,"name":"tree_1248","type":"tree","x":5024,"y":3424,"width":48,"height":64,"properties":[{"name":"variant","type":"int","value":0}]},{"id":101296,"name":"tree_1249","type":"tree","x":5056,"y":3424,"width":48,"height":64,"properties":[{"name":"variant","type":"int","value":1}]},{"id":101297,"name":"tree_1250","type":"tree","x":6048,"y":3424,"width":48,"height":64,"properties":[{"name":"variant","type":"int","value":2}]},{"id":101298,"name":"tree_1251","type":"tree","x":6112,"y":3424,"width":48,"height":64,"properties":[{"name":"variant","type":"int","value":0}]},{"id":101299,"name":"tree_1252","type":"tree","x":6144,"y":3424,"width":48,"height":64,"properties":[{"name":"variant","type":"int","value":1}]},{"id":101300,"name":"tree_1253","type":"tree","x":6240,"y":3424,"width":48,"height":64,"properties":[{"name":"variant","type":"int","value":2}]},{"id":101301,"name":"tree_1254","type":"tree","x":1920,"y":3456,"width":48,"height":64,"properties":[{"name":"variant","type":"int","value":0}]},{"id":101302,"name":"tree_1255","type":"tree","x":2048,"y":3456,"width":48,"height":64,"properties":[{"name":"variant","type":"int","value":1}]},{"id":101303,"name":"tree_1256","type":"tree","x":2176,"y":3456,"width":48,"height":64,"properties":[{"name":"variant","type":"int","value":2}]},{"id":101304,"name":"tree_1257","type":"tree","x":2272,"y":3456,"width":48,"height":64,"properties":[{"name":"variant","type":"int","value":0}]},{"id":101305,"name":"tree_1258","type":"tree","x":2336,"y":3456,"width":48,"height":64,"properties":[{"name":"variant","type":"int","value":1}]},{"id":101306,"name":"tree_1259","type":"tree","x":2720,"y":3456,"width":48,"height":64,"properties":[{"name":"variant","type":"int","value":2}]},{"id":101307,"name":"tree_1260","type":"tree","x":2784,"y":3456,"width":48,"height":64,"properties":[{"name":"variant","type":"int","value":0}]},{"id":101308,"name":"tree_1261","type":"tree","x":2912,"y":3456,"width":48,"height":64,"properties":[{"name":"variant","type":"int","value":1}]},{"id":101309,"name":"tree_1262","type":"tree","x":2944,"y":3456,"width":48,"height":64,"properties":[{"name":"variant","type":"int","value":2}]},{"id":101310,"name":"tree_1263","type":"tree","x":3104,"y":3456,"width":48,"height":64,"properties":[{"name":"variant","type":"int","value":0}]},{"id":101311,"name":"tree_1264","type":"tree","x":3136,"y":3456,"width":48,"height":64,"properties":[{"name":"variant","type":"int","value":1}]},{"id":101312,"name":"tree_1265","type":"tree","x":3168,"y":3456,"width":48,"height":64,"properties":[{"name":"variant","type":"int","value":2}]},{"id":101313,"name":"tree_1266","type":"tree","x":3232,"y":3456,"width":48,"height":64,"properties":[{"name":"variant","type":"int","value":0}]},{"id":101314,"name":"tree_1267","type":"tree","x":3456,"y":3456,"width":48,"height":64,"properties":[{"name":"variant","type":"int","value":1}]},{"id":101315,"name":"tree_1268","type":"tree","x":3552,"y":3456,"width":48,"height":64,"properties":[{"name":"variant","type":"int","value":2}]},{"id":101316,"name":"tree_1269","type":"tree","x":3584,"y":3456,"width":48,"height":64,"properties":[{"name":"variant","type":"int","value":0}]},{"id":101317,"name":"tree_1270","type":"tree","x":3616,"y":3456,"width":48,"height":64,"properties":[{"name":"variant","type":"int","value":1}]},{"id":101318,"name":"tree_1271","type":"tree","x":3648,"y":3456,"width":48,"height":64,"properties":[{"name":"variant","type":"int","value":2}]},{"id":101319,"name":"tree_1272","type":"tree","x":3840,"y":3456,"width":48,"height":64,"properties":[{"name":"variant","type":"int","value":0}]},{"id":101320,"name":"tree_1273","type":"tree","x":3872,"y":3456,"width":48,"height":64,"properties":[{"name":"variant","type":"int","value":1}]},{"id":101321,"name":"tree_1274","type":"tree","x":3968,"y":3456,"width":48,"height":64,"properties":[{"name":"variant","type":"int","value":2}]},{"id":101322,"name":"tree_1275","type":"tree","x":4128,"y":3456,"width":48,"height":64,"properties":[{"name":"variant","type":"int","value":0}]},{"id":101323,"name":"tree_1276","type":"tree","x":4288,"y":3456,"width":48,"height":64,"properties":[{"name":"variant","type":"int","value":1}]},{"id":101324,"name":"tree_1277","type":"tree","x":4352,"y":3456,"width":48,"height":64,"properties":[{"name":"variant","type":"int","value":2}]},{"id":101325,"name":"tree_1278","type":"tree","x":4512,"y":3456,"width":48,"height":64,"properties":[{"name":"variant","type":"int","value":0}]},{"id":101326,"name":"tree_1279","type":"tree","x":4544,"y":3456,"width":48,"height":64,"properties":[{"name":"variant","type":"int","value":1}]},{"id":101327,"name":"tree_1280","type":"tree","x":4576,"y":3456,"width":48,"height":64,"properties":[{"name":"variant","type":"int","value":2}]},{"id":101328,"name":"tree_1281","type":"tree","x":4640,"y":3456,"width":48,"height":64,"properties":[{"name":"variant","type":"int","value":0}]},{"id":101329,"name":"tree_1282","type":"tree","x":4736,"y":3456,"width":48,"height":64,"properties":[{"name":"variant","type":"int","value":1}]},{"id":101330,"name":"tree_1283","type":"tree","x":4832,"y":3456,"width":48,"height":64,"properties":[{"name":"variant","type":"int","value":2}]},{"id":101331,"name":"tree_1284","type":"tree","x":4928,"y":3456,"width":48,"height":64,"properties":[{"name":"variant","type":"int","value":0}]},{"id":101332,"name":"tree_1285","type":"tree","x":5024,"y":3456,"width":48,"height":64,"properties":[{"name":"variant","type":"int","value":1}]},{"id":101333,"name":"tree_1286","type":"tree","x":5600,"y":3456,"width":48,"height":64,"properties":[{"name":"variant","type":"int","value":2}]},{"id":101334,"name":"tree_1287","type":"tree","x":5632,"y":3456,"width":48,"height":64,"properties":[{"name":"variant","type":"int","value":0}]},{"id":101335,"name":"tree_1288","type":"tree","x":5888,"y":3456,"width":48,"height":64,"properties":[{"name":"variant","type":"int","value":1}]},{"id":101336,"name":"tree_1289","type":"tree","x":6080,"y":3456,"width":48,"height":64,"properties":[{"name":"variant","type":"int","value":2}]},{"id":101337,"name":"tree_1290","type":"tree","x":6144,"y":3456,"width":48,"height":64,"properties":[{"name":"variant","type":"int","value":0}]},{"id":101338,"name":"tree_1291","type":"tree","x":6208,"y":3456,"width":48,"height":64,"properties":[{"name":"variant","type":"int","value":1}]},{"id":101339,"name":"tree_1292","type":"tree","x":2176,"y":3488,"width":48,"height":64,"properties":[{"name":"variant","type":"int","value":2}]},{"id":101340,"name":"tree_1293","type":"tree","x":2208,"y":3488,"width":48,"height":64,"properties":[{"name":"variant","type":"int","value":0}]},{"id":101341,"name":"tree_1294","type":"tree","x":2304,"y":3488,"width":48,"height":64,"properties":[{"name":"variant","type":"int","value":1}]},{"id":101342,"name":"tree_1295","type":"tree","x":2336,"y":3488,"width":48,"height":64,"properties":[{"name":"variant","type":"int","value":2}]},{"id":101343,"name":"tree_1296","type":"tree","x":2848,"y":3488,"width":48,"height":64,"properties":[{"name":"variant","type":"int","value":0}]},{"id":101344,"name":"tree_1297","type":"tree","x":2912,"y":3488,"width":48,"height":64,"properties":[{"name":"variant","type":"int","value":1}]},{"id":101345,"name":"tree_1298","type":"tree","x":2976,"y":3488,"width":48,"height":64,"properties":[{"name":"variant","type":"int","value":2}]},{"id":101346,"name":"tree_1299","type":"tree","x":3136,"y":3488,"width":48,"height":64,"properties":[{"name":"variant","type":"int","value":0}]},{"id":101347,"name":"tree_1300","type":"tree","x":3296,"y":3488,"width":48,"height":64,"properties":[{"name":"variant","type":"int","value":1}]},{"id":101348,"name":"tree_1301","type":"tree","x":3328,"y":3488,"width":48,"height":64,"properties":[{"name":"variant","type":"int","value":2}]},{"id":101349,"name":"tree_1302","type":"tree","x":3360,"y":3488,"width":48,"height":64,"properties":[{"name":"variant","type":"int","value":0}]},{"id":101350,"name":"tree_1303","type":"tree","x":3424,"y":3488,"width":48,"height":64,"properties":[{"name":"variant","type":"int","value":1}]},{"id":101351,"name":"tree_1304","type":"tree","x":3616,"y":3488,"width":48,"height":64,"properties":[{"name":"variant","type":"int","value":2}]},{"id":101352,"name":"tree_1305","type":"tree","x":3712,"y":3488,"width":48,"height":64,"properties":[{"name":"variant","type":"int","value":0}]},{"id":101353,"name":"tree_1306","type":"tree","x":3904,"y":3488,"width":48,"height":64,"properties":[{"name":"variant","type":"int","value":1}]},{"id":101354,"name":"tree_1307","type":"tree","x":3936,"y":3488,"width":48,"height":64,"properties":[{"name":"variant","type":"int","value":2}]},{"id":101355,"name":"tree_1308","type":"tree","x":3968,"y":3488,"width":48,"height":64,"properties":[{"name":"variant","type":"int","value":0}]},{"id":101356,"name":"tree_1309","type":"tree","x":4000,"y":3488,"width":48,"height":64,"properties":[{"name":"variant","type":"int","value":1}]},{"id":101357,"name":"tree_1310","type":"tree","x":4128,"y":3488,"width":48,"height":64,"properties":[{"name":"variant","type":"int","value":2}]},{"id":101358,"name":"tree_1311","type":"tree","x":4192,"y":3488,"width":48,"height":64,"properties":[{"name":"variant","type":"int","value":0}]},{"id":101359,"name":"tree_1312","type":"tree","x":4224,"y":3488,"width":48,"height":64,"properties":[{"name":"variant","type":"int","value":1}]},{"id":101360,"name":"tree_1313","type":"tree","x":4480,"y":3488,"width":48,"height":64,"properties":[{"name":"variant","type":"int","value":2}]},{"id":101361,"name":"tree_1314","type":"tree","x":4704,"y":3488,"width":48,"height":64,"properties":[{"name":"variant","type":"int","value":0}]},{"id":101362,"name":"tree_1315","type":"tree","x":4736,"y":3488,"width":48,"height":64,"properties":[{"name":"variant","type":"int","value":1}]},{"id":101363,"name":"tree_1316","type":"tree","x":4768,"y":3488,"width":48,"height":64,"properties":[{"name":"variant","type":"int","value":2}]},{"id":101364,"name":"tree_1317","type":"tree","x":4832,"y":3488,"width":48,"height":64,"properties":[{"name":"variant","type":"int","value":0}]},{"id":101365,"name":"tree_1318","type":"tree","x":4864,"y":3488,"width":48,"height":64,"properties":[{"name":"variant","type":"int","value":1}]},{"id":101366,"name":"tree_1319","type":"tree","x":4896,"y":3488,"width":48,"height":64,"properties":[{"name":"variant","type":"int","value":2}]},{"id":101367,"name":"tree_1320","type":"tree","x":4928,"y":3488,"width":48,"height":64,"properties":[{"name":"variant","type":"int","value":0}]},{"id":101368,"name":"tree_1321","type":"tree","x":4992,"y":3488,"width":48,"height":64,"properties":[{"name":"variant","type":"int","value":1}]},{"id":101369,"name":"tree_1322","type":"tree","x":5024,"y":3488,"width":48,"height":64,"properties":[{"name":"variant","type":"int","value":2}]},{"id":101370,"name":"tree_1323","type":"tree","x":5440,"y":3488,"width":48,"height":64,"properties":[{"name":"variant","type":"int","value":0}]},{"id":101371,"name":"tree_1324","type":"tree","x":5472,"y":3488,"width":48,"height":64,"properties":[{"name":"variant","type":"int","value":1}]},{"id":101372,"name":"tree_1325","type":"tree","x":5536,"y":3488,"width":48,"height":64,"properties":[{"name":"variant","type":"int","value":2}]},{"id":101373,"name":"tree_1326","type":"tree","x":5632,"y":3488,"width":48,"height":64,"properties":[{"name":"variant","type":"int","value":0}]},{"id":101374,"name":"tree_1327","type":"tree","x":5696,"y":3488,"width":48,"height":64,"properties":[{"name":"variant","type":"int","value":1}]},{"id":101375,"name":"tree_1328","type":"tree","x":5728,"y":3488,"width":48,"height":64,"properties":[{"name":"variant","type":"int","value":2}]},{"id":101376,"name":"tree_1329","type":"tree","x":5920,"y":3488,"width":48,"height":64,"properties":[{"name":"variant","type":"int","value":0}]},{"id":101377,"name":"tree_1330","type":"tree","x":6048,"y":3488,"width":48,"height":64,"properties":[{"name":"variant","type":"int","value":1}]},{"id":101378,"name":"tree_1331","type":"tree","x":6080,"y":3488,"width":48,"height":64,"properties":[{"name":"variant","type":"int","value":2}]},{"id":101379,"name":"tree_1332","type":"tree","x":2048,"y":3520,"width":48,"height":64,"properties":[{"name":"variant","type":"int","value":0}]},{"id":101380,"name":"tree_1333","type":"tree","x":2176,"y":3520,"width":48,"height":64,"properties":[{"name":"variant","type":"int","value":1}]},{"id":101381,"name":"tree_1334","type":"tree","x":2240,"y":3520,"width":48,"height":64,"properties":[{"name":"variant","type":"int","value":2}]},{"id":101382,"name":"tree_1335","type":"tree","x":2400,"y":3520,"width":48,"height":64,"properties":[{"name":"variant","type":"int","value":0}]},{"id":101383,"name":"tree_1336","type":"tree","x":2624,"y":3520,"width":48,"height":64,"properties":[{"name":"variant","type":"int","value":1}]},{"id":101384,"name":"tree_1337","type":"tree","x":2656,"y":3520,"width":48,"height":64,"properties":[{"name":"variant","type":"int","value":2}]},{"id":101385,"name":"tree_1338","type":"tree","x":2848,"y":3520,"width":48,"height":64,"properties":[{"name":"variant","type":"int","value":0}]},{"id":101386,"name":"tree_1339","type":"tree","x":3008,"y":3520,"width":48,"height":64,"properties":[{"name":"variant","type":"int","value":1}]},{"id":101387,"name":"tree_1340","type":"tree","x":3232,"y":3520,"width":48,"height":64,"properties":[{"name":"variant","type":"int","value":2}]},{"id":101388,"name":"tree_1341","type":"tree","x":3584,"y":3520,"width":48,"height":64,"properties":[{"name":"variant","type":"int","value":0}]},{"id":101389,"name":"tree_1342","type":"tree","x":3680,"y":3520,"width":48,"height":64,"properties":[{"name":"variant","type":"int","value":1}]},{"id":101390,"name":"tree_1343","type":"tree","x":3744,"y":3520,"width":48,"height":64,"properties":[{"name":"variant","type":"int","value":2}]},{"id":101391,"name":"tree_1344","type":"tree","x":3840,"y":3520,"width":48,"height":64,"properties":[{"name":"variant","type":"int","value":0}]},{"id":101392,"name":"tree_1345","type":"tree","x":3872,"y":3520,"width":48,"height":64,"properties":[{"name":"variant","type":"int","value":1}]},{"id":101393,"name":"tree_1346","type":"tree","x":3936,"y":3520,"width":48,"height":64,"properties":[{"name":"variant","type":"int","value":2}]},{"id":101394,"name":"tree_1347","type":"tree","x":4000,"y":3520,"width":48,"height":64,"properties":[{"name":"variant","type":"int","value":0}]},{"id":101395,"name":"tree_1348","type":"tree","x":4032,"y":3520,"width":48,"height":64,"properties":[{"name":"variant","type":"int","value":1}]},{"id":101396,"name":"tree_1349","type":"tree","x":4096,"y":3520,"width":48,"height":64,"properties":[{"name":"variant","type":"int","value":2}]},{"id":101397,"name":"tree_1350","type":"tree","x":4160,"y":3520,"width":48,"height":64,"properties":[{"name":"variant","type":"int","value":0}]},{"id":101398,"name":"tree_1351","type":"tree","x":4192,"y":3520,"width":48,"height":64,"properties":[{"name":"variant","type":"int","value":1}]},{"id":101399,"name":"tree_1352","type":"tree","x":4320,"y":3520,"width":48,"height":64,"properties":[{"name":"variant","type":"int","value":2}]},{"id":101400,"name":"tree_1353","type":"tree","x":4704,"y":3520,"width":48,"height":64,"properties":[{"name":"variant","type":"int","value":0}]},{"id":101401,"name":"tree_1354","type":"tree","x":4800,"y":3520,"width":48,"height":64,"properties":[{"name":"variant","type":"int","value":1}]},{"id":101402,"name":"tree_1355","type":"tree","x":5408,"y":3520,"width":48,"height":64,"properties":[{"name":"variant","type":"int","value":2}]},{"id":101403,"name":"tree_1356","type":"tree","x":5504,"y":3520,"width":48,"height":64,"properties":[{"name":"variant","type":"int","value":0}]},{"id":101404,"name":"tree_1357","type":"tree","x":5536,"y":3520,"width":48,"height":64,"properties":[{"name":"variant","type":"int","value":1}]},{"id":101405,"name":"tree_1358","type":"tree","x":5600,"y":3520,"width":48,"height":64,"properties":[{"name":"variant","type":"int","value":2}]},{"id":101406,"name":"tree_1359","type":"tree","x":5664,"y":3520,"width":48,"height":64,"properties":[{"name":"variant","type":"int","value":0}]},{"id":101407,"name":"tree_1360","type":"tree","x":5728,"y":3520,"width":48,"height":64,"properties":[{"name":"variant","type":"int","value":1}]},{"id":101408,"name":"tree_1361","type":"tree","x":5760,"y":3520,"width":48,"height":64,"properties":[{"name":"variant","type":"int","value":2}]},{"id":101409,"name":"tree_1362","type":"tree","x":5792,"y":3520,"width":48,"height":64,"properties":[{"name":"variant","type":"int","value":0}]},{"id":101410,"name":"tree_1363","type":"tree","x":5952,"y":3520,"width":48,"height":64,"properties":[{"name":"variant","type":"int","value":1}]},{"id":101411,"name":"tree_1364","type":"tree","x":6112,"y":3520,"width":48,"height":64,"properties":[{"name":"variant","type":"int","value":2}]},{"id":101412,"name":"tree_1365","type":"tree","x":6144,"y":3520,"width":48,"height":64,"properties":[{"name":"variant","type":"int","value":0}]},{"id":101413,"name":"tree_1366","type":"tree","x":2272,"y":3552,"width":48,"height":64,"properties":[{"name":"variant","type":"int","value":1}]},{"id":101414,"name":"tree_1367","type":"tree","x":2304,"y":3552,"width":48,"height":64,"properties":[{"name":"variant","type":"int","value":2}]},{"id":101415,"name":"tree_1368","type":"tree","x":2432,"y":3552,"width":48,"height":64,"properties":[{"name":"variant","type":"int","value":0}]},{"id":101416,"name":"tree_1369","type":"tree","x":2688,"y":3552,"width":48,"height":64,"properties":[{"name":"variant","type":"int","value":1}]},{"id":101417,"name":"tree_1370","type":"tree","x":2720,"y":3552,"width":48,"height":64,"properties":[{"name":"variant","type":"int","value":2}]},{"id":101418,"name":"tree_1371","type":"tree","x":2784,"y":3552,"width":48,"height":64,"properties":[{"name":"variant","type":"int","value":0}]},{"id":101419,"name":"tree_1372","type":"tree","x":2912,"y":3552,"width":48,"height":64,"properties":[{"name":"variant","type":"int","value":1}]},{"id":101420,"name":"tree_1373","type":"tree","x":2976,"y":3552,"width":48,"height":64,"properties":[{"name":"variant","type":"int","value":2}]},{"id":101421,"name":"tree_1374","type":"tree","x":3008,"y":3552,"width":48,"height":64,"properties":[{"name":"variant","type":"int","value":0}]},{"id":101422,"name":"tree_1375","type":"tree","x":3136,"y":3552,"width":48,"height":64,"properties":[{"name":"variant","type":"int","value":1}]},{"id":101423,"name":"tree_1376","type":"tree","x":3168,"y":3552,"width":48,"height":64,"properties":[{"name":"variant","type":"int","value":2}]},{"id":101424,"name":"tree_1377","type":"tree","x":3264,"y":3552,"width":48,"height":64,"properties":[{"name":"variant","type":"int","value":0}]},{"id":101425,"name":"tree_1378","type":"tree","x":3616,"y":3552,"width":48,"height":64,"properties":[{"name":"variant","type":"int","value":1}]},{"id":101426,"name":"tree_1379","type":"tree","x":3648,"y":3552,"width":48,"height":64,"properties":[{"name":"variant","type":"int","value":2}]},{"id":101427,"name":"tree_1380","type":"tree","x":3680,"y":3552,"width":48,"height":64,"properties":[{"name":"variant","type":"int","value":0}]},{"id":101428,"name":"tree_1381","type":"tree","x":3776,"y":3552,"width":48,"height":64,"properties":[{"name":"variant","type":"int","value":1}]},{"id":101429,"name":"tree_1382","type":"tree","x":3808,"y":3552,"width":48,"height":64,"properties":[{"name":"variant","type":"int","value":2}]},{"id":101430,"name":"tree_1383","type":"tree","x":3936,"y":3552,"width":48,"height":64,"properties":[{"name":"variant","type":"int","value":0}]},{"id":101431,"name":"tree_1384","type":"tree","x":4064,"y":3552,"width":48,"height":64,"properties":[{"name":"variant","type":"int","value":1}]},{"id":101432,"name":"tree_1385","type":"tree","x":4096,"y":3552,"width":48,"height":64,"properties":[{"name":"variant","type":"int","value":2}]},{"id":101433,"name":"tree_1386","type":"tree","x":4192,"y":3552,"width":48,"height":64,"properties":[{"name":"variant","type":"int","value":0}]},{"id":101434,"name":"tree_1387","type":"tree","x":4224,"y":3552,"width":48,"height":64,"properties":[{"name":"variant","type":"int","value":1}]},{"id":101435,"name":"tree_1388","type":"tree","x":4320,"y":3552,"width":48,"height":64,"properties":[{"name":"variant","type":"int","value":2}]},{"id":101436,"name":"tree_1389","type":"tree","x":4352,"y":3552,"width":48,"height":64,"properties":[{"name":"variant","type":"int","value":0}]},{"id":101437,"name":"tree_1390","type":"tree","x":4480,"y":3552,"width":48,"height":64,"properties":[{"name":"variant","type":"int","value":1}]},{"id":101438,"name":"tree_1391","type":"tree","x":4512,"y":3552,"width":48,"height":64,"properties":[{"name":"variant","type":"int","value":2}]},{"id":101439,"name":"tree_1392","type":"tree","x":4608,"y":3552,"width":48,"height":64,"properties":[{"name":"variant","type":"int","value":0}]},{"id":101440,"name":"tree_1393","type":"tree","x":4800,"y":3552,"width":48,"height":64,"properties":[{"name":"variant","type":"int","value":1}]},{"id":101441,"name":"tree_1394","type":"tree","x":5408,"y":3552,"width":48,"height":64,"properties":[{"name":"variant","type":"int","value":2}]},{"id":101442,"name":"tree_1395","type":"tree","x":5440,"y":3552,"width":48,"height":64,"properties":[{"name":"variant","type":"int","value":0}]},{"id":101443,"name":"tree_1396","type":"tree","x":5472,"y":3552,"width":48,"height":64,"properties":[{"name":"variant","type":"int","value":1}]},{"id":101444,"name":"tree_1397","type":"tree","x":5504,"y":3552,"width":48,"height":64,"properties":[{"name":"variant","type":"int","value":2}]},{"id":101445,"name":"tree_1398","type":"tree","x":5600,"y":3552,"width":48,"height":64,"properties":[{"name":"variant","type":"int","value":0}]},{"id":101446,"name":"tree_1399","type":"tree","x":5696,"y":3552,"width":48,"height":64,"properties":[{"name":"variant","type":"int","value":1}]},{"id":101447,"name":"tree_1400","type":"tree","x":5728,"y":3552,"width":48,"height":64,"properties":[{"name":"variant","type":"int","value":2}]},{"id":101448,"name":"tree_1401","type":"tree","x":5760,"y":3552,"width":48,"height":64,"properties":[{"name":"variant","type":"int","value":0}]},{"id":101449,"name":"tree_1402","type":"tree","x":5792,"y":3552,"width":48,"height":64,"properties":[{"name":"variant","type":"int","value":1}]},{"id":101450,"name":"tree_1403","type":"tree","x":5824,"y":3552,"width":48,"height":64,"properties":[{"name":"variant","type":"int","value":2}]},{"id":101451,"name":"tree_1404","type":"tree","x":5856,"y":3552,"width":48,"height":64,"properties":[{"name":"variant","type":"int","value":0}]},{"id":101452,"name":"tree_1405","type":"tree","x":6240,"y":3552,"width":48,"height":64,"properties":[{"name":"variant","type":"int","value":1}]},{"id":101453,"name":"tree_1406","type":"tree","x":2080,"y":3584,"width":48,"height":64,"properties":[{"name":"variant","type":"int","value":2}]},{"id":101454,"name":"tree_1407","type":"tree","x":2144,"y":3584,"width":48,"height":64,"properties":[{"name":"variant","type":"int","value":0}]},{"id":101455,"name":"tree_1408","type":"tree","x":2176,"y":3584,"width":48,"height":64,"properties":[{"name":"variant","type":"int","value":1}]},{"id":101456,"name":"tree_1409","type":"tree","x":2304,"y":3584,"width":48,"height":64,"properties":[{"name":"variant","type":"int","value":2}]},{"id":101457,"name":"tree_1410","type":"tree","x":2336,"y":3584,"width":48,"height":64,"properties":[{"name":"variant","type":"int","value":0}]},{"id":101458,"name":"tree_1411","type":"tree","x":2368,"y":3584,"width":48,"height":64,"properties":[{"name":"variant","type":"int","value":1}]},{"id":101459,"name":"tree_1412","type":"tree","x":2624,"y":3584,"width":48,"height":64,"properties":[{"name":"variant","type":"int","value":2}]},{"id":101460,"name":"tree_1413","type":"tree","x":2752,"y":3584,"width":48,"height":64,"properties":[{"name":"variant","type":"int","value":0}]},{"id":101461,"name":"tree_1414","type":"tree","x":2944,"y":3584,"width":48,"height":64,"properties":[{"name":"variant","type":"int","value":1}]},{"id":101462,"name":"tree_1415","type":"tree","x":3008,"y":3584,"width":48,"height":64,"properties":[{"name":"variant","type":"int","value":2}]},{"id":101463,"name":"tree_1416","type":"tree","x":3072,"y":3584,"width":48,"height":64,"properties":[{"name":"variant","type":"int","value":0}]},{"id":101464,"name":"tree_1417","type":"tree","x":3104,"y":3584,"width":48,"height":64,"properties":[{"name":"variant","type":"int","value":1}]},{"id":101465,"name":"tree_1418","type":"tree","x":3136,"y":3584,"width":48,"height":64,"properties":[{"name":"variant","type":"int","value":2}]},{"id":101466,"name":"tree_1419","type":"tree","x":3200,"y":3584,"width":48,"height":64,"properties":[{"name":"variant","type":"int","value":0}]},{"id":101467,"name":"tree_1420","type":"tree","x":3296,"y":3584,"width":48,"height":64,"properties":[{"name":"variant","type":"int","value":1}]},{"id":101468,"name":"tree_1421","type":"tree","x":3424,"y":3584,"width":48,"height":64,"properties":[{"name":"variant","type":"int","value":2}]},{"id":101469,"name":"tree_1422","type":"tree","x":3456,"y":3584,"width":48,"height":64,"properties":[{"name":"variant","type":"int","value":0}]},{"id":101470,"name":"tree_1423","type":"tree","x":3648,"y":3584,"width":48,"height":64,"properties":[{"name":"variant","type":"int","value":1}]},{"id":101471,"name":"tree_1424","type":"tree","x":3712,"y":3584,"width":48,"height":64,"properties":[{"name":"variant","type":"int","value":2}]},{"id":101472,"name":"tree_1425","type":"tree","x":3744,"y":3584,"width":48,"height":64,"properties":[{"name":"variant","type":"int","value":0}]},{"id":101473,"name":"tree_1426","type":"tree","x":3808,"y":3584,"width":48,"height":64,"properties":[{"name":"variant","type":"int","value":1}]},{"id":101474,"name":"tree_1427","type":"tree","x":3840,"y":3584,"width":48,"height":64,"properties":[{"name":"variant","type":"int","value":2}]},{"id":101475,"name":"tree_1428","type":"tree","x":3904,"y":3584,"width":48,"height":64,"properties":[{"name":"variant","type":"int","value":0}]},{"id":101476,"name":"tree_1429","type":"tree","x":4128,"y":3584,"width":48,"height":64,"properties":[{"name":"variant","type":"int","value":1}]},{"id":101477,"name":"tree_1430","type":"tree","x":4224,"y":3584,"width":48,"height":64,"properties":[{"name":"variant","type":"int","value":2}]},{"id":101478,"name":"tree_1431","type":"tree","x":4352,"y":3584,"width":48,"height":64,"properties":[{"name":"variant","type":"int","value":0}]},{"id":101479,"name":"tree_1432","type":"tree","x":4480,"y":3584,"width":48,"height":64,"properties":[{"name":"variant","type":"int","value":1}]},{"id":101480,"name":"tree_1433","type":"tree","x":4544,"y":3584,"width":48,"height":64,"properties":[{"name":"variant","type":"int","value":2}]},{"id":101481,"name":"tree_1434","type":"tree","x":4576,"y":3584,"width":48,"height":64,"properties":[{"name":"variant","type":"int","value":0}]},{"id":101482,"name":"tree_1435","type":"tree","x":4672,"y":3584,"width":48,"height":64,"properties":[{"name":"variant","type":"int","value":1}]},{"id":101483,"name":"tree_1436","type":"tree","x":4704,"y":3584,"width":48,"height":64,"properties":[{"name":"variant","type":"int","value":2}]},{"id":101484,"name":"tree_1437","type":"tree","x":4736,"y":3584,"width":48,"height":64,"properties":[{"name":"variant","type":"int","value":0}]},{"id":101485,"name":"tree_1438","type":"tree","x":5408,"y":3584,"width":48,"height":64,"properties":[{"name":"variant","type":"int","value":1}]},{"id":101486,"name":"tree_1439","type":"tree","x":5472,"y":3584,"width":48,"height":64,"properties":[{"name":"variant","type":"int","value":2}]},{"id":101487,"name":"tree_1440","type":"tree","x":5504,"y":3584,"width":48,"height":64,"properties":[{"name":"variant","type":"int","value":0}]},{"id":101488,"name":"tree_1441","type":"tree","x":5600,"y":3584,"width":48,"height":64,"properties":[{"name":"variant","type":"int","value":1}]},{"id":101489,"name":"tree_1442","type":"tree","x":5728,"y":3584,"width":48,"height":64,"properties":[{"name":"variant","type":"int","value":2}]},{"id":101490,"name":"tree_1443","type":"tree","x":5792,"y":3584,"width":48,"height":64,"properties":[{"name":"variant","type":"int","value":0}]},{"id":101491,"name":"tree_1444","type":"tree","x":5856,"y":3584,"width":48,"height":64,"properties":[{"name":"variant","type":"int","value":1}]},{"id":101492,"name":"tree_1445","type":"tree","x":5920,"y":3584,"width":48,"height":64,"properties":[{"name":"variant","type":"int","value":2}]},{"id":101493,"name":"tree_1446","type":"tree","x":5952,"y":3584,"width":48,"height":64,"properties":[{"name":"variant","type":"int","value":0}]},{"id":101494,"name":"tree_1447","type":"tree","x":6176,"y":3584,"width":48,"height":64,"properties":[{"name":"variant","type":"int","value":1}]},{"id":101495,"name":"tree_1448","type":"tree","x":6208,"y":3584,"width":48,"height":64,"properties":[{"name":"variant","type":"int","value":2}]},{"id":101496,"name":"tree_1449","type":"tree","x":6240,"y":3584,"width":48,"height":64,"properties":[{"name":"variant","type":"int","value":0}]},{"id":101497,"name":"tree_1450","type":"tree","x":6272,"y":3584,"width":48,"height":64,"properties":[{"name":"variant","type":"int","value":1}]},{"id":101498,"name":"tree_1451","type":"tree","x":2144,"y":3616,"width":48,"height":64,"properties":[{"name":"variant","type":"int","value":2}]},{"id":101499,"name":"tree_1452","type":"tree","x":2176,"y":3616,"width":48,"height":64,"properties":[{"name":"variant","type":"int","value":0}]},{"id":101500,"name":"tree_1453","type":"tree","x":2304,"y":3616,"width":48,"height":64,"properties":[{"name":"variant","type":"int","value":1}]},{"id":101501,"name":"tree_1454","type":"tree","x":2336,"y":3616,"width":48,"height":64,"properties":[{"name":"variant","type":"int","value":2}]},{"id":101502,"name":"tree_1455","type":"tree","x":2816,"y":3616,"width":48,"height":64,"properties":[{"name":"variant","type":"int","value":0}]},{"id":101503,"name":"tree_1456","type":"tree","x":2880,"y":3616,"width":48,"height":64,"properties":[{"name":"variant","type":"int","value":1}]},{"id":101504,"name":"tree_1457","type":"tree","x":2944,"y":3616,"width":48,"height":64,"properties":[{"name":"variant","type":"int","value":2}]},{"id":101505,"name":"tree_1458","type":"tree","x":2976,"y":3616,"width":48,"height":64,"properties":[{"name":"variant","type":"int","value":0}]},{"id":101506,"name":"tree_1459","type":"tree","x":3104,"y":3616,"width":48,"height":64,"properties":[{"name":"variant","type":"int","value":1}]},{"id":101507,"name":"tree_1460","type":"tree","x":3168,"y":3616,"width":48,"height":64,"properties":[{"name":"variant","type":"int","value":2}]},{"id":101508,"name":"tree_1461","type":"tree","x":3232,"y":3616,"width":48,"height":64,"properties":[{"name":"variant","type":"int","value":0}]},{"id":101509,"name":"tree_1462","type":"tree","x":3264,"y":3616,"width":48,"height":64,"properties":[{"name":"variant","type":"int","value":1}]},{"id":101510,"name":"tree_1463","type":"tree","x":3296,"y":3616,"width":48,"height":64,"properties":[{"name":"variant","type":"int","value":2}]},{"id":101511,"name":"tree_1464","type":"tree","x":3360,"y":3616,"width":48,"height":64,"properties":[{"name":"variant","type":"int","value":0}]},{"id":101512,"name":"tree_1465","type":"tree","x":3392,"y":3616,"width":48,"height":64,"properties":[{"name":"variant","type":"int","value":1}]},{"id":101513,"name":"tree_1466","type":"tree","x":3520,"y":3616,"width":48,"height":64,"properties":[{"name":"variant","type":"int","value":2}]},{"id":101514,"name":"tree_1467","type":"tree","x":3808,"y":3616,"width":48,"height":64,"properties":[{"name":"variant","type":"int","value":0}]},{"id":101515,"name":"tree_1468","type":"tree","x":3968,"y":3616,"width":48,"height":64,"properties":[{"name":"variant","type":"int","value":1}]},{"id":101516,"name":"tree_1469","type":"tree","x":4064,"y":3616,"width":48,"height":64,"properties":[{"name":"variant","type":"int","value":2}]},{"id":101517,"name":"tree_1470","type":"tree","x":4160,"y":3616,"width":48,"height":64,"properties":[{"name":"variant","type":"int","value":0}]},{"id":101518,"name":"tree_1471","type":"tree","x":4320,"y":3616,"width":48,"height":64,"properties":[{"name":"variant","type":"int","value":1}]},{"id":101519,"name":"tree_1472","type":"tree","x":4576,"y":3616,"width":48,"height":64,"properties":[{"name":"variant","type":"int","value":2}]},{"id":101520,"name":"tree_1473","type":"tree","x":4608,"y":3616,"width":48,"height":64,"properties":[{"name":"variant","type":"int","value":0}]},{"id":101521,"name":"tree_1474","type":"tree","x":4704,"y":3616,"width":48,"height":64,"properties":[{"name":"variant","type":"int","value":1}]},{"id":101522,"name":"tree_1475","type":"tree","x":5440,"y":3616,"width":48,"height":64,"properties":[{"name":"variant","type":"int","value":2}]},{"id":101523,"name":"tree_1476","type":"tree","x":5536,"y":3616,"width":48,"height":64,"properties":[{"name":"variant","type":"int","value":0}]},{"id":101524,"name":"tree_1477","type":"tree","x":5568,"y":3616,"width":48,"height":64,"properties":[{"name":"variant","type":"int","value":1}]},{"id":101525,"name":"tree_1478","type":"tree","x":5600,"y":3616,"width":48,"height":64,"properties":[{"name":"variant","type":"int","value":2}]},{"id":101526,"name":"tree_1479","type":"tree","x":5664,"y":3616,"width":48,"height":64,"properties":[{"name":"variant","type":"int","value":0}]},{"id":101527,"name":"tree_1480","type":"tree","x":5760,"y":3616,"width":48,"height":64,"properties":[{"name":"variant","type":"int","value":1}]},{"id":101528,"name":"tree_1481","type":"tree","x":5824,"y":3616,"width":48,"height":64,"properties":[{"name":"variant","type":"int","value":2}]},{"id":101529,"name":"tree_1482","type":"tree","x":5856,"y":3616,"width":48,"height":64,"properties":[{"name":"variant","type":"int","value":0}]},{"id":101530,"name":"tree_1483","type":"tree","x":6240,"y":3616,"width":48,"height":64,"properties":[{"name":"variant","type":"int","value":1}]},{"id":101531,"name":"tree_1484","type":"tree","x":6272,"y":3616,"width":48,"height":64,"properties":[{"name":"variant","type":"int","value":2}]},{"id":101532,"name":"tree_1485","type":"tree","x":2272,"y":3648,"width":48,"height":64,"properties":[{"name":"variant","type":"int","value":0}]},{"id":101533,"name":"tree_1486","type":"tree","x":2368,"y":3648,"width":48,"height":64,"properties":[{"name":"variant","type":"int","value":1}]},{"id":101534,"name":"tree_1487","type":"tree","x":2400,"y":3648,"width":48,"height":64,"properties":[{"name":"variant","type":"int","value":2}]},{"id":101535,"name":"tree_1488","type":"tree","x":2560,"y":3648,"width":48,"height":64,"properties":[{"name":"variant","type":"int","value":0}]},{"id":101536,"name":"tree_1489","type":"tree","x":2624,"y":3648,"width":48,"height":64,"properties":[{"name":"variant","type":"int","value":1}]},{"id":101537,"name":"tree_1490","type":"tree","x":2656,"y":3648,"width":48,"height":64,"properties":[{"name":"variant","type":"int","value":2}]},{"id":101538,"name":"tree_1491","type":"tree","x":2912,"y":3648,"width":48,"height":64,"properties":[{"name":"variant","type":"int","value":0}]},{"id":101539,"name":"tree_1492","type":"tree","x":2944,"y":3648,"width":48,"height":64,"properties":[{"name":"variant","type":"int","value":1}]},{"id":101540,"name":"tree_1493","type":"tree","x":2976,"y":3648,"width":48,"height":64,"properties":[{"name":"variant","type":"int","value":2}]},{"id":101541,"name":"tree_1494","type":"tree","x":3040,"y":3648,"width":48,"height":64,"properties":[{"name":"variant","type":"int","value":0}]},{"id":101542,"name":"tree_1495","type":"tree","x":3072,"y":3648,"width":48,"height":64,"properties":[{"name":"variant","type":"int","value":1}]},{"id":101543,"name":"tree_1496","type":"tree","x":3136,"y":3648,"width":48,"height":64,"properties":[{"name":"variant","type":"int","value":2}]},{"id":101544,"name":"tree_1497","type":"tree","x":3168,"y":3648,"width":48,"height":64,"properties":[{"name":"variant","type":"int","value":0}]},{"id":101545,"name":"tree_1498","type":"tree","x":3392,"y":3648,"width":48,"height":64,"properties":[{"name":"variant","type":"int","value":1}]},{"id":101546,"name":"tree_1499","type":"tree","x":3552,"y":3648,"width":48,"height":64,"properties":[{"name":"variant","type":"int","value":2}]},{"id":101547,"name":"tree_1500","type":"tree","x":3648,"y":3648,"width":48,"height":64,"properties":[{"name":"variant","type":"int","value":0}]},{"id":101548,"name":"tree_1501","type":"tree","x":3776,"y":3648,"width":48,"height":64,"properties":[{"name":"variant","type":"int","value":1}]},{"id":101549,"name":"tree_1502","type":"tree","x":3808,"y":3648,"width":48,"height":64,"properties":[{"name":"variant","type":"int","value":2}]},{"id":101550,"name":"tree_1503","type":"tree","x":3840,"y":3648,"width":48,"height":64,"properties":[{"name":"variant","type":"int","value":0}]},{"id":101551,"name":"tree_1504","type":"tree","x":3872,"y":3648,"width":48,"height":64,"properties":[{"name":"variant","type":"int","value":1}]},{"id":101552,"name":"tree_1505","type":"tree","x":4000,"y":3648,"width":48,"height":64,"properties":[{"name":"variant","type":"int","value":2}]},{"id":101553,"name":"tree_1506","type":"tree","x":4064,"y":3648,"width":48,"height":64,"properties":[{"name":"variant","type":"int","value":0}]},{"id":101554,"name":"tree_1507","type":"tree","x":4096,"y":3648,"width":48,"height":64,"properties":[{"name":"variant","type":"int","value":1}]},{"id":101555,"name":"tree_1508","type":"tree","x":4128,"y":3648,"width":48,"height":64,"properties":[{"name":"variant","type":"int","value":2}]},{"id":101556,"name":"tree_1509","type":"tree","x":4160,"y":3648,"width":48,"height":64,"properties":[{"name":"variant","type":"int","value":0}]},{"id":101557,"name":"tree_1510","type":"tree","x":4288,"y":3648,"width":48,"height":64,"properties":[{"name":"variant","type":"int","value":1}]},{"id":101558,"name":"tree_1511","type":"tree","x":4544,"y":3648,"width":48,"height":64,"properties":[{"name":"variant","type":"int","value":2}]},{"id":101559,"name":"tree_1512","type":"tree","x":5376,"y":3648,"width":48,"height":64,"properties":[{"name":"variant","type":"int","value":0}]},{"id":101560,"name":"tree_1513","type":"tree","x":5472,"y":3648,"width":48,"height":64,"properties":[{"name":"variant","type":"int","value":1}]},{"id":101561,"name":"tree_1514","type":"tree","x":5504,"y":3648,"width":48,"height":64,"properties":[{"name":"variant","type":"int","value":2}]},{"id":101562,"name":"tree_1515","type":"tree","x":5600,"y":3648,"width":48,"height":64,"properties":[{"name":"variant","type":"int","value":0}]},{"id":101563,"name":"tree_1516","type":"tree","x":5728,"y":3648,"width":48,"height":64,"properties":[{"name":"variant","type":"int","value":1}]},{"id":101564,"name":"tree_1517","type":"tree","x":5760,"y":3648,"width":48,"height":64,"properties":[{"name":"variant","type":"int","value":2}]},{"id":101565,"name":"tree_1518","type":"tree","x":5856,"y":3648,"width":48,"height":64,"properties":[{"name":"variant","type":"int","value":0}]},{"id":101566,"name":"tree_1519","type":"tree","x":2112,"y":3680,"width":48,"height":64,"properties":[{"name":"variant","type":"int","value":1}]},{"id":101567,"name":"tree_1520","type":"tree","x":2144,"y":3680,"width":48,"height":64,"properties":[{"name":"variant","type":"int","value":2}]},{"id":101568,"name":"tree_1521","type":"tree","x":2176,"y":3680,"width":48,"height":64,"properties":[{"name":"variant","type":"int","value":0}]},{"id":101569,"name":"tree_1522","type":"tree","x":2272,"y":3680,"width":48,"height":64,"properties":[{"name":"variant","type":"int","value":1}]},{"id":101570,"name":"tree_1523","type":"tree","x":2336,"y":3680,"width":48,"height":64,"properties":[{"name":"variant","type":"int","value":2}]},{"id":101571,"name":"tree_1524","type":"tree","x":2432,"y":3680,"width":48,"height":64,"properties":[{"name":"variant","type":"int","value":0}]},{"id":101572,"name":"tree_1525","type":"tree","x":2592,"y":3680,"width":48,"height":64,"properties":[{"name":"variant","type":"int","value":1}]},{"id":101573,"name":"tree_1526","type":"tree","x":2720,"y":3680,"width":48,"height":64,"properties":[{"name":"variant","type":"int","value":2}]},{"id":101574,"name":"tree_1527","type":"tree","x":2752,"y":3680,"width":48,"height":64,"properties":[{"name":"variant","type":"int","value":0}]},{"id":101575,"name":"tree_1528","type":"tree","x":2912,"y":3680,"width":48,"height":64,"properties":[{"name":"variant","type":"int","value":1}]},{"id":101576,"name":"tree_1529","type":"tree","x":2976,"y":3680,"width":48,"height":64,"properties":[{"name":"variant","type":"int","value":2}]},{"id":101577,"name":"tree_1530","type":"tree","x":3008,"y":3680,"width":48,"height":64,"properties":[{"name":"variant","type":"int","value":0}]},{"id":101578,"name":"tree_1531","type":"tree","x":3040,"y":3680,"width":48,"height":64,"properties":[{"name":"variant","type":"int","value":1}]},{"id":101579,"name":"tree_1532","type":"tree","x":3136,"y":3680,"width":48,"height":64,"properties":[{"name":"variant","type":"int","value":2}]},{"id":101580,"name":"tree_1533","type":"tree","x":3200,"y":3680,"width":48,"height":64,"properties":[{"name":"variant","type":"int","value":0}]},{"id":101581,"name":"tree_1534","type":"tree","x":3328,"y":3680,"width":48,"height":64,"properties":[{"name":"variant","type":"int","value":1}]},{"id":101582,"name":"tree_1535","type":"tree","x":3360,"y":3680,"width":48,"height":64,"properties":[{"name":"variant","type":"int","value":2}]},{"id":101583,"name":"tree_1536","type":"tree","x":3520,"y":3680,"width":48,"height":64,"properties":[{"name":"variant","type":"int","value":0}]},{"id":101584,"name":"tree_1537","type":"tree","x":3872,"y":3680,"width":48,"height":64,"properties":[{"name":"variant","type":"int","value":1}]},{"id":101585,"name":"tree_1538","type":"tree","x":3968,"y":3680,"width":48,"height":64,"properties":[{"name":"variant","type":"int","value":2}]},{"id":101586,"name":"tree_1539","type":"tree","x":4000,"y":3680,"width":48,"height":64,"properties":[{"name":"variant","type":"int","value":0}]},{"id":101587,"name":"tree_1540","type":"tree","x":4032,"y":3680,"width":48,"height":64,"properties":[{"name":"variant","type":"int","value":1}]},{"id":101588,"name":"tree_1541","type":"tree","x":4160,"y":3680,"width":48,"height":64,"properties":[{"name":"variant","type":"int","value":2}]},{"id":101589,"name":"tree_1542","type":"tree","x":4256,"y":3680,"width":48,"height":64,"properties":[{"name":"variant","type":"int","value":0}]},{"id":101590,"name":"tree_1543","type":"tree","x":4288,"y":3680,"width":48,"height":64,"properties":[{"name":"variant","type":"int","value":1}]},{"id":101591,"name":"tree_1544","type":"tree","x":4320,"y":3680,"width":48,"height":64,"properties":[{"name":"variant","type":"int","value":2}]},{"id":101592,"name":"tree_1545","type":"tree","x":4352,"y":3680,"width":48,"height":64,"properties":[{"name":"variant","type":"int","value":0}]},{"id":101593,"name":"tree_1546","type":"tree","x":4480,"y":3680,"width":48,"height":64,"properties":[{"name":"variant","type":"int","value":1}]},{"id":101594,"name":"tree_1547","type":"tree","x":4544,"y":3680,"width":48,"height":64,"properties":[{"name":"variant","type":"int","value":2}]},{"id":101595,"name":"tree_1548","type":"tree","x":5472,"y":3680,"width":48,"height":64,"properties":[{"name":"variant","type":"int","value":0}]},{"id":101596,"name":"tree_1549","type":"tree","x":5504,"y":3680,"width":48,"height":64,"properties":[{"name":"variant","type":"int","value":1}]},{"id":101597,"name":"tree_1550","type":"tree","x":5536,"y":3680,"width":48,"height":64,"properties":[{"name":"variant","type":"int","value":2}]},{"id":101598,"name":"tree_1551","type":"tree","x":5600,"y":3680,"width":48,"height":64,"properties":[{"name":"variant","type":"int","value":0}]},{"id":101599,"name":"tree_1552","type":"tree","x":5696,"y":3680,"width":48,"height":64,"properties":[{"name":"variant","type":"int","value":1}]},{"id":101600,"name":"tree_1553","type":"tree","x":5728,"y":3680,"width":48,"height":64,"properties":[{"name":"variant","type":"int","value":2}]},{"id":101601,"name":"tree_1554","type":"tree","x":6272,"y":3680,"width":48,"height":64,"properties":[{"name":"variant","type":"int","value":0}]},{"id":101602,"name":"tree_1555","type":"tree","x":6304,"y":3680,"width":48,"height":64,"properties":[{"name":"variant","type":"int","value":1}]},{"id":101603,"name":"tree_1556","type":"tree","x":6336,"y":3680,"width":48,"height":64,"properties":[{"name":"variant","type":"int","value":2}]},{"id":101604,"name":"tree_1557","type":"tree","x":2176,"y":3712,"width":48,"height":64,"properties":[{"name":"variant","type":"int","value":0}]},{"id":101605,"name":"tree_1558","type":"tree","x":2208,"y":3712,"width":48,"height":64,"properties":[{"name":"variant","type":"int","value":1}]},{"id":101606,"name":"tree_1559","type":"tree","x":2368,"y":3712,"width":48,"height":64,"properties":[{"name":"variant","type":"int","value":2}]},{"id":101607,"name":"tree_1560","type":"tree","x":2400,"y":3712,"width":48,"height":64,"properties":[{"name":"variant","type":"int","value":0}]},{"id":101608,"name":"tree_1561","type":"tree","x":2432,"y":3712,"width":48,"height":64,"properties":[{"name":"variant","type":"int","value":1}]},{"id":101609,"name":"tree_1562","type":"tree","x":2464,"y":3712,"width":48,"height":64,"properties":[{"name":"variant","type":"int","value":2}]},{"id":101610,"name":"tree_1563","type":"tree","x":2592,"y":3712,"width":48,"height":64,"properties":[{"name":"variant","type":"int","value":0}]},{"id":101611,"name":"tree_1564","type":"tree","x":2752,"y":3712,"width":48,"height":64,"properties":[{"name":"variant","type":"int","value":1}]},{"id":101612,"name":"tree_1565","type":"tree","x":2848,"y":3712,"width":48,"height":64,"properties":[{"name":"variant","type":"int","value":2}]},{"id":101613,"name":"tree_1566","type":"tree","x":2944,"y":3712,"width":48,"height":64,"properties":[{"name":"variant","type":"int","value":0}]},{"id":101614,"name":"tree_1567","type":"tree","x":3008,"y":3712,"width":48,"height":64,"properties":[{"name":"variant","type":"int","value":1}]},{"id":101615,"name":"tree_1568","type":"tree","x":3040,"y":3712,"width":48,"height":64,"properties":[{"name":"variant","type":"int","value":2}]},{"id":101616,"name":"tree_1569","type":"tree","x":3104,"y":3712,"width":48,"height":64,"properties":[{"name":"variant","type":"int","value":0}]},{"id":101617,"name":"tree_1570","type":"tree","x":3136,"y":3712,"width":48,"height":64,"properties":[{"name":"variant","type":"int","value":1}]},{"id":101618,"name":"tree_1571","type":"tree","x":3168,"y":3712,"width":48,"height":64,"properties":[{"name":"variant","type":"int","value":2}]},{"id":101619,"name":"tree_1572","type":"tree","x":3232,"y":3712,"width":48,"height":64,"properties":[{"name":"variant","type":"int","value":0}]},{"id":101620,"name":"tree_1573","type":"tree","x":3264,"y":3712,"width":48,"height":64,"properties":[{"name":"variant","type":"int","value":1}]},{"id":101621,"name":"tree_1574","type":"tree","x":3456,"y":3712,"width":48,"height":64,"properties":[{"name":"variant","type":"int","value":2}]},{"id":101622,"name":"tree_1575","type":"tree","x":3776,"y":3712,"width":48,"height":64,"properties":[{"name":"variant","type":"int","value":0}]},{"id":101623,"name":"tree_1576","type":"tree","x":3808,"y":3712,"width":48,"height":64,"properties":[{"name":"variant","type":"int","value":1}]},{"id":101624,"name":"tree_1577","type":"tree","x":3840,"y":3712,"width":48,"height":64,"properties":[{"name":"variant","type":"int","value":2}]},{"id":101625,"name":"tree_1578","type":"tree","x":4000,"y":3712,"width":48,"height":64,"properties":[{"name":"variant","type":"int","value":0}]},{"id":101626,"name":"tree_1579","type":"tree","x":4096,"y":3712,"width":48,"height":64,"properties":[{"name":"variant","type":"int","value":1}]},{"id":101627,"name":"tree_1580","type":"tree","x":4128,"y":3712,"width":48,"height":64,"properties":[{"name":"variant","type":"int","value":2}]},{"id":101628,"name":"tree_1581","type":"tree","x":4160,"y":3712,"width":48,"height":64,"properties":[{"name":"variant","type":"int","value":0}]},{"id":101629,"name":"tree_1582","type":"tree","x":4480,"y":3712,"width":48,"height":64,"properties":[{"name":"variant","type":"int","value":1}]},{"id":101630,"name":"tree_1583","type":"tree","x":4512,"y":3712,"width":48,"height":64,"properties":[{"name":"variant","type":"int","value":2}]},{"id":101631,"name":"tree_1584","type":"tree","x":5408,"y":3712,"width":48,"height":64,"properties":[{"name":"variant","type":"int","value":0}]},{"id":101632,"name":"tree_1585","type":"tree","x":5440,"y":3712,"width":48,"height":64,"properties":[{"name":"variant","type":"int","value":1}]},{"id":101633,"name":"tree_1586","type":"tree","x":5472,"y":3712,"width":48,"height":64,"properties":[{"name":"variant","type":"int","value":2}]},{"id":101634,"name":"tree_1587","type":"tree","x":5504,"y":3712,"width":48,"height":64,"properties":[{"name":"variant","type":"int","value":0}]},{"id":101635,"name":"tree_1588","type":"tree","x":5568,"y":3712,"width":48,"height":64,"properties":[{"name":"variant","type":"int","value":1}]},{"id":101636,"name":"tree_1589","type":"tree","x":5664,"y":3712,"width":48,"height":64,"properties":[{"name":"variant","type":"int","value":2}]},{"id":101637,"name":"tree_1590","type":"tree","x":5728,"y":3712,"width":48,"height":64,"properties":[{"name":"variant","type":"int","value":0}]},{"id":101638,"name":"tree_1591","type":"tree","x":5760,"y":3712,"width":48,"height":64,"properties":[{"name":"variant","type":"int","value":1}]},{"id":101639,"name":"tree_1592","type":"tree","x":6336,"y":3712,"width":48,"height":64,"properties":[{"name":"variant","type":"int","value":2}]},{"id":101640,"name":"tree_1593","type":"tree","x":2176,"y":3744,"width":48,"height":64,"properties":[{"name":"variant","type":"int","value":0}]},{"id":101641,"name":"tree_1594","type":"tree","x":2272,"y":3744,"width":48,"height":64,"properties":[{"name":"variant","type":"int","value":1}]},{"id":101642,"name":"tree_1595","type":"tree","x":2336,"y":3744,"width":48,"height":64,"properties":[{"name":"variant","type":"int","value":2}]},{"id":101643,"name":"tree_1596","type":"tree","x":2368,"y":3744,"width":48,"height":64,"properties":[{"name":"variant","type":"int","value":0}]},{"id":101644,"name":"tree_1597","type":"tree","x":2400,"y":3744,"width":48,"height":64,"properties":[{"name":"variant","type":"int","value":1}]},{"id":101645,"name":"tree_1598","type":"tree","x":2496,"y":3744,"width":48,"height":64,"properties":[{"name":"variant","type":"int","value":2}]},{"id":101646,"name":"tree_1599","type":"tree","x":2592,"y":3744,"width":48,"height":64,"properties":[{"name":"variant","type":"int","value":0}]},{"id":101647,"name":"tree_1600","type":"tree","x":2624,"y":3744,"width":48,"height":64,"properties":[{"name":"variant","type":"int","value":1}]},{"id":101648,"name":"tree_1601","type":"tree","x":2752,"y":3744,"width":48,"height":64,"properties":[{"name":"variant","type":"int","value":2}]},{"id":101649,"name":"tree_1602","type":"tree","x":2816,"y":3744,"width":48,"height":64,"properties":[{"name":"variant","type":"int","value":0}]},{"id":101650,"name":"tree_1603","type":"tree","x":2880,"y":3744,"width":48,"height":64,"properties":[{"name":"variant","type":"int","value":1}]},{"id":101651,"name":"tree_1604","type":"tree","x":2944,"y":3744,"width":48,"height":64,"properties":[{"name":"variant","type":"int","value":2}]},{"id":101652,"name":"tree_1605","type":"tree","x":2976,"y":3744,"width":48,"height":64,"properties":[{"name":"variant","type":"int","value":0}]},{"id":101653,"name":"tree_1606","type":"tree","x":3008,"y":3744,"width":48,"height":64,"properties":[{"name":"variant","type":"int","value":1}]},{"id":101654,"name":"tree_1607","type":"tree","x":3040,"y":3744,"width":48,"height":64,"properties":[{"name":"variant","type":"int","value":2}]},{"id":101655,"name":"tree_1608","type":"tree","x":3136,"y":3744,"width":48,"height":64,"properties":[{"name":"variant","type":"int","value":0}]},{"id":101656,"name":"tree_1609","type":"tree","x":3264,"y":3744,"width":48,"height":64,"properties":[{"name":"variant","type":"int","value":1}]},{"id":101657,"name":"tree_1610","type":"tree","x":3392,"y":3744,"width":48,"height":64,"properties":[{"name":"variant","type":"int","value":2}]},{"id":101658,"name":"tree_1611","type":"tree","x":3680,"y":3744,"width":48,"height":64,"properties":[{"name":"variant","type":"int","value":0}]},{"id":101659,"name":"tree_1612","type":"tree","x":3872,"y":3744,"width":48,"height":64,"properties":[{"name":"variant","type":"int","value":1}]},{"id":101660,"name":"tree_1613","type":"tree","x":3904,"y":3744,"width":48,"height":64,"properties":[{"name":"variant","type":"int","value":2}]},{"id":101661,"name":"tree_1614","type":"tree","x":4064,"y":3744,"width":48,"height":64,"properties":[{"name":"variant","type":"int","value":0}]},{"id":101662,"name":"tree_1615","type":"tree","x":4096,"y":3744,"width":48,"height":64,"properties":[{"name":"variant","type":"int","value":1}]},{"id":101663,"name":"tree_1616","type":"tree","x":4352,"y":3744,"width":48,"height":64,"properties":[{"name":"variant","type":"int","value":2}]},{"id":101664,"name":"tree_1617","type":"tree","x":5376,"y":3744,"width":48,"height":64,"properties":[{"name":"variant","type":"int","value":0}]},{"id":101665,"name":"tree_1618","type":"tree","x":5440,"y":3744,"width":48,"height":64,"properties":[{"name":"variant","type":"int","value":1}]},{"id":101666,"name":"tree_1619","type":"tree","x":5504,"y":3744,"width":48,"height":64,"properties":[{"name":"variant","type":"int","value":2}]},{"id":101667,"name":"tree_1620","type":"tree","x":5536,"y":3744,"width":48,"height":64,"properties":[{"name":"variant","type":"int","value":0}]},{"id":101668,"name":"tree_1621","type":"tree","x":5568,"y":3744,"width":48,"height":64,"properties":[{"name":"variant","type":"int","value":1}]},{"id":101669,"name":"tree_1622","type":"tree","x":5632,"y":3744,"width":48,"height":64,"properties":[{"name":"variant","type":"int","value":2}]},{"id":101670,"name":"tree_1623","type":"tree","x":5696,"y":3744,"width":48,"height":64,"properties":[{"name":"variant","type":"int","value":0}]},{"id":101671,"name":"tree_1624","type":"tree","x":5824,"y":3744,"width":48,"height":64,"properties":[{"name":"variant","type":"int","value":1}]},{"id":101672,"name":"tree_1625","type":"tree","x":5856,"y":3744,"width":48,"height":64,"properties":[{"name":"variant","type":"int","value":2}]},{"id":101673,"name":"tree_1626","type":"tree","x":2272,"y":3776,"width":48,"height":64,"properties":[{"name":"variant","type":"int","value":0}]},{"id":101674,"name":"tree_1627","type":"tree","x":2336,"y":3776,"width":48,"height":64,"properties":[{"name":"variant","type":"int","value":1}]},{"id":101675,"name":"tree_1628","type":"tree","x":2368,"y":3776,"width":48,"height":64,"properties":[{"name":"variant","type":"int","value":2}]},{"id":101676,"name":"tree_1629","type":"tree","x":2496,"y":3776,"width":48,"height":64,"properties":[{"name":"variant","type":"int","value":0}]},{"id":101677,"name":"tree_1630","type":"tree","x":2528,"y":3776,"width":48,"height":64,"properties":[{"name":"variant","type":"int","value":1}]},{"id":101678,"name":"tree_1631","type":"tree","x":2560,"y":3776,"width":48,"height":64,"properties":[{"name":"variant","type":"int","value":2}]},{"id":101679,"name":"tree_1632","type":"tree","x":2656,"y":3776,"width":48,"height":64,"properties":[{"name":"variant","type":"int","value":0}]},{"id":101680,"name":"tree_1633","type":"tree","x":2752,"y":3776,"width":48,"height":64,"properties":[{"name":"variant","type":"int","value":1}]},{"id":101681,"name":"tree_1634","type":"tree","x":2784,"y":3776,"width":48,"height":64,"properties":[{"name":"variant","type":"int","value":2}]},{"id":101682,"name":"tree_1635","type":"tree","x":2880,"y":3776,"width":48,"height":64,"properties":[{"name":"variant","type":"int","value":0}]},{"id":101683,"name":"tree_1636","type":"tree","x":2976,"y":3776,"width":48,"height":64,"properties":[{"name":"variant","type":"int","value":1}]},{"id":101684,"name":"tree_1637","type":"tree","x":3232,"y":3776,"width":48,"height":64,"properties":[{"name":"variant","type":"int","value":2}]},{"id":101685,"name":"tree_1638","type":"tree","x":3264,"y":3776,"width":48,"height":64,"properties":[{"name":"variant","type":"int","value":0}]},{"id":101686,"name":"tree_1639","type":"tree","x":3392,"y":3776,"width":48,"height":64,"properties":[{"name":"variant","type":"int","value":1}]},{"id":101687,"name":"tree_1640","type":"tree","x":3456,"y":3776,"width":48,"height":64,"properties":[{"name":"variant","type":"int","value":2}]},{"id":101688,"name":"tree_1641","type":"tree","x":3552,"y":3776,"width":48,"height":64,"properties":[{"name":"variant","type":"int","value":0}]},{"id":101689,"name":"tree_1642","type":"tree","x":3616,"y":3776,"width":48,"height":64,"properties":[{"name":"variant","type":"int","value":1}]},{"id":101690,"name":"tree_1643","type":"tree","x":3680,"y":3776,"width":48,"height":64,"properties":[{"name":"variant","type":"int","value":2}]},{"id":101691,"name":"tree_1644","type":"tree","x":3840,"y":3776,"width":48,"height":64,"properties":[{"name":"variant","type":"int","value":0}]},{"id":101692,"name":"tree_1645","type":"tree","x":3872,"y":3776,"width":48,"height":64,"properties":[{"name":"variant","type":"int","value":1}]},{"id":101693,"name":"tree_1646","type":"tree","x":3904,"y":3776,"width":48,"height":64,"properties":[{"name":"variant","type":"int","value":2}]},{"id":101694,"name":"tree_1647","type":"tree","x":4160,"y":3776,"width":48,"height":64,"properties":[{"name":"variant","type":"int","value":0}]},{"id":101695,"name":"tree_1648","type":"tree","x":4416,"y":3776,"width":48,"height":64,"properties":[{"name":"variant","type":"int","value":1}]},{"id":101696,"name":"tree_1649","type":"tree","x":5408,"y":3776,"width":48,"height":64,"properties":[{"name":"variant","type":"int","value":2}]},{"id":101697,"name":"tree_1650","type":"tree","x":5504,"y":3776,"width":48,"height":64,"properties":[{"name":"variant","type":"int","value":0}]},{"id":101698,"name":"tree_1651","type":"tree","x":5568,"y":3776,"width":48,"height":64,"properties":[{"name":"variant","type":"int","value":1}]},{"id":101699,"name":"tree_1652","type":"tree","x":5600,"y":3776,"width":48,"height":64,"properties":[{"name":"variant","type":"int","value":2}]},{"id":101700,"name":"tree_1653","type":"tree","x":5728,"y":3776,"width":48,"height":64,"properties":[{"name":"variant","type":"int","value":0}]},{"id":101701,"name":"tree_1654","type":"tree","x":5792,"y":3776,"width":48,"height":64,"properties":[{"name":"variant","type":"int","value":1}]},{"id":101702,"name":"tree_1655","type":"tree","x":5824,"y":3776,"width":48,"height":64,"properties":[{"name":"variant","type":"int","value":2}]},{"id":101703,"name":"tree_1656","type":"tree","x":5888,"y":3776,"width":48,"height":64,"properties":[{"name":"variant","type":"int","value":0}]},{"id":101704,"name":"tree_1657","type":"tree","x":2240,"y":3808,"width":48,"height":64,"properties":[{"name":"variant","type":"int","value":1}]},{"id":101705,"name":"tree_1658","type":"tree","x":2272,"y":3808,"width":48,"height":64,"properties":[{"name":"variant","type":"int","value":2}]},{"id":101706,"name":"tree_1659","type":"tree","x":2304,"y":3808,"width":48,"height":64,"properties":[{"name":"variant","type":"int","value":0}]},{"id":101707,"name":"tree_1660","type":"tree","x":2496,"y":3808,"width":48,"height":64,"properties":[{"name":"variant","type":"int","value":1}]},{"id":101708,"name":"tree_1661","type":"tree","x":2528,"y":3808,"width":48,"height":64,"properties":[{"name":"variant","type":"int","value":2}]},{"id":101709,"name":"tree_1662","type":"tree","x":2752,"y":3808,"width":48,"height":64,"properties":[{"name":"variant","type":"int","value":0}]},{"id":101710,"name":"tree_1663","type":"tree","x":2784,"y":3808,"width":48,"height":64,"properties":[{"name":"variant","type":"int","value":1}]},{"id":101711,"name":"tree_1664","type":"tree","x":2816,"y":3808,"width":48,"height":64,"properties":[{"name":"variant","type":"int","value":2}]},{"id":101712,"name":"tree_1665","type":"tree","x":2848,"y":3808,"width":48,"height":64,"properties":[{"name":"variant","type":"int","value":0}]},{"id":101713,"name":"tree_1666","type":"tree","x":2944,"y":3808,"width":48,"height":64,"properties":[{"name":"variant","type":"int","value":1}]},{"id":101714,"name":"tree_1667","type":"tree","x":3200,"y":3808,"width":48,"height":64,"properties":[{"name":"variant","type":"int","value":2}]},{"id":101715,"name":"tree_1668","type":"tree","x":3264,"y":3808,"width":48,"height":64,"properties":[{"name":"variant","type":"int","value":0}]},{"id":101716,"name":"tree_1669","type":"tree","x":3328,"y":3808,"width":48,"height":64,"properties":[{"name":"variant","type":"int","value":1}]},{"id":101717,"name":"tree_1670","type":"tree","x":3360,"y":3808,"width":48,"height":64,"properties":[{"name":"variant","type":"int","value":2}]},{"id":101718,"name":"tree_1671","type":"tree","x":3392,"y":3808,"width":48,"height":64,"properties":[{"name":"variant","type":"int","value":0}]},{"id":101719,"name":"tree_1672","type":"tree","x":3488,"y":3808,"width":48,"height":64,"properties":[{"name":"variant","type":"int","value":1}]},{"id":101720,"name":"tree_1673","type":"tree","x":3520,"y":3808,"width":48,"height":64,"properties":[{"name":"variant","type":"int","value":2}]},{"id":101721,"name":"tree_1674","type":"tree","x":3744,"y":3808,"width":48,"height":64,"properties":[{"name":"variant","type":"int","value":0}]},{"id":101722,"name":"tree_1675","type":"tree","x":3776,"y":3808,"width":48,"height":64,"properties":[{"name":"variant","type":"int","value":1}]},{"id":101723,"name":"tree_1676","type":"tree","x":3808,"y":3808,"width":48,"height":64,"properties":[{"name":"variant","type":"int","value":2}]},{"id":101724,"name":"tree_1677","type":"tree","x":4128,"y":3808,"width":48,"height":64,"properties":[{"name":"variant","type":"int","value":0}]},{"id":101725,"name":"tree_1678","type":"tree","x":4160,"y":3808,"width":48,"height":64,"properties":[{"name":"variant","type":"int","value":1}]},{"id":101726,"name":"tree_1679","type":"tree","x":4192,"y":3808,"width":48,"height":64,"properties":[{"name":"variant","type":"int","value":2}]},{"id":101727,"name":"tree_1680","type":"tree","x":4256,"y":3808,"width":48,"height":64,"properties":[{"name":"variant","type":"int","value":0}]},{"id":101728,"name":"tree_1681","type":"tree","x":4288,"y":3808,"width":48,"height":64,"properties":[{"name":"variant","type":"int","value":1}]},{"id":101729,"name":"tree_1682","type":"tree","x":4320,"y":3808,"width":48,"height":64,"properties":[{"name":"variant","type":"int","value":2}]},{"id":101730,"name":"tree_1683","type":"tree","x":4352,"y":3808,"width":48,"height":64,"properties":[{"name":"variant","type":"int","value":0}]},{"id":101731,"name":"tree_1684","type":"tree","x":4416,"y":3808,"width":48,"height":64,"properties":[{"name":"variant","type":"int","value":1}]},{"id":101732,"name":"tree_1685","type":"tree","x":4448,"y":3808,"width":48,"height":64,"properties":[{"name":"variant","type":"int","value":2}]},{"id":101733,"name":"tree_1686","type":"tree","x":5408,"y":3808,"width":48,"height":64,"properties":[{"name":"variant","type":"int","value":0}]},{"id":101734,"name":"tree_1687","type":"tree","x":5472,"y":3808,"width":48,"height":64,"properties":[{"name":"variant","type":"int","value":1}]},{"id":101735,"name":"tree_1688","type":"tree","x":5504,"y":3808,"width":48,"height":64,"properties":[{"name":"variant","type":"int","value":2}]},{"id":101736,"name":"tree_1689","type":"tree","x":5536,"y":3808,"width":48,"height":64,"properties":[{"name":"variant","type":"int","value":0}]},{"id":101737,"name":"tree_1690","type":"tree","x":5568,"y":3808,"width":48,"height":64,"properties":[{"name":"variant","type":"int","value":1}]},{"id":101738,"name":"tree_1691","type":"tree","x":5664,"y":3808,"width":48,"height":64,"properties":[{"name":"variant","type":"int","value":2}]},{"id":101739,"name":"tree_1692","type":"tree","x":5728,"y":3808,"width":48,"height":64,"properties":[{"name":"variant","type":"int","value":0}]},{"id":101740,"name":"tree_1693","type":"tree","x":5824,"y":3808,"width":48,"height":64,"properties":[{"name":"variant","type":"int","value":1}]},{"id":101741,"name":"tree_1694","type":"tree","x":5888,"y":3808,"width":48,"height":64,"properties":[{"name":"variant","type":"int","value":2}]},{"id":101742,"name":"tree_1695","type":"tree","x":2272,"y":3840,"width":48,"height":64,"properties":[{"name":"variant","type":"int","value":0}]},{"id":101743,"name":"tree_1696","type":"tree","x":2304,"y":3840,"width":48,"height":64,"properties":[{"name":"variant","type":"int","value":1}]},{"id":101744,"name":"tree_1697","type":"tree","x":2368,"y":3840,"width":48,"height":64,"properties":[{"name":"variant","type":"int","value":2}]},{"id":101745,"name":"tree_1698","type":"tree","x":2464,"y":3840,"width":48,"height":64,"properties":[{"name":"variant","type":"int","value":0}]},{"id":101746,"name":"tree_1699","type":"tree","x":2528,"y":3840,"width":48,"height":64,"properties":[{"name":"variant","type":"int","value":1}]},{"id":101747,"name":"tree_1700","type":"tree","x":2592,"y":3840,"width":48,"height":64,"properties":[{"name":"variant","type":"int","value":2}]},{"id":101748,"name":"tree_1701","type":"tree","x":2624,"y":3840,"width":48,"height":64,"properties":[{"name":"variant","type":"int","value":0}]},{"id":101749,"name":"tree_1702","type":"tree","x":2688,"y":3840,"width":48,"height":64,"properties":[{"name":"variant","type":"int","value":1}]},{"id":101750,"name":"tree_1703","type":"tree","x":2752,"y":3840,"width":48,"height":64,"properties":[{"name":"variant","type":"int","value":2}]},{"id":101751,"name":"tree_1704","type":"tree","x":2848,"y":3840,"width":48,"height":64,"properties":[{"name":"variant","type":"int","value":0}]},{"id":101752,"name":"tree_1705","type":"tree","x":2912,"y":3840,"width":48,"height":64,"properties":[{"name":"variant","type":"int","value":1}]},{"id":101753,"name":"tree_1706","type":"tree","x":2944,"y":3840,"width":48,"height":64,"properties":[{"name":"variant","type":"int","value":2}]},{"id":101754,"name":"tree_1707","type":"tree","x":3008,"y":3840,"width":48,"height":64,"properties":[{"name":"variant","type":"int","value":0}]},{"id":101755,"name":"tree_1708","type":"tree","x":3296,"y":3840,"width":48,"height":64,"properties":[{"name":"variant","type":"int","value":1}]},{"id":101756,"name":"tree_1709","type":"tree","x":3360,"y":3840,"width":48,"height":64,"properties":[{"name":"variant","type":"int","value":2}]},{"id":101757,"name":"tree_1710","type":"tree","x":3616,"y":3840,"width":48,"height":64,"properties":[{"name":"variant","type":"int","value":0}]},{"id":101758,"name":"tree_1711","type":"tree","x":3744,"y":3840,"width":48,"height":64,"properties":[{"name":"variant","type":"int","value":1}]},{"id":101759,"name":"tree_1712","type":"tree","x":3840,"y":3840,"width":48,"height":64,"properties":[{"name":"variant","type":"int","value":2}]},{"id":101760,"name":"tree_1713","type":"tree","x":4096,"y":3840,"width":48,"height":64,"properties":[{"name":"variant","type":"int","value":0}]},{"id":101761,"name":"tree_1714","type":"tree","x":4192,"y":3840,"width":48,"height":64,"properties":[{"name":"variant","type":"int","value":1}]},{"id":101762,"name":"tree_1715","type":"tree","x":4256,"y":3840,"width":48,"height":64,"properties":[{"name":"variant","type":"int","value":2}]},{"id":101763,"name":"tree_1716","type":"tree","x":4352,"y":3840,"width":48,"height":64,"properties":[{"name":"variant","type":"int","value":0}]},{"id":101764,"name":"tree_1717","type":"tree","x":4448,"y":3840,"width":48,"height":64,"properties":[{"name":"variant","type":"int","value":1}]},{"id":101765,"name":"tree_1718","type":"tree","x":5408,"y":3840,"width":48,"height":64,"properties":[{"name":"variant","type":"int","value":2}]},{"id":101766,"name":"tree_1719","type":"tree","x":5472,"y":3840,"width":48,"height":64,"properties":[{"name":"variant","type":"int","value":0}]},{"id":101767,"name":"tree_1720","type":"tree","x":5504,"y":3840,"width":48,"height":64,"properties":[{"name":"variant","type":"int","value":1}]},{"id":101768,"name":"tree_1721","type":"tree","x":5664,"y":3840,"width":48,"height":64,"properties":[{"name":"variant","type":"int","value":2}]},{"id":101769,"name":"tree_1722","type":"tree","x":5760,"y":3840,"width":48,"height":64,"properties":[{"name":"variant","type":"int","value":0}]},{"id":101770,"name":"tree_1723","type":"tree","x":5824,"y":3840,"width":48,"height":64,"properties":[{"name":"variant","type":"int","value":1}]},{"id":101771,"name":"tree_1724","type":"tree","x":5984,"y":3840,"width":48,"height":64,"properties":[{"name":"variant","type":"int","value":2}]},{"id":101772,"name":"tree_1725","type":"tree","x":2272,"y":3872,"width":48,"height":64,"properties":[{"name":"variant","type":"int","value":0}]},{"id":101773,"name":"tree_1726","type":"tree","x":2336,"y":3872,"width":48,"height":64,"properties":[{"name":"variant","type":"int","value":1}]},{"id":101774,"name":"tree_1727","type":"tree","x":2528,"y":3872,"width":48,"height":64,"properties":[{"name":"variant","type":"int","value":2}]},{"id":101775,"name":"tree_1728","type":"tree","x":2560,"y":3872,"width":48,"height":64,"properties":[{"name":"variant","type":"int","value":0}]},{"id":101776,"name":"tree_1729","type":"tree","x":2592,"y":3872,"width":48,"height":64,"properties":[{"name":"variant","type":"int","value":1}]},{"id":101777,"name":"tree_1730","type":"tree","x":2624,"y":3872,"width":48,"height":64,"properties":[{"name":"variant","type":"int","value":2}]},{"id":101778,"name":"tree_1731","type":"tree","x":2688,"y":3872,"width":48,"height":64,"properties":[{"name":"variant","type":"int","value":0}]},{"id":101779,"name":"tree_1732","type":"tree","x":2720,"y":3872,"width":48,"height":64,"properties":[{"name":"variant","type":"int","value":1}]},{"id":101780,"name":"tree_1733","type":"tree","x":2784,"y":3872,"width":48,"height":64,"properties":[{"name":"variant","type":"int","value":2}]},{"id":101781,"name":"tree_1734","type":"tree","x":2816,"y":3872,"width":48,"height":64,"properties":[{"name":"variant","type":"int","value":0}]},{"id":101782,"name":"tree_1735","type":"tree","x":2848,"y":3872,"width":48,"height":64,"properties":[{"name":"variant","type":"int","value":1}]},{"id":101783,"name":"tree_1736","type":"tree","x":2912,"y":3872,"width":48,"height":64,"properties":[{"name":"variant","type":"int","value":2}]},{"id":101784,"name":"tree_1737","type":"tree","x":3040,"y":3872,"width":48,"height":64,"properties":[{"name":"variant","type":"int","value":0}]},{"id":101785,"name":"tree_1738","type":"tree","x":3072,"y":3872,"width":48,"height":64,"properties":[{"name":"variant","type":"int","value":1}]},{"id":101786,"name":"tree_1739","type":"tree","x":3104,"y":3872,"width":48,"height":64,"properties":[{"name":"variant","type":"int","value":2}]},{"id":101787,"name":"tree_1740","type":"tree","x":3232,"y":3872,"width":48,"height":64,"properties":[{"name":"variant","type":"int","value":0}]},{"id":101788,"name":"tree_1741","type":"tree","x":3328,"y":3872,"width":48,"height":64,"properties":[{"name":"variant","type":"int","value":1}]},{"id":101789,"name":"tree_1742","type":"tree","x":3456,"y":3872,"width":48,"height":64,"properties":[{"name":"variant","type":"int","value":2}]},{"id":101790,"name":"tree_1743","type":"tree","x":3552,"y":3872,"width":48,"height":64,"properties":[{"name":"variant","type":"int","value":0}]},{"id":101791,"name":"tree_1744","type":"tree","x":3616,"y":3872,"width":48,"height":64,"properties":[{"name":"variant","type":"int","value":1}]},{"id":101792,"name":"tree_1745","type":"tree","x":3936,"y":3872,"width":48,"height":64,"properties":[{"name":"variant","type":"int","value":2}]},{"id":101793,"name":"tree_1746","type":"tree","x":4032,"y":3872,"width":48,"height":64,"properties":[{"name":"variant","type":"int","value":0}]},{"id":101794,"name":"tree_1747","type":"tree","x":4096,"y":3872,"width":48,"height":64,"properties":[{"name":"variant","type":"int","value":1}]},{"id":101795,"name":"tree_1748","type":"tree","x":4224,"y":3872,"width":48,"height":64,"properties":[{"name":"variant","type":"int","value":2}]},{"id":101796,"name":"tree_1749","type":"tree","x":4320,"y":3872,"width":48,"height":64,"properties":[{"name":"variant","type":"int","value":0}]},{"id":101797,"name":"tree_1750","type":"tree","x":4384,"y":3872,"width":48,"height":64,"properties":[{"name":"variant","type":"int","value":1}]},{"id":101798,"name":"tree_1751","type":"tree","x":5248,"y":3872,"width":48,"height":64,"properties":[{"name":"variant","type":"int","value":2}]},{"id":101799,"name":"tree_1752","type":"tree","x":5376,"y":3872,"width":48,"height":64,"properties":[{"name":"variant","type":"int","value":0}]},{"id":101800,"name":"tree_1753","type":"tree","x":5472,"y":3872,"width":48,"height":64,"properties":[{"name":"variant","type":"int","value":1}]},{"id":101801,"name":"tree_1754","type":"tree","x":5504,"y":3872,"width":48,"height":64,"properties":[{"name":"variant","type":"int","value":2}]},{"id":101802,"name":"tree_1755","type":"tree","x":5536,"y":3872,"width":48,"height":64,"properties":[{"name":"variant","type":"int","value":0}]},{"id":101803,"name":"tree_1756","type":"tree","x":5568,"y":3872,"width":48,"height":64,"properties":[{"name":"variant","type":"int","value":1}]},{"id":101804,"name":"tree_1757","type":"tree","x":5600,"y":3872,"width":48,"height":64,"properties":[{"name":"variant","type":"int","value":2}]},{"id":101805,"name":"tree_1758","type":"tree","x":5632,"y":3872,"width":48,"height":64,"properties":[{"name":"variant","type":"int","value":0}]},{"id":101806,"name":"tree_1759","type":"tree","x":5824,"y":3872,"width":48,"height":64,"properties":[{"name":"variant","type":"int","value":1}]},{"id":101807,"name":"tree_1760","type":"tree","x":5856,"y":3872,"width":48,"height":64,"properties":[{"name":"variant","type":"int","value":2}]},{"id":101808,"name":"tree_1761","type":"tree","x":5952,"y":3872,"width":48,"height":64,"properties":[{"name":"variant","type":"int","value":0}]},{"id":101809,"name":"tree_1762","type":"tree","x":2560,"y":3904,"width":48,"height":64,"properties":[{"name":"variant","type":"int","value":1}]},{"id":101810,"name":"tree_1763","type":"tree","x":2880,"y":3904,"width":48,"height":64,"properties":[{"name":"variant","type":"int","value":2}]},{"id":101811,"name":"tree_1764","type":"tree","x":2976,"y":3904,"width":48,"height":64,"properties":[{"name":"variant","type":"int","value":0}]},{"id":101812,"name":"tree_1765","type":"tree","x":3008,"y":3904,"width":48,"height":64,"properties":[{"name":"variant","type":"int","value":1}]},{"id":101813,"name":"tree_1766","type":"tree","x":3136,"y":3904,"width":48,"height":64,"properties":[{"name":"variant","type":"int","value":2}]},{"id":101814,"name":"tree_1767","type":"tree","x":3232,"y":3904,"width":48,"height":64,"properties":[{"name":"variant","type":"int","value":0}]},{"id":101815,"name":"tree_1768","type":"tree","x":3296,"y":3904,"width":48,"height":64,"properties":[{"name":"variant","type":"int","value":1}]},{"id":101816,"name":"tree_1769","type":"tree","x":3328,"y":3904,"width":48,"height":64,"properties":[{"name":"variant","type":"int","value":2}]},{"id":101817,"name":"tree_1770","type":"tree","x":3360,"y":3904,"width":48,"height":64,"properties":[{"name":"variant","type":"int","value":0}]},{"id":101818,"name":"tree_1771","type":"tree","x":3392,"y":3904,"width":48,"height":64,"properties":[{"name":"variant","type":"int","value":1}]},{"id":101819,"name":"tree_1772","type":"tree","x":3904,"y":3904,"width":48,"height":64,"properties":[{"name":"variant","type":"int","value":2}]},{"id":101820,"name":"tree_1773","type":"tree","x":4032,"y":3904,"width":48,"height":64,"properties":[{"name":"variant","type":"int","value":0}]},{"id":101821,"name":"tree_1774","type":"tree","x":4064,"y":3904,"width":48,"height":64,"properties":[{"name":"variant","type":"int","value":1}]},{"id":101822,"name":"tree_1775","type":"tree","x":4096,"y":3904,"width":48,"height":64,"properties":[{"name":"variant","type":"int","value":2}]},{"id":101823,"name":"tree_1776","type":"tree","x":4128,"y":3904,"width":48,"height":64,"properties":[{"name":"variant","type":"int","value":0}]},{"id":101824,"name":"tree_1777","type":"tree","x":4192,"y":3904,"width":48,"height":64,"properties":[{"name":"variant","type":"int","value":1}]},{"id":101825,"name":"tree_1778","type":"tree","x":4256,"y":3904,"width":48,"height":64,"properties":[{"name":"variant","type":"int","value":2}]},{"id":101826,"name":"tree_1779","type":"tree","x":4320,"y":3904,"width":48,"height":64,"properties":[{"name":"variant","type":"int","value":0}]},{"id":101827,"name":"tree_1780","type":"tree","x":5312,"y":3904,"width":48,"height":64,"properties":[{"name":"variant","type":"int","value":1}]},{"id":101828,"name":"tree_1781","type":"tree","x":5344,"y":3904,"width":48,"height":64,"properties":[{"name":"variant","type":"int","value":2}]},{"id":101829,"name":"tree_1782","type":"tree","x":5408,"y":3904,"width":48,"height":64,"properties":[{"name":"variant","type":"int","value":0}]},{"id":101830,"name":"tree_1783","type":"tree","x":5472,"y":3904,"width":48,"height":64,"properties":[{"name":"variant","type":"int","value":1}]},{"id":101831,"name":"tree_1784","type":"tree","x":5536,"y":3904,"width":48,"height":64,"properties":[{"name":"variant","type":"int","value":2}]},{"id":101832,"name":"tree_1785","type":"tree","x":5568,"y":3904,"width":48,"height":64,"properties":[{"name":"variant","type":"int","value":0}]},{"id":101833,"name":"tree_1786","type":"tree","x":5600,"y":3904,"width":48,"height":64,"properties":[{"name":"variant","type":"int","value":1}]},{"id":101834,"name":"tree_1787","type":"tree","x":5696,"y":3904,"width":48,"height":64,"properties":[{"name":"variant","type":"int","value":2}]},{"id":101835,"name":"tree_1788","type":"tree","x":5856,"y":3904,"width":48,"height":64,"properties":[{"name":"variant","type":"int","value":0}]},{"id":101836,"name":"tree_1789","type":"tree","x":5888,"y":3904,"width":48,"height":64,"properties":[{"name":"variant","type":"int","value":1}]},{"id":101837,"name":"tree_1790","type":"tree","x":5920,"y":3904,"width":48,"height":64,"properties":[{"name":"variant","type":"int","value":2}]},{"id":101838,"name":"tree_1791","type":"tree","x":5984,"y":3904,"width":48,"height":64,"properties":[{"name":"variant","type":"int","value":0}]},{"id":101839,"name":"tree_1792","type":"tree","x":6080,"y":3904,"width":48,"height":64,"properties":[{"name":"variant","type":"int","value":1}]},{"id":101840,"name":"tree_1793","type":"tree","x":2592,"y":3936,"width":48,"height":64,"properties":[{"name":"variant","type":"int","value":2}]},{"id":101841,"name":"tree_1794","type":"tree","x":2624,"y":3936,"width":48,"height":64,"properties":[{"name":"variant","type":"int","value":0}]},{"id":101842,"name":"tree_1795","type":"tree","x":2688,"y":3936,"width":48,"height":64,"properties":[{"name":"variant","type":"int","value":1}]},{"id":101843,"name":"tree_1796","type":"tree","x":2848,"y":3936,"width":48,"height":64,"properties":[{"name":"variant","type":"int","value":2}]},{"id":101844,"name":"tree_1797","type":"tree","x":2944,"y":3936,"width":48,"height":64,"properties":[{"name":"variant","type":"int","value":0}]},{"id":101845,"name":"tree_1798","type":"tree","x":2976,"y":3936,"width":48,"height":64,"properties":[{"name":"variant","type":"int","value":1}]},{"id":101846,"name":"tree_1799","type":"tree","x":3296,"y":3936,"width":48,"height":64,"properties":[{"name":"variant","type":"int","value":2}]},{"id":101847,"name":"tree_1800","type":"tree","x":3328,"y":3936,"width":48,"height":64,"properties":[{"name":"variant","type":"int","value":0}]},{"id":101848,"name":"tree_1801","type":"tree","x":3392,"y":3936,"width":48,"height":64,"properties":[{"name":"variant","type":"int","value":1}]},{"id":101849,"name":"tree_1802","type":"tree","x":3424,"y":3936,"width":48,"height":64,"properties":[{"name":"variant","type":"int","value":2}]},{"id":101850,"name":"tree_1803","type":"tree","x":3680,"y":3936,"width":48,"height":64,"properties":[{"name":"variant","type":"int","value":0}]},{"id":101851,"name":"tree_1804","type":"tree","x":4000,"y":3936,"width":48,"height":64,"properties":[{"name":"variant","type":"int","value":1}]},{"id":101852,"name":"tree_1805","type":"tree","x":4032,"y":3936,"width":48,"height":64,"properties":[{"name":"variant","type":"int","value":2}]},{"id":101853,"name":"tree_1806","type":"tree","x":4192,"y":3936,"width":48,"height":64,"properties":[{"name":"variant","type":"int","value":0}]},{"id":101854,"name":"tree_1807","type":"tree","x":4256,"y":3936,"width":48,"height":64,"properties":[{"name":"variant","type":"int","value":1}]},{"id":101855,"name":"tree_1808","type":"tree","x":4448,"y":3936,"width":48,"height":64,"properties":[{"name":"variant","type":"int","value":2}]},{"id":101856,"name":"tree_1809","type":"tree","x":4672,"y":3936,"width":48,"height":64,"properties":[{"name":"variant","type":"int","value":0}]},{"id":101857,"name":"tree_1810","type":"tree","x":5152,"y":3936,"width":48,"height":64,"properties":[{"name":"variant","type":"int","value":1}]},{"id":101858,"name":"tree_1811","type":"tree","x":5568,"y":3936,"width":48,"height":64,"properties":[{"name":"variant","type":"int","value":2}]},{"id":101859,"name":"tree_1812","type":"tree","x":5760,"y":3936,"width":48,"height":64,"properties":[{"name":"variant","type":"int","value":0}]},{"id":101860,"name":"tree_1813","type":"tree","x":5792,"y":3936,"width":48,"height":64,"properties":[{"name":"variant","type":"int","value":1}]},{"id":101861,"name":"tree_1814","type":"tree","x":5952,"y":3936,"width":48,"height":64,"properties":[{"name":"variant","type":"int","value":2}]},{"id":101862,"name":"tree_1815","type":"tree","x":5984,"y":3936,"width":48,"height":64,"properties":[{"name":"variant","type":"int","value":0}]},{"id":101863,"name":"tree_1816","type":"tree","x":6048,"y":3936,"width":48,"height":64,"properties":[{"name":"variant","type":"int","value":1}]},{"id":101864,"name":"tree_1817","type":"tree","x":2560,"y":3968,"width":48,"height":64,"properties":[{"name":"variant","type":"int","value":2}]},{"id":101865,"name":"tree_1818","type":"tree","x":2656,"y":3968,"width":48,"height":64,"properties":[{"name":"variant","type":"int","value":0}]},{"id":101866,"name":"tree_1819","type":"tree","x":2688,"y":3968,"width":48,"height":64,"properties":[{"name":"variant","type":"int","value":1}]},{"id":101867,"name":"tree_1820","type":"tree","x":2720,"y":3968,"width":48,"height":64,"properties":[{"name":"variant","type":"int","value":2}]},{"id":101868,"name":"tree_1821","type":"tree","x":2816,"y":3968,"width":48,"height":64,"properties":[{"name":"variant","type":"int","value":0}]},{"id":101869,"name":"tree_1822","type":"tree","x":2848,"y":3968,"width":48,"height":64,"properties":[{"name":"variant","type":"int","value":1}]},{"id":101870,"name":"tree_1823","type":"tree","x":2912,"y":3968,"width":48,"height":64,"properties":[{"name":"variant","type":"int","value":2}]},{"id":101871,"name":"tree_1824","type":"tree","x":2976,"y":3968,"width":48,"height":64,"properties":[{"name":"variant","type":"int","value":0}]},{"id":101872,"name":"tree_1825","type":"tree","x":3040,"y":3968,"width":48,"height":64,"properties":[{"name":"variant","type":"int","value":1}]},{"id":101873,"name":"tree_1826","type":"tree","x":3072,"y":3968,"width":48,"height":64,"properties":[{"name":"variant","type":"int","value":2}]},{"id":101874,"name":"tree_1827","type":"tree","x":3296,"y":3968,"width":48,"height":64,"properties":[{"name":"variant","type":"int","value":0}]},{"id":101875,"name":"tree_1828","type":"tree","x":3392,"y":3968,"width":48,"height":64,"properties":[{"name":"variant","type":"int","value":1}]},{"id":101876,"name":"tree_1829","type":"tree","x":3424,"y":3968,"width":48,"height":64,"properties":[{"name":"variant","type":"int","value":2}]},{"id":101877,"name":"tree_1830","type":"tree","x":3520,"y":3968,"width":48,"height":64,"properties":[{"name":"variant","type":"int","value":0}]},{"id":101878,"name":"tree_1831","type":"tree","x":3776,"y":3968,"width":48,"height":64,"properties":[{"name":"variant","type":"int","value":1}]},{"id":101879,"name":"tree_1832","type":"tree","x":3872,"y":3968,"width":48,"height":64,"properties":[{"name":"variant","type":"int","value":2}]},{"id":101880,"name":"tree_1833","type":"tree","x":4000,"y":3968,"width":48,"height":64,"properties":[{"name":"variant","type":"int","value":0}]},{"id":101881,"name":"tree_1834","type":"tree","x":4032,"y":3968,"width":48,"height":64,"properties":[{"name":"variant","type":"int","value":1}]},{"id":101882,"name":"tree_1835","type":"tree","x":4064,"y":3968,"width":48,"height":64,"properties":[{"name":"variant","type":"int","value":2}]},{"id":101883,"name":"tree_1836","type":"tree","x":4128,"y":3968,"width":48,"height":64,"properties":[{"name":"variant","type":"int","value":0}]},{"id":101884,"name":"tree_1837","type":"tree","x":4192,"y":3968,"width":48,"height":64,"properties":[{"name":"variant","type":"int","value":1}]},{"id":101885,"name":"tree_1838","type":"tree","x":4256,"y":3968,"width":48,"height":64,"properties":[{"name":"variant","type":"int","value":2}]},{"id":101886,"name":"tree_1839","type":"tree","x":4320,"y":3968,"width":48,"height":64,"properties":[{"name":"variant","type":"int","value":0}]},{"id":101887,"name":"tree_1840","type":"tree","x":4384,"y":3968,"width":48,"height":64,"properties":[{"name":"variant","type":"int","value":1}]},{"id":101888,"name":"tree_1841","type":"tree","x":4480,"y":3968,"width":48,"height":64,"properties":[{"name":"variant","type":"int","value":2}]},{"id":101889,"name":"tree_1842","type":"tree","x":4512,"y":3968,"width":48,"height":64,"properties":[{"name":"variant","type":"int","value":0}]},{"id":101890,"name":"tree_1843","type":"tree","x":4544,"y":3968,"width":48,"height":64,"properties":[{"name":"variant","type":"int","value":1}]},{"id":101891,"name":"tree_1844","type":"tree","x":4608,"y":3968,"width":48,"height":64,"properties":[{"name":"variant","type":"int","value":2}]},{"id":101892,"name":"tree_1845","type":"tree","x":5088,"y":3968,"width":48,"height":64,"properties":[{"name":"variant","type":"int","value":0}]},{"id":101893,"name":"tree_1846","type":"tree","x":5408,"y":3968,"width":48,"height":64,"properties":[{"name":"variant","type":"int","value":1}]},{"id":101894,"name":"tree_1847","type":"tree","x":5440,"y":3968,"width":48,"height":64,"properties":[{"name":"variant","type":"int","value":2}]},{"id":101895,"name":"tree_1848","type":"tree","x":5504,"y":3968,"width":48,"height":64,"properties":[{"name":"variant","type":"int","value":0}]},{"id":101896,"name":"tree_1849","type":"tree","x":5568,"y":3968,"width":48,"height":64,"properties":[{"name":"variant","type":"int","value":1}]},{"id":101897,"name":"tree_1850","type":"tree","x":5696,"y":3968,"width":48,"height":64,"properties":[{"name":"variant","type":"int","value":2}]},{"id":101898,"name":"tree_1851","type":"tree","x":5728,"y":3968,"width":48,"height":64,"properties":[{"name":"variant","type":"int","value":0}]},{"id":101899,"name":"tree_1852","type":"tree","x":5760,"y":3968,"width":48,"height":64,"properties":[{"name":"variant","type":"int","value":1}]},{"id":101900,"name":"tree_1853","type":"tree","x":5920,"y":3968,"width":48,"height":64,"properties":[{"name":"variant","type":"int","value":2}]},{"id":101901,"name":"tree_1854","type":"tree","x":2688,"y":4000,"width":48,"height":64,"properties":[{"name":"variant","type":"int","value":0}]},{"id":101902,"name":"tree_1855","type":"tree","x":2976,"y":4000,"width":48,"height":64,"properties":[{"name":"variant","type":"int","value":1}]},{"id":101903,"name":"tree_1856","type":"tree","x":3040,"y":4000,"width":48,"height":64,"properties":[{"name":"variant","type":"int","value":2}]},{"id":101904,"name":"tree_1857","type":"tree","x":3168,"y":4000,"width":48,"height":64,"properties":[{"name":"variant","type":"int","value":0}]},{"id":101905,"name":"tree_1858","type":"tree","x":3264,"y":4000,"width":48,"height":64,"properties":[{"name":"variant","type":"int","value":1}]},{"id":101906,"name":"tree_1859","type":"tree","x":3296,"y":4000,"width":48,"height":64,"properties":[{"name":"variant","type":"int","value":2}]},{"id":101907,"name":"tree_1860","type":"tree","x":3584,"y":4000,"width":48,"height":64,"properties":[{"name":"variant","type":"int","value":0}]},{"id":101908,"name":"tree_1861","type":"tree","x":3616,"y":4000,"width":48,"height":64,"properties":[{"name":"variant","type":"int","value":1}]},{"id":101909,"name":"tree_1862","type":"tree","x":3680,"y":4000,"width":48,"height":64,"properties":[{"name":"variant","type":"int","value":2}]},{"id":101910,"name":"tree_1863","type":"tree","x":3712,"y":4000,"width":48,"height":64,"properties":[{"name":"variant","type":"int","value":0}]},{"id":101911,"name":"tree_1864","type":"tree","x":3808,"y":4000,"width":48,"height":64,"properties":[{"name":"variant","type":"int","value":1}]},{"id":101912,"name":"tree_1865","type":"tree","x":3904,"y":4000,"width":48,"height":64,"properties":[{"name":"variant","type":"int","value":2}]},{"id":101913,"name":"tree_1866","type":"tree","x":3936,"y":4000,"width":48,"height":64,"properties":[{"name":"variant","type":"int","value":0}]},{"id":101914,"name":"tree_1867","type":"tree","x":4000,"y":4000,"width":48,"height":64,"properties":[{"name":"variant","type":"int","value":1}]},{"id":101915,"name":"tree_1868","type":"tree","x":4032,"y":4000,"width":48,"height":64,"properties":[{"name":"variant","type":"int","value":2}]},{"id":101916,"name":"tree_1869","type":"tree","x":4128,"y":4000,"width":48,"height":64,"properties":[{"name":"variant","type":"int","value":0}]},{"id":101917,"name":"tree_1870","type":"tree","x":4352,"y":4000,"width":48,"height":64,"properties":[{"name":"variant","type":"int","value":1}]},{"id":101918,"name":"tree_1871","type":"tree","x":4416,"y":4000,"width":48,"height":64,"properties":[{"name":"variant","type":"int","value":2}]},{"id":101919,"name":"tree_1872","type":"tree","x":4448,"y":4000,"width":48,"height":64,"properties":[{"name":"variant","type":"int","value":0}]},{"id":101920,"name":"tree_1873","type":"tree","x":5088,"y":4000,"width":48,"height":64,"properties":[{"name":"variant","type":"int","value":1}]},{"id":101921,"name":"tree_1874","type":"tree","x":5248,"y":4000,"width":48,"height":64,"properties":[{"name":"variant","type":"int","value":2}]},{"id":101922,"name":"tree_1875","type":"tree","x":5312,"y":4000,"width":48,"height":64,"properties":[{"name":"variant","type":"int","value":0}]},{"id":101923,"name":"tree_1876","type":"tree","x":5472,"y":4000,"width":48,"height":64,"properties":[{"name":"variant","type":"int","value":1}]},{"id":101924,"name":"tree_1877","type":"tree","x":5504,"y":4000,"width":48,"height":64,"properties":[{"name":"variant","type":"int","value":2}]},{"id":101925,"name":"tree_1878","type":"tree","x":5536,"y":4000,"width":48,"height":64,"properties":[{"name":"variant","type":"int","value":0}]},{"id":101926,"name":"tree_1879","type":"tree","x":5568,"y":4000,"width":48,"height":64,"properties":[{"name":"variant","type":"int","value":1}]},{"id":101927,"name":"tree_1880","type":"tree","x":5600,"y":4000,"width":48,"height":64,"properties":[{"name":"variant","type":"int","value":2}]},{"id":101928,"name":"tree_1881","type":"tree","x":5632,"y":4000,"width":48,"height":64,"properties":[{"name":"variant","type":"int","value":0}]},{"id":101929,"name":"tree_1882","type":"tree","x":5792,"y":4000,"width":48,"height":64,"properties":[{"name":"variant","type":"int","value":1}]},{"id":101930,"name":"tree_1883","type":"tree","x":5824,"y":4000,"width":48,"height":64,"properties":[{"name":"variant","type":"int","value":2}]},{"id":101931,"name":"tree_1884","type":"tree","x":6016,"y":4000,"width":48,"height":64,"properties":[{"name":"variant","type":"int","value":0}]},{"id":101932,"name":"tree_1885","type":"tree","x":2720,"y":4032,"width":48,"height":64,"properties":[{"name":"variant","type":"int","value":1}]},{"id":101933,"name":"tree_1886","type":"tree","x":2752,"y":4032,"width":48,"height":64,"properties":[{"name":"variant","type":"int","value":2}]},{"id":101934,"name":"tree_1887","type":"tree","x":2912,"y":4032,"width":48,"height":64,"properties":[{"name":"variant","type":"int","value":0}]},{"id":101935,"name":"tree_1888","type":"tree","x":3008,"y":4032,"width":48,"height":64,"properties":[{"name":"variant","type":"int","value":1}]},{"id":101936,"name":"tree_1889","type":"tree","x":3040,"y":4032,"width":48,"height":64,"properties":[{"name":"variant","type":"int","value":2}]},{"id":101937,"name":"tree_1890","type":"tree","x":3232,"y":4032,"width":48,"height":64,"properties":[{"name":"variant","type":"int","value":0}]},{"id":101938,"name":"tree_1891","type":"tree","x":3264,"y":4032,"width":48,"height":64,"properties":[{"name":"variant","type":"int","value":1}]},{"id":101939,"name":"tree_1892","type":"tree","x":3296,"y":4032,"width":48,"height":64,"properties":[{"name":"variant","type":"int","value":2}]},{"id":101940,"name":"tree_1893","type":"tree","x":3328,"y":4032,"width":48,"height":64,"properties":[{"name":"variant","type":"int","value":0}]},{"id":101941,"name":"tree_1894","type":"tree","x":3360,"y":4032,"width":48,"height":64,"properties":[{"name":"variant","type":"int","value":1}]},{"id":101942,"name":"tree_1895","type":"tree","x":3392,"y":4032,"width":48,"height":64,"properties":[{"name":"variant","type":"int","value":2}]},{"id":101943,"name":"tree_1896","type":"tree","x":3424,"y":4032,"width":48,"height":64,"properties":[{"name":"variant","type":"int","value":0}]},{"id":101944,"name":"tree_1897","type":"tree","x":3488,"y":4032,"width":48,"height":64,"properties":[{"name":"variant","type":"int","value":1}]},{"id":101945,"name":"tree_1898","type":"tree","x":3584,"y":4032,"width":48,"height":64,"properties":[{"name":"variant","type":"int","value":2}]},{"id":101946,"name":"tree_1899","type":"tree","x":3616,"y":4032,"width":48,"height":64,"properties":[{"name":"variant","type":"int","value":0}]},{"id":101947,"name":"tree_1900","type":"tree","x":3648,"y":4032,"width":48,"height":64,"properties":[{"name":"variant","type":"int","value":1}]},{"id":101948,"name":"tree_1901","type":"tree","x":3712,"y":4032,"width":48,"height":64,"properties":[{"name":"variant","type":"int","value":2}]},{"id":101949,"name":"tree_1902","type":"tree","x":3744,"y":4032,"width":48,"height":64,"properties":[{"name":"variant","type":"int","value":0}]},{"id":101950,"name":"tree_1903","type":"tree","x":3808,"y":4032,"width":48,"height":64,"properties":[{"name":"variant","type":"int","value":1}]},{"id":101951,"name":"tree_1904","type":"tree","x":3840,"y":4032,"width":48,"height":64,"properties":[{"name":"variant","type":"int","value":2}]},{"id":101952,"name":"tree_1905","type":"tree","x":3872,"y":4032,"width":48,"height":64,"properties":[{"name":"variant","type":"int","value":0}]},{"id":101953,"name":"tree_1906","type":"tree","x":3936,"y":4032,"width":48,"height":64,"properties":[{"name":"variant","type":"int","value":1}]},{"id":101954,"name":"tree_1907","type":"tree","x":3968,"y":4032,"width":48,"height":64,"properties":[{"name":"variant","type":"int","value":2}]},{"id":101955,"name":"tree_1908","type":"tree","x":4000,"y":4032,"width":48,"height":64,"properties":[{"name":"variant","type":"int","value":0}]},{"id":101956,"name":"tree_1909","type":"tree","x":4224,"y":4032,"width":48,"height":64,"properties":[{"name":"variant","type":"int","value":1}]},{"id":101957,"name":"tree_1910","type":"tree","x":4320,"y":4032,"width":48,"height":64,"properties":[{"name":"variant","type":"int","value":2}]},{"id":101958,"name":"tree_1911","type":"tree","x":4352,"y":4032,"width":48,"height":64,"properties":[{"name":"variant","type":"int","value":0}]},{"id":101959,"name":"tree_1912","type":"tree","x":4416,"y":4032,"width":48,"height":64,"properties":[{"name":"variant","type":"int","value":1}]},{"id":101960,"name":"tree_1913","type":"tree","x":4448,"y":4032,"width":48,"height":64,"properties":[{"name":"variant","type":"int","value":2}]},{"id":101961,"name":"tree_1914","type":"tree","x":4480,"y":4032,"width":48,"height":64,"properties":[{"name":"variant","type":"int","value":0}]},{"id":101962,"name":"tree_1915","type":"tree","x":4576,"y":4032,"width":48,"height":64,"properties":[{"name":"variant","type":"int","value":1}]},{"id":101963,"name":"tree_1916","type":"tree","x":4608,"y":4032,"width":48,"height":64,"properties":[{"name":"variant","type":"int","value":2}]},{"id":101964,"name":"tree_1917","type":"tree","x":4640,"y":4032,"width":48,"height":64,"properties":[{"name":"variant","type":"int","value":0}]},{"id":101965,"name":"tree_1918","type":"tree","x":4672,"y":4032,"width":48,"height":64,"properties":[{"name":"variant","type":"int","value":1}]},{"id":101966,"name":"tree_1919","type":"tree","x":4768,"y":4032,"width":48,"height":64,"properties":[{"name":"variant","type":"int","value":2}]},{"id":101967,"name":"tree_1920","type":"tree","x":5376,"y":4032,"width":48,"height":64,"properties":[{"name":"variant","type":"int","value":0}]},{"id":101968,"name":"tree_1921","type":"tree","x":5408,"y":4032,"width":48,"height":64,"properties":[{"name":"variant","type":"int","value":1}]},{"id":101969,"name":"tree_1922","type":"tree","x":5440,"y":4032,"width":48,"height":64,"properties":[{"name":"variant","type":"int","value":2}]},{"id":101970,"name":"tree_1923","type":"tree","x":5536,"y":4032,"width":48,"height":64,"properties":[{"name":"variant","type":"int","value":0}]},{"id":101971,"name":"tree_1924","type":"tree","x":5728,"y":4032,"width":48,"height":64,"properties":[{"name":"variant","type":"int","value":1}]},{"id":101972,"name":"tree_1925","type":"tree","x":5760,"y":4032,"width":48,"height":64,"properties":[{"name":"variant","type":"int","value":2}]},{"id":101973,"name":"tree_1926","type":"tree","x":2720,"y":4064,"width":48,"height":64,"properties":[{"name":"variant","type":"int","value":0}]},{"id":101974,"name":"tree_1927","type":"tree","x":2752,"y":4064,"width":48,"height":64,"properties":[{"name":"variant","type":"int","value":1}]},{"id":101975,"name":"tree_1928","type":"tree","x":2880,"y":4064,"width":48,"height":64,"properties":[{"name":"variant","type":"int","value":2}]},{"id":101976,"name":"tree_1929","type":"tree","x":3232,"y":4064,"width":48,"height":64,"properties":[{"name":"variant","type":"int","value":0}]},{"id":101977,"name":"tree_1930","type":"tree","x":3264,"y":4064,"width":48,"height":64,"properties":[{"name":"variant","type":"int","value":1}]},{"id":101978,"name":"tree_1931","type":"tree","x":3424,"y":4064,"width":48,"height":64,"properties":[{"name":"variant","type":"int","value":2}]},{"id":101979,"name":"tree_1932","type":"tree","x":3488,"y":4064,"width":48,"height":64,"properties":[{"name":"variant","type":"int","value":0}]},{"id":101980,"name":"tree_1933","type":"tree","x":3552,"y":4064,"width":48,"height":64,"properties":[{"name":"variant","type":"int","value":1}]},{"id":101981,"name":"tree_1934","type":"tree","x":3648,"y":4064,"width":48,"height":64,"properties":[{"name":"variant","type":"int","value":2}]},{"id":101982,"name":"tree_1935","type":"tree","x":3744,"y":4064,"width":48,"height":64,"properties":[{"name":"variant","type":"int","value":0}]},{"id":101983,"name":"tree_1936","type":"tree","x":3808,"y":4064,"width":48,"height":64,"properties":[{"name":"variant","type":"int","value":1}]},{"id":101984,"name":"tree_1937","type":"tree","x":3840,"y":4064,"width":48,"height":64,"properties":[{"name":"variant","type":"int","value":2}]},{"id":101985,"name":"tree_1938","type":"tree","x":3968,"y":4064,"width":48,"height":64,"properties":[{"name":"variant","type":"int","value":0}]},{"id":101986,"name":"tree_1939","type":"tree","x":4128,"y":4064,"width":48,"height":64,"properties":[{"name":"variant","type":"int","value":1}]},{"id":101987,"name":"tree_1940","type":"tree","x":4352,"y":4064,"width":48,"height":64,"properties":[{"name":"variant","type":"int","value":2}]},{"id":101988,"name":"tree_1941","type":"tree","x":4384,"y":4064,"width":48,"height":64,"properties":[{"name":"variant","type":"int","value":0}]},{"id":101989,"name":"tree_1942","type":"tree","x":4416,"y":4064,"width":48,"height":64,"properties":[{"name":"variant","type":"int","value":1}]},{"id":101990,"name":"tree_1943","type":"tree","x":4480,"y":4064,"width":48,"height":64,"properties":[{"name":"variant","type":"int","value":2}]},{"id":101991,"name":"tree_1944","type":"tree","x":4512,"y":4064,"width":48,"height":64,"properties":[{"name":"variant","type":"int","value":0}]},{"id":101992,"name":"tree_1945","type":"tree","x":4640,"y":4064,"width":48,"height":64,"properties":[{"name":"variant","type":"int","value":1}]},{"id":101993,"name":"tree_1946","type":"tree","x":4672,"y":4064,"width":48,"height":64,"properties":[{"name":"variant","type":"int","value":2}]},{"id":101994,"name":"tree_1947","type":"tree","x":4704,"y":4064,"width":48,"height":64,"properties":[{"name":"variant","type":"int","value":0}]},{"id":101995,"name":"tree_1948","type":"tree","x":4736,"y":4064,"width":48,"height":64,"properties":[{"name":"variant","type":"int","value":1}]},{"id":101996,"name":"tree_1949","type":"tree","x":5312,"y":4064,"width":48,"height":64,"properties":[{"name":"variant","type":"int","value":2}]},{"id":101997,"name":"tree_1950","type":"tree","x":5408,"y":4064,"width":48,"height":64,"properties":[{"name":"variant","type":"int","value":0}]},{"id":101998,"name":"tree_1951","type":"tree","x":5696,"y":4064,"width":48,"height":64,"properties":[{"name":"variant","type":"int","value":1}]},{"id":101999,"name":"tree_1952","type":"tree","x":5728,"y":4064,"width":48,"height":64,"properties":[{"name":"variant","type":"int","value":2}]},{"id":102000,"name":"tree_1953","type":"tree","x":5760,"y":4064,"width":48,"height":64,"properties":[{"name":"variant","type":"int","value":0}]},{"id":102001,"name":"tree_1954","type":"tree","x":2880,"y":4096,"width":48,"height":64,"properties":[{"name":"variant","type":"int","value":1}]},{"id":102002,"name":"tree_1955","type":"tree","x":3136,"y":4096,"width":48,"height":64,"properties":[{"name":"variant","type":"int","value":2}]},{"id":102003,"name":"tree_1956","type":"tree","x":3232,"y":4096,"width":48,"height":64,"properties":[{"name":"variant","type":"int","value":0}]},{"id":102004,"name":"tree_1957","type":"tree","x":3488,"y":4096,"width":48,"height":64,"properties":[{"name":"variant","type":"int","value":1}]},{"id":102005,"name":"tree_1958","type":"tree","x":3520,"y":4096,"width":48,"height":64,"properties":[{"name":"variant","type":"int","value":2}]},{"id":102006,"name":"tree_1959","type":"tree","x":3552,"y":4096,"width":48,"height":64,"properties":[{"name":"variant","type":"int","value":0}]},{"id":102007,"name":"tree_1960","type":"tree","x":3616,"y":4096,"width":48,"height":64,"properties":[{"name":"variant","type":"int","value":1}]},{"id":102008,"name":"tree_1961","type":"tree","x":3648,"y":4096,"width":48,"height":64,"properties":[{"name":"variant","type":"int","value":2}]},{"id":102009,"name":"tree_1962","type":"tree","x":3712,"y":4096,"width":48,"height":64,"properties":[{"name":"variant","type":"int","value":0}]},{"id":102010,"name":"tree_1963","type":"tree","x":3776,"y":4096,"width":48,"height":64,"properties":[{"name":"variant","type":"int","value":1}]},{"id":102011,"name":"tree_1964","type":"tree","x":3808,"y":4096,"width":48,"height":64,"properties":[{"name":"variant","type":"int","value":2}]},{"id":102012,"name":"tree_1965","type":"tree","x":3872,"y":4096,"width":48,"height":64,"properties":[{"name":"variant","type":"int","value":0}]},{"id":102013,"name":"tree_1966","type":"tree","x":3936,"y":4096,"width":48,"height":64,"properties":[{"name":"variant","type":"int","value":1}]},{"id":102014,"name":"tree_1967","type":"tree","x":3968,"y":4096,"width":48,"height":64,"properties":[{"name":"variant","type":"int","value":2}]},{"id":102015,"name":"tree_1968","type":"tree","x":4256,"y":4096,"width":48,"height":64,"properties":[{"name":"variant","type":"int","value":0}]},{"id":102016,"name":"tree_1969","type":"tree","x":4288,"y":4096,"width":48,"height":64,"properties":[{"name":"variant","type":"int","value":1}]},{"id":102017,"name":"tree_1970","type":"tree","x":4320,"y":4096,"width":48,"height":64,"properties":[{"name":"variant","type":"int","value":2}]},{"id":102018,"name":"tree_1971","type":"tree","x":4384,"y":4096,"width":48,"height":64,"properties":[{"name":"variant","type":"int","value":0}]},{"id":102019,"name":"tree_1972","type":"tree","x":4512,"y":4096,"width":48,"height":64,"properties":[{"name":"variant","type":"int","value":1}]},{"id":102020,"name":"tree_1973","type":"tree","x":4640,"y":4096,"width":48,"height":64,"properties":[{"name":"variant","type":"int","value":2}]},{"id":102021,"name":"tree_1974","type":"tree","x":4672,"y":4096,"width":48,"height":64,"properties":[{"name":"variant","type":"int","value":0}]},{"id":102022,"name":"tree_1975","type":"tree","x":4704,"y":4096,"width":48,"height":64,"properties":[{"name":"variant","type":"int","value":1}]},{"id":102023,"name":"tree_1976","type":"tree","x":4864,"y":4096,"width":48,"height":64,"properties":[{"name":"variant","type":"int","value":2}]},{"id":102024,"name":"tree_1977","type":"tree","x":4928,"y":4096,"width":48,"height":64,"properties":[{"name":"variant","type":"int","value":0}]},{"id":102025,"name":"tree_1978","type":"tree","x":5184,"y":4096,"width":48,"height":64,"properties":[{"name":"variant","type":"int","value":1}]},{"id":102026,"name":"tree_1979","type":"tree","x":5248,"y":4096,"width":48,"height":64,"properties":[{"name":"variant","type":"int","value":2}]},{"id":102027,"name":"tree_1980","type":"tree","x":5280,"y":4096,"width":48,"height":64,"properties":[{"name":"variant","type":"int","value":0}]},{"id":102028,"name":"tree_1981","type":"tree","x":5312,"y":4096,"width":48,"height":64,"properties":[{"name":"variant","type":"int","value":1}]},{"id":102029,"name":"tree_1982","type":"tree","x":5344,"y":4096,"width":48,"height":64,"properties":[{"name":"variant","type":"int","value":2}]},{"id":102030,"name":"tree_1983","type":"tree","x":5408,"y":4096,"width":48,"height":64,"properties":[{"name":"variant","type":"int","value":0}]},{"id":102031,"name":"tree_1984","type":"tree","x":5440,"y":4096,"width":48,"height":64,"properties":[{"name":"variant","type":"int","value":1}]},{"id":102032,"name":"tree_1985","type":"tree","x":5632,"y":4096,"width":48,"height":64,"properties":[{"name":"variant","type":"int","value":2}]},{"id":102033,"name":"tree_1986","type":"tree","x":5664,"y":4096,"width":48,"height":64,"properties":[{"name":"variant","type":"int","value":0}]},{"id":102034,"name":"tree_1987","type":"tree","x":3136,"y":4128,"width":48,"height":64,"properties":[{"name":"variant","type":"int","value":1}]},{"id":102035,"name":"tree_1988","type":"tree","x":3456,"y":4128,"width":48,"height":64,"properties":[{"name":"variant","type":"int","value":2}]},{"id":102036,"name":"tree_1989","type":"tree","x":3520,"y":4128,"width":48,"height":64,"properties":[{"name":"variant","type":"int","value":0}]},{"id":102037,"name":"tree_1990","type":"tree","x":3584,"y":4128,"width":48,"height":64,"properties":[{"name":"variant","type":"int","value":1}]},{"id":102038,"name":"tree_1991","type":"tree","x":3616,"y":4128,"width":48,"height":64,"properties":[{"name":"variant","type":"int","value":2}]},{"id":102039,"name":"tree_1992","type":"tree","x":3712,"y":4128,"width":48,"height":64,"properties":[{"name":"variant","type":"int","value":0}]},{"id":102040,"name":"tree_1993","type":"tree","x":3872,"y":4128,"width":48,"height":64,"properties":[{"name":"variant","type":"int","value":1}]},{"id":102041,"name":"tree_1994","type":"tree","x":3968,"y":4128,"width":48,"height":64,"properties":[{"name":"variant","type":"int","value":2}]},{"id":102042,"name":"tree_1995","type":"tree","x":4096,"y":4128,"width":48,"height":64,"properties":[{"name":"variant","type":"int","value":0}]},{"id":102043,"name":"tree_1996","type":"tree","x":4160,"y":4128,"width":48,"height":64,"properties":[{"name":"variant","type":"int","value":1}]},{"id":102044,"name":"tree_1997","type":"tree","x":4352,"y":4128,"width":48,"height":64,"properties":[{"name":"variant","type":"int","value":2}]},{"id":102045,"name":"tree_1998","type":"tree","x":4416,"y":4128,"width":48,"height":64,"properties":[{"name":"variant","type":"int","value":0}]},{"id":102046,"name":"tree_1999","type":"tree","x":4512,"y":4128,"width":48,"height":64,"properties":[{"name":"variant","type":"int","value":1}]},{"id":102047,"name":"tree_2000","type":"tree","x":4576,"y":4128,"width":48,"height":64,"properties":[{"name":"variant","type":"int","value":2}]},{"id":102048,"name":"tree_2001","type":"tree","x":4640,"y":4128,"width":48,"height":64,"properties":[{"name":"variant","type":"int","value":0}]},{"id":102049,"name":"tree_2002","type":"tree","x":4704,"y":4128,"width":48,"height":64,"properties":[{"name":"variant","type":"int","value":1}]},{"id":102050,"name":"tree_2003","type":"tree","x":4864,"y":4128,"width":48,"height":64,"properties":[{"name":"variant","type":"int","value":2}]},{"id":102051,"name":"tree_2004","type":"tree","x":4928,"y":4128,"width":48,"height":64,"properties":[{"name":"variant","type":"int","value":0}]},{"id":102052,"name":"tree_2005","type":"tree","x":4992,"y":4128,"width":48,"height":64,"properties":[{"name":"variant","type":"int","value":1}]},{"id":102053,"name":"tree_2006","type":"tree","x":5024,"y":4128,"width":48,"height":64,"properties":[{"name":"variant","type":"int","value":2}]},{"id":102054,"name":"tree_2007","type":"tree","x":5152,"y":4128,"width":48,"height":64,"properties":[{"name":"variant","type":"int","value":0}]},{"id":102055,"name":"tree_2008","type":"tree","x":5184,"y":4128,"width":48,"height":64,"properties":[{"name":"variant","type":"int","value":1}]},{"id":102056,"name":"tree_2009","type":"tree","x":5216,"y":4128,"width":48,"height":64,"properties":[{"name":"variant","type":"int","value":2}]},{"id":102057,"name":"tree_2010","type":"tree","x":5248,"y":4128,"width":48,"height":64,"properties":[{"name":"variant","type":"int","value":0}]},{"id":102058,"name":"tree_2011","type":"tree","x":5312,"y":4128,"width":48,"height":64,"properties":[{"name":"variant","type":"int","value":1}]},{"id":102059,"name":"tree_2012","type":"tree","x":5344,"y":4128,"width":48,"height":64,"properties":[{"name":"variant","type":"int","value":2}]},{"id":102060,"name":"tree_2013","type":"tree","x":5408,"y":4128,"width":48,"height":64,"properties":[{"name":"variant","type":"int","value":0}]},{"id":102061,"name":"tree_2014","type":"tree","x":3168,"y":4160,"width":48,"height":64,"properties":[{"name":"variant","type":"int","value":1}]},{"id":102062,"name":"tree_2015","type":"tree","x":3200,"y":4160,"width":48,"height":64,"properties":[{"name":"variant","type":"int","value":2}]},{"id":102063,"name":"tree_2016","type":"tree","x":3232,"y":4160,"width":48,"height":64,"properties":[{"name":"variant","type":"int","value":0}]},{"id":102064,"name":"tree_2017","type":"tree","x":3296,"y":4160,"width":48,"height":64,"properties":[{"name":"variant","type":"int","value":1}]},{"id":102065,"name":"tree_2018","type":"tree","x":3488,"y":4160,"width":48,"height":64,"properties":[{"name":"variant","type":"int","value":2}]},{"id":102066,"name":"tree_2019","type":"tree","x":3552,"y":4160,"width":48,"height":64,"properties":[{"name":"variant","type":"int","value":0}]},{"id":102067,"name":"tree_2020","type":"tree","x":3584,"y":4160,"width":48,"height":64,"properties":[{"name":"variant","type":"int","value":1}]},{"id":102068,"name":"tree_2021","type":"tree","x":3616,"y":4160,"width":48,"height":64,"properties":[{"name":"variant","type":"int","value":2}]},{"id":102069,"name":"tree_2022","type":"tree","x":3712,"y":4160,"width":48,"height":64,"properties":[{"name":"variant","type":"int","value":0}]},{"id":102070,"name":"tree_2023","type":"tree","x":3744,"y":4160,"width":48,"height":64,"properties":[{"name":"variant","type":"int","value":1}]},{"id":102071,"name":"tree_2024","type":"tree","x":3840,"y":4160,"width":48,"height":64,"properties":[{"name":"variant","type":"int","value":2}]},{"id":102072,"name":"tree_2025","type":"tree","x":4064,"y":4160,"width":48,"height":64,"properties":[{"name":"variant","type":"int","value":0}]},{"id":102073,"name":"tree_2026","type":"tree","x":4160,"y":4160,"width":48,"height":64,"properties":[{"name":"variant","type":"int","value":1}]},{"id":102074,"name":"tree_2027","type":"tree","x":4256,"y":4160,"width":48,"height":64,"properties":[{"name":"variant","type":"int","value":2}]},{"id":102075,"name":"tree_2028","type":"tree","x":4320,"y":4160,"width":48,"height":64,"properties":[{"name":"variant","type":"int","value":0}]},{"id":102076,"name":"tree_2029","type":"tree","x":4352,"y":4160,"width":48,"height":64,"properties":[{"name":"variant","type":"int","value":1}]},{"id":102077,"name":"tree_2030","type":"tree","x":4512,"y":4160,"width":48,"height":64,"properties":[{"name":"variant","type":"int","value":2}]},{"id":102078,"name":"tree_2031","type":"tree","x":4576,"y":4160,"width":48,"height":64,"properties":[{"name":"variant","type":"int","value":0}]},{"id":102079,"name":"tree_2032","type":"tree","x":4608,"y":4160,"width":48,"height":64,"properties":[{"name":"variant","type":"int","value":1}]},{"id":102080,"name":"tree_2033","type":"tree","x":4640,"y":4160,"width":48,"height":64,"properties":[{"name":"variant","type":"int","value":2}]},{"id":102081,"name":"tree_2034","type":"tree","x":4768,"y":4160,"width":48,"height":64,"properties":[{"name":"variant","type":"int","value":0}]},{"id":102082,"name":"tree_2035","type":"tree","x":4896,"y":4160,"width":48,"height":64,"properties":[{"name":"variant","type":"int","value":1}]},{"id":102083,"name":"tree_2036","type":"tree","x":4992,"y":4160,"width":48,"height":64,"properties":[{"name":"variant","type":"int","value":2}]},{"id":102084,"name":"tree_2037","type":"tree","x":5120,"y":4160,"width":48,"height":64,"properties":[{"name":"variant","type":"int","value":0}]},{"id":102085,"name":"tree_2038","type":"tree","x":5184,"y":4160,"width":48,"height":64,"properties":[{"name":"variant","type":"int","value":1}]},{"id":102086,"name":"tree_2039","type":"tree","x":5248,"y":4160,"width":48,"height":64,"properties":[{"name":"variant","type":"int","value":2}]},{"id":102087,"name":"tree_2040","type":"tree","x":5312,"y":4160,"width":48,"height":64,"properties":[{"name":"variant","type":"int","value":0}]},{"id":102088,"name":"tree_2041","type":"tree","x":2784,"y":4192,"width":48,"height":64,"properties":[{"name":"variant","type":"int","value":1}]},{"id":102089,"name":"tree_2042","type":"tree","x":3200,"y":4192,"width":48,"height":64,"properties":[{"name":"variant","type":"int","value":2}]},{"id":102090,"name":"tree_2043","type":"tree","x":3456,"y":4192,"width":48,"height":64,"properties":[{"name":"variant","type":"int","value":0}]},{"id":102091,"name":"tree_2044","type":"tree","x":3488,"y":4192,"width":48,"height":64,"properties":[{"name":"variant","type":"int","value":1}]},{"id":102092,"name":"tree_2045","type":"tree","x":3616,"y":4192,"width":48,"height":64,"properties":[{"name":"variant","type":"int","value":2}]},{"id":102093,"name":"tree_2046","type":"tree","x":3648,"y":4192,"width":48,"height":64,"properties":[{"name":"variant","type":"int","value":0}]},{"id":102094,"name":"tree_2047","type":"tree","x":3744,"y":4192,"width":48,"height":64,"properties":[{"name":"variant","type":"int","value":1}]},{"id":102095,"name":"tree_2048","type":"tree","x":3808,"y":4192,"width":48,"height":64,"properties":[{"name":"variant","type":"int","value":2}]},{"id":102096,"name":"tree_2049","type":"tree","x":3872,"y":4192,"width":48,"height":64,"properties":[{"name":"variant","type":"int","value":0}]},{"id":102097,"name":"tree_2050","type":"tree","x":3904,"y":4192,"width":48,"height":64,"properties":[{"name":"variant","type":"int","value":1}]},{"id":102098,"name":"tree_2051","type":"tree","x":3936,"y":4192,"width":48,"height":64,"properties":[{"name":"variant","type":"int","value":2}]},{"id":102099,"name":"tree_2052","type":"tree","x":4000,"y":4192,"width":48,"height":64,"properties":[{"name":"variant","type":"int","value":0}]},{"id":102100,"name":"tree_2053","type":"tree","x":4032,"y":4192,"width":48,"height":64,"properties":[{"name":"variant","type":"int","value":1}]},{"id":102101,"name":"tree_2054","type":"tree","x":4064,"y":4192,"width":48,"height":64,"properties":[{"name":"variant","type":"int","value":2}]},{"id":102102,"name":"tree_2055","type":"tree","x":4128,"y":4192,"width":48,"height":64,"properties":[{"name":"variant","type":"int","value":0}]},{"id":102103,"name":"tree_2056","type":"tree","x":4160,"y":4192,"width":48,"height":64,"properties":[{"name":"variant","type":"int","value":1}]},{"id":102104,"name":"tree_2057","type":"tree","x":4192,"y":4192,"width":48,"height":64,"properties":[{"name":"variant","type":"int","value":2}]},{"id":102105,"name":"tree_2058","type":"tree","x":4256,"y":4192,"width":48,"height":64,"properties":[{"name":"variant","type":"int","value":0}]},{"id":102106,"name":"tree_2059","type":"tree","x":4288,"y":4192,"width":48,"height":64,"properties":[{"name":"variant","type":"int","value":1}]},{"id":102107,"name":"tree_2060","type":"tree","x":4352,"y":4192,"width":48,"height":64,"properties":[{"name":"variant","type":"int","value":2}]},{"id":102108,"name":"tree_2061","type":"tree","x":4384,"y":4192,"width":48,"height":64,"properties":[{"name":"variant","type":"int","value":0}]},{"id":102109,"name":"tree_2062","type":"tree","x":4448,"y":4192,"width":48,"height":64,"properties":[{"name":"variant","type":"int","value":1}]},{"id":102110,"name":"tree_2063","type":"tree","x":4480,"y":4192,"width":48,"height":64,"properties":[{"name":"variant","type":"int","value":2}]},{"id":102111,"name":"tree_2064","type":"tree","x":4544,"y":4192,"width":48,"height":64,"properties":[{"name":"variant","type":"int","value":0}]},{"id":102112,"name":"tree_2065","type":"tree","x":4576,"y":4192,"width":48,"height":64,"properties":[{"name":"variant","type":"int","value":1}]},{"id":102113,"name":"tree_2066","type":"tree","x":4608,"y":4192,"width":48,"height":64,"properties":[{"name":"variant","type":"int","value":2}]},{"id":102114,"name":"tree_2067","type":"tree","x":4640,"y":4192,"width":48,"height":64,"properties":[{"name":"variant","type":"int","value":0}]},{"id":102115,"name":"tree_2068","type":"tree","x":4832,"y":4192,"width":48,"height":64,"properties":[{"name":"variant","type":"int","value":1}]},{"id":102116,"name":"tree_2069","type":"tree","x":4960,"y":4192,"width":48,"height":64,"properties":[{"name":"variant","type":"int","value":2}]},{"id":102117,"name":"tree_2070","type":"tree","x":5056,"y":4192,"width":48,"height":64,"properties":[{"name":"variant","type":"int","value":0}]},{"id":102118,"name":"tree_2071","type":"tree","x":5184,"y":4192,"width":48,"height":64,"properties":[{"name":"variant","type":"int","value":1}]},{"id":102119,"name":"tree_2072","type":"tree","x":5216,"y":4192,"width":48,"height":64,"properties":[{"name":"variant","type":"int","value":2}]},{"id":102120,"name":"tree_2073","type":"tree","x":3040,"y":4224,"width":48,"height":64,"properties":[{"name":"variant","type":"int","value":0}]},{"id":102121,"name":"tree_2074","type":"tree","x":3072,"y":4224,"width":48,"height":64,"properties":[{"name":"variant","type":"int","value":1}]},{"id":102122,"name":"tree_2075","type":"tree","x":3168,"y":4224,"width":48,"height":64,"properties":[{"name":"variant","type":"int","value":2}]},{"id":102123,"name":"tree_2076","type":"tree","x":3200,"y":4224,"width":48,"height":64,"properties":[{"name":"variant","type":"int","value":0}]},{"id":102124,"name":"tree_2077","type":"tree","x":3232,"y":4224,"width":48,"height":64,"properties":[{"name":"variant","type":"int","value":1}]},{"id":102125,"name":"tree_2078","type":"tree","x":3296,"y":4224,"width":48,"height":64,"properties":[{"name":"variant","type":"int","value":2}]},{"id":102126,"name":"tree_2079","type":"tree","x":3392,"y":4224,"width":48,"height":64,"properties":[{"name":"variant","type":"int","value":0}]},{"id":102127,"name":"tree_2080","type":"tree","x":3424,"y":4224,"width":48,"height":64,"properties":[{"name":"variant","type":"int","value":1}]},{"id":102128,"name":"tree_2081","type":"tree","x":3520,"y":4224,"width":48,"height":64,"properties":[{"name":"variant","type":"int","value":2}]},{"id":102129,"name":"tree_2082","type":"tree","x":3648,"y":4224,"width":48,"height":64,"properties":[{"name":"variant","type":"int","value":0}]},{"id":102130,"name":"tree_2083","type":"tree","x":3744,"y":4224,"width":48,"height":64,"properties":[{"name":"variant","type":"int","value":1}]},{"id":102131,"name":"tree_2084","type":"tree","x":3776,"y":4224,"width":48,"height":64,"properties":[{"name":"variant","type":"int","value":2}]},{"id":102132,"name":"tree_2085","type":"tree","x":3808,"y":4224,"width":48,"height":64,"properties":[{"name":"variant","type":"int","value":0}]},{"id":102133,"name":"tree_2086","type":"tree","x":3936,"y":4224,"width":48,"height":64,"properties":[{"name":"variant","type":"int","value":1}]},{"id":102134,"name":"tree_2087","type":"tree","x":4032,"y":4224,"width":48,"height":64,"properties":[{"name":"variant","type":"int","value":2}]},{"id":102135,"name":"tree_2088","type":"tree","x":4096,"y":4224,"width":48,"height":64,"properties":[{"name":"variant","type":"int","value":0}]},{"id":102136,"name":"tree_2089","type":"tree","x":4128,"y":4224,"width":48,"height":64,"properties":[{"name":"variant","type":"int","value":1}]},{"id":102137,"name":"tree_2090","type":"tree","x":4224,"y":4224,"width":48,"height":64,"properties":[{"name":"variant","type":"int","value":2}]},{"id":102138,"name":"tree_2091","type":"tree","x":4480,"y":4224,"width":48,"height":64,"properties":[{"name":"variant","type":"int","value":0}]},{"id":102139,"name":"tree_2092","type":"tree","x":4512,"y":4224,"width":48,"height":64,"properties":[{"name":"variant","type":"int","value":1}]},{"id":102140,"name":"tree_2093","type":"tree","x":4704,"y":4224,"width":48,"height":64,"properties":[{"name":"variant","type":"int","value":2}]},{"id":102141,"name":"tree_2094","type":"tree","x":4800,"y":4224,"width":48,"height":64,"properties":[{"name":"variant","type":"int","value":0}]},{"id":102142,"name":"tree_2095","type":"tree","x":4992,"y":4224,"width":48,"height":64,"properties":[{"name":"variant","type":"int","value":1}]},{"id":102143,"name":"tree_2096","type":"tree","x":5024,"y":4224,"width":48,"height":64,"properties":[{"name":"variant","type":"int","value":2}]},{"id":102144,"name":"tree_2097","type":"tree","x":2784,"y":4256,"width":48,"height":64,"properties":[{"name":"variant","type":"int","value":0}]},{"id":102145,"name":"tree_2098","type":"tree","x":2880,"y":4256,"width":48,"height":64,"properties":[{"name":"variant","type":"int","value":1}]},{"id":102146,"name":"tree_2099","type":"tree","x":2912,"y":4256,"width":48,"height":64,"properties":[{"name":"variant","type":"int","value":2}]},{"id":102147,"name":"tree_2100","type":"tree","x":2976,"y":4256,"width":48,"height":64,"properties":[{"name":"variant","type":"int","value":0}]},{"id":102148,"name":"tree_2101","type":"tree","x":3040,"y":4256,"width":48,"height":64,"properties":[{"name":"variant","type":"int","value":1}]},{"id":102149,"name":"tree_2102","type":"tree","x":3072,"y":4256,"width":48,"height":64,"properties":[{"name":"variant","type":"int","value":2}]},{"id":102150,"name":"tree_2103","type":"tree","x":3104,"y":4256,"width":48,"height":64,"properties":[{"name":"variant","type":"int","value":0}]},{"id":102151,"name":"tree_2104","type":"tree","x":3136,"y":4256,"width":48,"height":64,"properties":[{"name":"variant","type":"int","value":1}]},{"id":102152,"name":"tree_2105","type":"tree","x":3168,"y":4256,"width":48,"height":64,"properties":[{"name":"variant","type":"int","value":2}]},{"id":102153,"name":"tree_2106","type":"tree","x":3200,"y":4256,"width":48,"height":64,"properties":[{"name":"variant","type":"int","value":0}]},{"id":102154,"name":"tree_2107","type":"tree","x":3232,"y":4256,"width":48,"height":64,"properties":[{"name":"variant","type":"int","value":1}]},{"id":102155,"name":"tree_2108","type":"tree","x":3264,"y":4256,"width":48,"height":64,"properties":[{"name":"variant","type":"int","value":2}]},{"id":102156,"name":"tree_2109","type":"tree","x":3328,"y":4256,"width":48,"height":64,"properties":[{"name":"variant","type":"int","value":0}]},{"id":102157,"name":"tree_2110","type":"tree","x":3360,"y":4256,"width":48,"height":64,"properties":[{"name":"variant","type":"int","value":1}]},{"id":102158,"name":"tree_2111","type":"tree","x":3392,"y":4256,"width":48,"height":64,"properties":[{"name":"variant","type":"int","value":2}]},{"id":102159,"name":"tree_2112","type":"tree","x":3424,"y":4256,"width":48,"height":64,"properties":[{"name":"variant","type":"int","value":0}]},{"id":102160,"name":"tree_2113","type":"tree","x":3488,"y":4256,"width":48,"height":64,"properties":[{"name":"variant","type":"int","value":1}]},{"id":102161,"name":"tree_2114","type":"tree","x":3520,"y":4256,"width":48,"height":64,"properties":[{"name":"variant","type":"int","value":2}]},{"id":102162,"name":"tree_2115","type":"tree","x":3552,"y":4256,"width":48,"height":64,"properties":[{"name":"variant","type":"int","value":0}]},{"id":102163,"name":"tree_2116","type":"tree","x":3584,"y":4256,"width":48,"height":64,"properties":[{"name":"variant","type":"int","value":1}]},{"id":102164,"name":"tree_2117","type":"tree","x":3680,"y":4256,"width":48,"height":64,"properties":[{"name":"variant","type":"int","value":2}]},{"id":102165,"name":"tree_2118","type":"tree","x":3776,"y":4256,"width":48,"height":64,"properties":[{"name":"variant","type":"int","value":0}]},{"id":102166,"name":"tree_2119","type":"tree","x":3904,"y":4256,"width":48,"height":64,"properties":[{"name":"variant","type":"int","value":1}]},{"id":102167,"name":"tree_2120","type":"tree","x":3936,"y":4256,"width":48,"height":64,"properties":[{"name":"variant","type":"int","value":2}]},{"id":102168,"name":"tree_2121","type":"tree","x":4032,"y":4256,"width":48,"height":64,"properties":[{"name":"variant","type":"int","value":0}]},{"id":102169,"name":"tree_2122","type":"tree","x":4160,"y":4256,"width":48,"height":64,"properties":[{"name":"variant","type":"int","value":1}]},{"id":102170,"name":"tree_2123","type":"tree","x":4192,"y":4256,"width":48,"height":64,"properties":[{"name":"variant","type":"int","value":2}]},{"id":102171,"name":"tree_2124","type":"tree","x":4320,"y":4256,"width":48,"height":64,"properties":[{"name":"variant","type":"int","value":0}]},{"id":102172,"name":"tree_2125","type":"tree","x":4384,"y":4256,"width":48,"height":64,"properties":[{"name":"variant","type":"int","value":1}]},{"id":102173,"name":"tree_2126","type":"tree","x":4416,"y":4256,"width":48,"height":64,"properties":[{"name":"variant","type":"int","value":2}]},{"id":102174,"name":"tree_2127","type":"tree","x":4448,"y":4256,"width":48,"height":64,"properties":[{"name":"variant","type":"int","value":0}]},{"id":102175,"name":"tree_2128","type":"tree","x":4480,"y":4256,"width":48,"height":64,"properties":[{"name":"variant","type":"int","value":1}]},{"id":102176,"name":"tree_2129","type":"tree","x":4576,"y":4256,"width":48,"height":64,"properties":[{"name":"variant","type":"int","value":2}]},{"id":102177,"name":"tree_2130","type":"tree","x":4672,"y":4256,"width":48,"height":64,"properties":[{"name":"variant","type":"int","value":0}]},{"id":102178,"name":"tree_2131","type":"tree","x":4704,"y":4256,"width":48,"height":64,"properties":[{"name":"variant","type":"int","value":1}]},{"id":102179,"name":"tree_2132","type":"tree","x":4736,"y":4256,"width":48,"height":64,"properties":[{"name":"variant","type":"int","value":2}]},{"id":102180,"name":"tree_2133","type":"tree","x":4768,"y":4256,"width":48,"height":64,"properties":[{"name":"variant","type":"int","value":0}]},{"id":102181,"name":"tree_2134","type":"tree","x":2912,"y":4288,"width":48,"height":64,"properties":[{"name":"variant","type":"int","value":1}]},{"id":102182,"name":"tree_2135","type":"tree","x":2944,"y":4288,"width":48,"height":64,"properties":[{"name":"variant","type":"int","value":2}]},{"id":102183,"name":"tree_2136","type":"tree","x":2976,"y":4288,"width":48,"height":64,"properties":[{"name":"variant","type":"int","value":0}]},{"id":102184,"name":"tree_2137","type":"tree","x":3008,"y":4288,"width":48,"height":64,"properties":[{"name":"variant","type":"int","value":1}]},{"id":102185,"name":"tree_2138","type":"tree","x":3040,"y":4288,"width":48,"height":64,"properties":[{"name":"variant","type":"int","value":2}]},{"id":102186,"name":"tree_2139","type":"tree","x":3104,"y":4288,"width":48,"height":64,"properties":[{"name":"variant","type":"int","value":0}]},{"id":102187,"name":"tree_2140","type":"tree","x":3232,"y":4288,"width":48,"height":64,"properties":[{"name":"variant","type":"int","value":1}]},{"id":102188,"name":"tree_2141","type":"tree","x":3392,"y":4288,"width":48,"height":64,"properties":[{"name":"variant","type":"int","value":2}]},{"id":102189,"name":"tree_2142","type":"tree","x":3456,"y":4288,"width":48,"height":64,"properties":[{"name":"variant","type":"int","value":0}]},{"id":102190,"name":"tree_2143","type":"tree","x":3520,"y":4288,"width":48,"height":64,"properties":[{"name":"variant","type":"int","value":1}]},{"id":102191,"name":"tree_2144","type":"tree","x":3552,"y":4288,"width":48,"height":64,"properties":[{"name":"variant","type":"int","value":2}]},{"id":102192,"name":"tree_2145","type":"tree","x":3744,"y":4288,"width":48,"height":64,"properties":[{"name":"variant","type":"int","value":0}]},{"id":102193,"name":"tree_2146","type":"tree","x":3904,"y":4288,"width":48,"height":64,"properties":[{"name":"variant","type":"int","value":1}]},{"id":102194,"name":"tree_2147","type":"tree","x":3968,"y":4288,"width":48,"height":64,"properties":[{"name":"variant","type":"int","value":2}]},{"id":102195,"name":"tree_2148","type":"tree","x":4160,"y":4288,"width":48,"height":64,"properties":[{"name":"variant","type":"int","value":0}]},{"id":102196,"name":"tree_2149","type":"tree","x":4224,"y":4288,"width":48,"height":64,"properties":[{"name":"variant","type":"int","value":1}]},{"id":102197,"name":"tree_2150","type":"tree","x":4256,"y":4288,"width":48,"height":64,"properties":[{"name":"variant","type":"int","value":2}]},{"id":102198,"name":"tree_2151","type":"tree","x":4320,"y":4288,"width":48,"height":64,"properties":[{"name":"variant","type":"int","value":0}]},{"id":102199,"name":"tree_2152","type":"tree","x":4512,"y":4288,"width":48,"height":64,"properties":[{"name":"variant","type":"int","value":1}]},{"id":102200,"name":"tree_2153","type":"tree","x":4544,"y":4288,"width":48,"height":64,"properties":[{"name":"variant","type":"int","value":2}]},{"id":102201,"name":"tree_2154","type":"tree","x":4640,"y":4288,"width":48,"height":64,"properties":[{"name":"variant","type":"int","value":0}]},{"id":102202,"name":"tree_2155","type":"tree","x":4736,"y":4288,"width":48,"height":64,"properties":[{"name":"variant","type":"int","value":1}]},{"id":102203,"name":"tree_2156","type":"tree","x":3040,"y":4320,"width":48,"height":64,"properties":[{"name":"variant","type":"int","value":2}]},{"id":102204,"name":"tree_2157","type":"tree","x":3072,"y":4320,"width":48,"height":64,"properties":[{"name":"variant","type":"int","value":0}]},{"id":102205,"name":"tree_2158","type":"tree","x":3168,"y":4320,"width":48,"height":64,"properties":[{"name":"variant","type":"int","value":1}]},{"id":102206,"name":"tree_2159","type":"tree","x":3200,"y":4320,"width":48,"height":64,"properties":[{"name":"variant","type":"int","value":2}]},{"id":102207,"name":"tree_2160","type":"tree","x":3296,"y":4320,"width":48,"height":64,"properties":[{"name":"variant","type":"int","value":0}]},{"id":102208,"name":"tree_2161","type":"tree","x":3328,"y":4320,"width":48,"height":64,"properties":[{"name":"variant","type":"int","value":1}]},{"id":102209,"name":"tree_2162","type":"tree","x":3360,"y":4320,"width":48,"height":64,"properties":[{"name":"variant","type":"int","value":2}]},{"id":102210,"name":"tree_2163","type":"tree","x":3392,"y":4320,"width":48,"height":64,"properties":[{"name":"variant","type":"int","value":0}]},{"id":102211,"name":"tree_2164","type":"tree","x":3488,"y":4320,"width":48,"height":64,"properties":[{"name":"variant","type":"int","value":1}]},{"id":102212,"name":"tree_2165","type":"tree","x":3520,"y":4320,"width":48,"height":64,"properties":[{"name":"variant","type":"int","value":2}]},{"id":102213,"name":"tree_2166","type":"tree","x":3808,"y":4320,"width":48,"height":64,"properties":[{"name":"variant","type":"int","value":0}]},{"id":102214,"name":"tree_2167","type":"tree","x":4032,"y":4320,"width":48,"height":64,"properties":[{"name":"variant","type":"int","value":1}]},{"id":102215,"name":"tree_2168","type":"tree","x":4128,"y":4320,"width":48,"height":64,"properties":[{"name":"variant","type":"int","value":2}]},{"id":102216,"name":"tree_2169","type":"tree","x":4192,"y":4320,"width":48,"height":64,"properties":[{"name":"variant","type":"int","value":0}]},{"id":102217,"name":"tree_2170","type":"tree","x":4256,"y":4320,"width":48,"height":64,"properties":[{"name":"variant","type":"int","value":1}]},{"id":102218,"name":"tree_2171","type":"tree","x":4416,"y":4320,"width":48,"height":64,"properties":[{"name":"variant","type":"int","value":2}]},{"id":102219,"name":"tree_2172","type":"tree","x":4448,"y":4320,"width":48,"height":64,"properties":[{"name":"variant","type":"int","value":0}]},{"id":102220,"name":"tree_2173","type":"tree","x":4576,"y":4320,"width":48,"height":64,"properties":[{"name":"variant","type":"int","value":1}]},{"id":102221,"name":"tree_2174","type":"tree","x":4608,"y":4320,"width":48,"height":64,"properties":[{"name":"variant","type":"int","value":2}]},{"id":102222,"name":"tree_2175","type":"tree","x":4704,"y":4320,"width":48,"height":64,"properties":[{"name":"variant","type":"int","value":0}]},{"id":102223,"name":"tree_2176","type":"tree","x":3072,"y":4352,"width":48,"height":64,"properties":[{"name":"variant","type":"int","value":1}]},{"id":102224,"name":"tree_2177","type":"tree","x":3136,"y":4352,"width":48,"height":64,"properties":[{"name":"variant","type":"int","value":2}]},{"id":102225,"name":"tree_2178","type":"tree","x":3200,"y":4352,"width":48,"height":64,"properties":[{"name":"variant","type":"int","value":0}]},{"id":102226,"name":"tree_2179","type":"tree","x":3296,"y":4352,"width":48,"height":64,"properties":[{"name":"variant","type":"int","value":1}]},{"id":102227,"name":"tree_2180","type":"tree","x":3328,"y":4352,"width":48,"height":64,"properties":[{"name":"variant","type":"int","value":2}]},{"id":102228,"name":"tree_2181","type":"tree","x":3392,"y":4352,"width":48,"height":64,"properties":[{"name":"variant","type":"int","value":0}]},{"id":102229,"name":"tree_2182","type":"tree","x":3712,"y":4352,"width":48,"height":64,"properties":[{"name":"variant","type":"int","value":1}]},{"id":102230,"name":"tree_2183","type":"tree","x":3968,"y":4352,"width":48,"height":64,"properties":[{"name":"variant","type":"int","value":2}]},{"id":102231,"name":"tree_2184","type":"tree","x":4096,"y":4352,"width":48,"height":64,"properties":[{"name":"variant","type":"int","value":0}]},{"id":102232,"name":"tree_2185","type":"tree","x":4192,"y":4352,"width":48,"height":64,"properties":[{"name":"variant","type":"int","value":1}]},{"id":102233,"name":"tree_2186","type":"tree","x":4224,"y":4352,"width":48,"height":64,"properties":[{"name":"variant","type":"int","value":2}]},{"id":102234,"name":"tree_2187","type":"tree","x":4352,"y":4352,"width":48,"height":64,"properties":[{"name":"variant","type":"int","value":0}]},{"id":102235,"name":"tree_2188","type":"tree","x":4448,"y":4352,"width":48,"height":64,"properties":[{"name":"variant","type":"int","value":1}]},{"id":102236,"name":"tree_2189","type":"tree","x":4544,"y":4352,"width":48,"height":64,"properties":[{"name":"variant","type":"int","value":2}]},{"id":102237,"name":"tree_2190","type":"tree","x":4608,"y":4352,"width":48,"height":64,"properties":[{"name":"variant","type":"int","value":0}]},{"id":102238,"name":"tree_2191","type":"tree","x":4672,"y":4352,"width":48,"height":64,"properties":[{"name":"variant","type":"int","value":1}]},{"id":102239,"name":"tree_2192","type":"tree","x":3168,"y":4384,"width":48,"height":64,"properties":[{"name":"variant","type":"int","value":2}]},{"id":102240,"name":"tree_2193","type":"tree","x":3200,"y":4384,"width":48,"height":64,"properties":[{"name":"variant","type":"int","value":0}]},{"id":102241,"name":"tree_2194","type":"tree","x":3232,"y":4384,"width":48,"height":64,"properties":[{"name":"variant","type":"int","value":1}]},{"id":102242,"name":"tree_2195","type":"tree","x":3296,"y":4384,"width":48,"height":64,"properties":[{"name":"variant","type":"int","value":2}]},{"id":102243,"name":"tree_2196","type":"tree","x":3328,"y":4384,"width":48,"height":64,"properties":[{"name":"variant","type":"int","value":0}]},{"id":102244,"name":"tree_2197","type":"tree","x":3840,"y":4384,"width":48,"height":64,"properties":[{"name":"variant","type":"int","value":1}]},{"id":102245,"name":"tree_2198","type":"tree","x":3904,"y":4384,"width":48,"height":64,"properties":[{"name":"variant","type":"int","value":2}]},{"id":102246,"name":"tree_2199","type":"tree","x":4160,"y":4384,"width":48,"height":64,"properties":[{"name":"variant","type":"int","value":0}]},{"id":102247,"name":"tree_2200","type":"tree","x":4192,"y":4384,"width":48,"height":64,"properties":[{"name":"variant","type":"int","value":1}]},{"id":102248,"name":"tree_2201","type":"tree","x":4224,"y":4384,"width":48,"height":64,"properties":[{"name":"variant","type":"int","value":2}]},{"id":102249,"name":"tree_2202","type":"tree","x":4288,"y":4384,"width":48,"height":64,"properties":[{"name":"variant","type":"int","value":0}]},{"id":102250,"name":"tree_2203","type":"tree","x":4352,"y":4384,"width":48,"height":64,"properties":[{"name":"variant","type":"int","value":1}]},{"id":102251,"name":"tree_2204","type":"tree","x":4384,"y":4384,"width":48,"height":64,"properties":[{"name":"variant","type":"int","value":2}]},{"id":102252,"name":"tree_2205","type":"tree","x":4448,"y":4384,"width":48,"height":64,"properties":[{"name":"variant","type":"int","value":0}]},{"id":102253,"name":"tree_2206","type":"tree","x":4576,"y":4384,"width":48,"height":64,"properties":[{"name":"variant","type":"int","value":1}]},{"id":102254,"name":"tree_2207","type":"tree","x":4608,"y":4384,"width":48,"height":64,"properties":[{"name":"variant","type":"int","value":2}]},{"id":102255,"name":"tree_2208","type":"tree","x":4672,"y":4384,"width":48,"height":64,"properties":[{"name":"variant","type":"int","value":0}]},{"id":102256,"name":"tree_2209","type":"tree","x":3200,"y":4416,"width":48,"height":64,"properties":[{"name":"variant","type":"int","value":1}]},{"id":102257,"name":"tree_2210","type":"tree","x":3232,"y":4416,"width":48,"height":64,"properties":[{"name":"variant","type":"int","value":2}]},{"id":102258,"name":"tree_2211","type":"tree","x":3360,"y":4416,"width":48,"height":64,"properties":[{"name":"variant","type":"int","value":0}]},{"id":102259,"name":"tree_2212","type":"tree","x":3456,"y":4416,"width":48,"height":64,"properties":[{"name":"variant","type":"int","value":1}]},{"id":102260,"name":"tree_2213","type":"tree","x":3648,"y":4416,"width":48,"height":64,"properties":[{"name":"variant","type":"int","value":2}]},{"id":102261,"name":"tree_2214","type":"tree","x":3808,"y":4416,"width":48,"height":64,"properties":[{"name":"variant","type":"int","value":0}]},{"id":102262,"name":"tree_2215","type":"tree","x":4064,"y":4416,"width":48,"height":64,"properties":[{"name":"variant","type":"int","value":1}]},{"id":102263,"name":"tree_2216","type":"tree","x":4096,"y":4416,"width":48,"height":64,"properties":[{"name":"variant","type":"int","value":2}]},{"id":102264,"name":"tree_2217","type":"tree","x":4160,"y":4416,"width":48,"height":64,"properties":[{"name":"variant","type":"int","value":0}]},{"id":102265,"name":"tree_2218","type":"tree","x":4288,"y":4416,"width":48,"height":64,"properties":[{"name":"variant","type":"int","value":1}]},{"id":102266,"name":"tree_2219","type":"tree","x":4416,"y":4416,"width":48,"height":64,"properties":[{"name":"variant","type":"int","value":2}]},{"id":102267,"name":"tree_2220","type":"tree","x":4576,"y":4416,"width":48,"height":64,"properties":[{"name":"variant","type":"int","value":0}]},{"id":102268,"name":"tree_2221","type":"tree","x":3328,"y":4448,"width":48,"height":64,"properties":[{"name":"variant","type":"int","value":1}]},{"id":102269,"name":"tree_2222","type":"tree","x":3424,"y":4448,"width":48,"height":64,"properties":[{"name":"variant","type":"int","value":2}]},{"id":102270,"name":"tree_2223","type":"tree","x":3520,"y":4448,"width":48,"height":64,"properties":[{"name":"variant","type":"int","value":0}]},{"id":102271,"name":"tree_2224","type":"tree","x":3552,"y":4448,"width":48,"height":64,"properties":[{"name":"variant","type":"int","value":1}]},{"id":102272,"name":"tree_2225","type":"tree","x":3616,"y":4448,"width":48,"height":64,"properties":[{"name":"variant","type":"int","value":2}]},{"id":102273,"name":"tree_2226","type":"tree","x":3840,"y":4448,"width":48,"height":64,"properties":[{"name":"variant","type":"int","value":0}]},{"id":102274,"name":"tree_2227","type":"tree","x":4032,"y":4448,"width":48,"height":64,"properties":[{"name":"variant","type":"int","value":1}]},{"id":102275,"name":"tree_2228","type":"tree","x":4192,"y":4448,"width":48,"height":64,"properties":[{"name":"variant","type":"int","value":2}]},{"id":102276,"name":"tree_2229","type":"tree","x":4256,"y":4448,"width":48,"height":64,"properties":[{"name":"variant","type":"int","value":0}]},{"id":102277,"name":"tree_2230","type":"tree","x":4288,"y":4448,"width":48,"height":64,"properties":[{"name":"variant","type":"int","value":1}]},{"id":102278,"name":"tree_2231","type":"tree","x":4320,"y":4448,"width":48,"height":64,"properties":[{"name":"variant","type":"int","value":2}]},{"id":102279,"name":"tree_2232","type":"tree","x":4416,"y":4448,"width":48,"height":64,"properties":[{"name":"variant","type":"int","value":0}]},{"id":102280,"name":"tree_2233","type":"tree","x":4448,"y":4448,"width":48,"height":64,"properties":[{"name":"variant","type":"int","value":1}]},{"id":102281,"name":"tree_2234","type":"tree","x":4576,"y":4448,"width":48,"height":64,"properties":[{"name":"variant","type":"int","value":2}]},{"id":102282,"name":"tree_2235","type":"tree","x":4608,"y":4448,"width":48,"height":64,"properties":[{"name":"variant","type":"int","value":0}]},{"id":102283,"name":"tree_2236","type":"tree","x":3296,"y":4480,"width":48,"height":64,"properties":[{"name":"variant","type":"int","value":1}]},{"id":102284,"name":"tree_2237","type":"tree","x":3328,"y":4480,"width":48,"height":64,"properties":[{"name":"variant","type":"int","value":2}]},{"id":102285,"name":"tree_2238","type":"tree","x":3456,"y":4480,"width":48,"height":64,"properties":[{"name":"variant","type":"int","value":0}]},{"id":102286,"name":"tree_2239","type":"tree","x":3520,"y":4480,"width":48,"height":64,"properties":[{"name":"variant","type":"int","value":1}]},{"id":102287,"name":"tree_2240","type":"tree","x":4224,"y":4480,"width":48,"height":64,"properties":[{"name":"variant","type":"int","value":2}]},{"id":102288,"name":"tree_2241","type":"tree","x":4352,"y":4480,"width":48,"height":64,"properties":[{"name":"variant","type":"int","value":0}]},{"id":102289,"name":"tree_2242","type":"tree","x":4640,"y":4480,"width":48,"height":64,"properties":[{"name":"variant","type":"int","value":1}]},{"id":102290,"name":"tree_2243","type":"tree","x":3328,"y":4512,"width":48,"height":64,"properties":[{"name":"variant","type":"int","value":2}]},{"id":102291,"name":"tree_2244","type":"tree","x":3360,"y":4512,"width":48,"height":64,"properties":[{"name":"variant","type":"int","value":0}]},{"id":102292,"name":"tree_2245","type":"tree","x":3424,"y":4512,"width":48,"height":64,"properties":[{"name":"variant","type":"int","value":1}]},{"id":102293,"name":"tree_2246","type":"tree","x":4000,"y":4512,"width":48,"height":64,"properties":[{"name":"variant","type":"int","value":2}]},{"id":102294,"name":"tree_2247","type":"tree","x":4384,"y":4512,"width":48,"height":64,"properties":[{"name":"variant","type":"int","value":0}]},{"id":102295,"name":"tree_2248","type":"tree","x":3456,"y":4544,"width":48,"height":64,"properties":[{"name":"variant","type":"int","value":1}]},{"id":102296,"name":"tree_2249","type":"tree","x":3616,"y":4544,"width":48,"height":64,"properties":[{"name":"variant","type":"int","value":2}]},{"id":102297,"name":"tree_2250","type":"tree","x":3648,"y":4544,"width":48,"height":64,"properties":[{"name":"variant","type":"int","value":0}]},{"id":102298,"name":"tree_2251","type":"tree","x":4320,"y":4544,"width":48,"height":64,"properties":[{"name":"variant","type":"int","value":1}]},{"id":102299,"name":"tree_2252","type":"tree","x":4384,"y":4544,"width":48,"height":64,"properties":[{"name":"variant","type":"int","value":2}]},{"id":102300,"name":"tree_2253","type":"tree","x":3488,"y":4576,"width":48,"height":64,"properties":[{"name":"variant","type":"int","value":0}]},{"id":102301,"name":"tree_2254","type":"tree","x":3552,"y":4576,"width":48,"height":64,"properties":[{"name":"variant","type":"int","value":1}]},{"id":102302,"name":"tree_2255","type":"tree","x":4512,"y":4576,"width":48,"height":64,"properties":[{"name":"variant","type":"int","value":2}]},{"id":102303,"name":"tree_2256","type":"tree","x":4416,"y":4608,"width":48,"height":64,"properties":[{"name":"variant","type":"int","value":0}]},{"id":102304,"name":"tree_2257","type":"tree","x":4384,"y":4704,"width":48,"height":64,"properties":[{"name":"variant","type":"int","value":1}]}]},{"id":6,"name":"SemanticObjects","type":"objectgroup","x":0,"y":0,"opacity":1,"visible":true,"objects":[{"id":1,"name":"spawn_1","type":"spawn_point","x":3616,"y":4640,"width":32,"height":32,"properties":[{"name":"agentSlot","type":"int","value":1}]},{"id":2,"name":"spawn_2","type":"spawn_point","x":4000,"y":4608,"width":32,"height":32,"properties":[{"name":"agentSlot","type":"int","value":2}]},{"id":3,"name":"spawn_3","type":"spawn_point","x":4416,"y":4800,"width":32,"height":32,"properties":[{"name":"agentSlot","type":"int","value":3}]},{"id":7,"name":"item_water_bottle_1","type":"item_spawn","x":4544,"y":4608,"width":32,"height":32,"properties":[{"name":"itemKind","type":"string","value":"water_bottle"}]},{"id":8,"name":"item_water_bottle_2","type":"item_spawn","x":5536,"y":4384,"width":32,"height":32,"properties":[{"name":"itemKind","type":"string","value":"water_bottle"}]},{"id":9,"name":"item_water_bottle_3","type":"item_spawn","x":3648,"y":4576,"width":32,"height":32,"properties":[{"name":"itemKind","type":"string","value":"water_bottle"}]},{"id":10,"name":"item_water_bottle_4","type":"item_spawn","x":3680,"y":4608,"width":32,"height":32,"properties":[{"name":"itemKind","type":"string","value":"water_bottle"}]},{"id":11,"name":"item_water_bottle_5","type":"item_spawn","x":3648,"y":4640,"width":32,"height":32,"properties":[{"name":"itemKind","type":"string","value":"water_bottle"}]},{"id":12,"name":"item_water_bottle_6","type":"item_spawn","x":5440,"y":4352,"width":32,"height":32,"properties":[{"name":"itemKind","type":"string","value":"water_bottle"}]},{"id":13,"name":"item_water_bottle_7","type":"item_spawn","x":3680,"y":4608,"width":32,"height":32,"properties":[{"name":"itemKind","type":"string","value":"water_bottle"}]},{"id":14,"name":"item_water_bottle_8","type":"item_spawn","x":4352,"y":4672,"width":32,"height":32,"properties":[{"name":"itemKind","type":"string","value":"water_bottle"}]},{"id":15,"name":"item_food_ration_1","type":"item_spawn","x":5536,"y":4384,"width":32,"height":32,"properties":[{"name":"itemKind","type":"string","value":"food_ration"}]},{"id":16,"name":"item_food_ration_2","type":"item_spawn","x":3648,"y":4576,"width":32,"height":32,"properties":[{"name":"itemKind","type":"string","value":"food_ration"}]},{"id":17,"name":"item_food_ration_3","type":"item_spawn","x":5472,"y":4384,"width":32,"height":32,"properties":[{"name":"itemKind","type":"string","value":"food_ration"}]},{"id":18,"name":"item_food_ration_4","type":"item_spawn","x":4320,"y":4640,"width":32,"height":32,"properties":[{"name":"itemKind","type":"string","value":"food_ration"}]},{"id":19,"name":"item_food_ration_5","type":"item_spawn","x":5536,"y":4384,"width":32,"height":32,"properties":[{"name":"itemKind","type":"string","value":"food_ration"}]},{"id":20,"name":"item_lighter_1","type":"item_spawn","x":5472,"y":4320,"width":32,"height":32,"properties":[{"name":"itemKind","type":"string","value":"lighter"}]},{"id":21,"name":"item_tinder_1","type":"item_spawn","x":3808,"y":4544,"width":32,"height":32,"properties":[{"name":"itemKind","type":"string","value":"tinder"}]},{"id":22,"name":"item_tinder_2","type":"item_spawn","x":4384,"y":4576,"width":32,"height":32,"properties":[{"name":"itemKind","type":"string","value":"tinder"}]},{"id":23,"name":"item_backpack_1","type":"item_spawn","x":3712,"y":4640,"width":32,"height":32,"properties":[{"name":"itemKind","type":"string","value":"backpack"}]},{"id":24,"name":"item_backpack_2","type":"item_spawn","x":3584,"y":4640,"width":32,"height":32,"properties":[{"name":"itemKind","type":"string","value":"backpack"}]},{"id":25,"name":"item_wood_log_1","type":"item_spawn","x":5600,"y":4224,"width":32,"height":32,"properties":[{"name":"itemKind","type":"string","value":"wood_log"}]},{"id":26,"name":"item_wood_log_2","type":"item_spawn","x":3648,"y":4544,"width":32,"height":32,"properties":[{"name":"itemKind","type":"string","value":"wood_log"}]},{"id":27,"name":"item_wood_log_3","type":"item_spawn","x":5504,"y":4288,"width":32,"height":32,"properties":[{"name":"itemKind","type":"string","value":"wood_log"}]},{"id":28,"name":"spring","type":"water_spring","x":6080,"y":3008,"width":48,"height":32,"properties":[{"name":"resource","type":"string","value":"water"},{"name":"capacity","type":"int","value":90},{"name":"regenPerIslandHour","type":"int","value":4}]},{"id":29,"name":"spring_east","type":"water_spring","x":5888,"y":3296,"width":48,"height":32,"properties":[{"name":"resource","type":"string","value":"water"},{"name":"capacity","type":"int","value":70},{"name":"regenPerIslandHour","type":"int","value":3.2}]},{"id":30,"name":"spring_west","type":"water_spring","x":1792,"y":3232,"width":48,"height":32,"properties":[{"name":"resource","type":"string","value":"water"},{"name":"capacity","type":"int","value":60},{"name":"regenPerIslandHour","type":"int","value":2.8}]},{"id":31,"name":"spring_south","type":"water_spring","x":3616,"y":4480,"width":48,"height":32,"properties":[{"name":"resource","type":"string","value":"water"},{"name":"capacity","type":"int","value":50},{"name":"regenPerIslandHour","type":"int","value":2.5}]},{"id":2358,"name":"viewpoint","type":"landmark_viewpoint","x":2592,"y":2432,"width":32,"height":32,"properties":[{"name":"landmark","type":"bool","value":true}]}]}]}